(Projekt Zeichnung) 
(Erstellt mit Estlcam Version 8 Build 8,066)
(Laufzeit ca. 00:06:09 Stunden)

(Benoetigte Werkzeuge:)
(Fraeser 3mm)

G90
M03 S24000
G00 Z5.0000


(Nr. 1: Teil 2)
G00 X14.6185 Y15.3608
G00 Z0.5000
G01 Z-1.0000 F600 S24000
G03 X34.4220 Y4.6295 I32.1500 J35.6912 F1200
G03 X56.2228 Y3.9044 I12.4462 J46.1116
G03 X74.7661 Y12.4221 I-8.6179 J43.2051
G03 X87.6322 Y29.1562 I-26.0400 J33.3341
G03 X91.0773 Y48.1917 I-39.6094 J16.9983
G03 X85.5267 Y66.7497 I-39.7647 J-1.7844
G03 X53.9780 Y85.0754 I-32.2496 J-19.2002
G03 X38.5001 Y81.8938 I-0.8381 J-35.1623
G03 X25.9098 Y71.7227 I13.8052 J-29.9669
G03 X19.9482 Y57.5598 I26.0850 J-19.3161
G03 X21.3031 Y42.2307 I30.3372 J-5.0430
G03 X28.4560 Y31.3005 I26.4409 J9.4977
G03 X38.7893 Y25.2510 I18.3826 J19.5498
G03 X51.1277 Y24.3411 I8.0623 J25.2168
G03 X62.1110 Y29.2743 I-3.7616 J23.0683
G03 X70.1602 Y45.8516 I-13.7012 J16.8955
G03 X68.1037 Y54.8988 I-19.1833 J0.3967
G03 X62.2343 Y61.4995 I-15.6240 J-7.9830
G03 X50.0942 Y63.8774 I-8.9684 J-13.6087
G03 X44.5090 Y61.2236 I2.5815 J-12.6372
G03 X40.9469 Y56.2928 I7.2234 J-8.9704
G03 X40.2441 Y52.4687 I10.9447 J-3.9882
G03 X40.9855 Y48.5103 I9.6516 J-0.2409
G03 X45.7824 Y44.2841 I6.6779 J2.7442
G03 X47.5765 Y44.1952 I1.1685 J5.4359
G03 X49.6558 Y44.7393 I-0.7594 J7.1477
G03 X51.3193 Y45.8524 I-1.8866 J4.6193
G03 X52.1258 Y47.2214 I-2.3381 J2.2994
G03 X52.0700 Y49.0677 I-2.9370 J0.8352
G03 X51.3692 Y50.3050 I-3.9369 J-1.4128
G03 X50.6412 Y50.8109 I-1.1818 J-0.9238
G03 X49.7546 Y50.8174 I-0.4538 J-1.4297
G03 X48.7174 Y50.0285 I0.8252 J-2.1615
G03 X48.9201 Y48.0974 I1.3149 J-0.8382
G02 X48.0187 Y47.6334 I-1.6234 J2.0462
G02 X46.7622 Y47.4538 I-1.1622 J3.6465
G01 X46.5693 Y47.4721
G01 X46.2085 Y47.5948
G01 X45.8062 Y47.7813
G02 X44.7378 Y48.6180 I1.7666 J3.3564
G02 X43.6705 Y50.8673 I3.6907 J3.1291
G02 X44.7369 Y56.5982 I7.9325 J1.4886
G02 X49.4467 Y60.2934 I7.7106 J-4.9785
G02 X54.5374 Y60.8486 I3.7892 J-11.1282
G02 X59.3634 Y59.3865 I-1.4110 J-13.3534
G02 X63.0888 Y56.4485 I-6.4713 J-12.0365
G02 X65.9284 Y51.6809 I-10.7919 J-9.6572
G02 X66.6783 Y43.4486 I-16.0416 J-5.6116
G02 X63.9241 Y36.1378 I-18.4060 J2.7598
G02 X58.3422 Y30.5770 I-16.0718 J10.5510
G02 X50.9150 Y27.6376 I-11.0365 J17.0334
G02 X39.7707 Y28.3834 I-4.0654 J22.8868
G02 X30.7117 Y33.6845 I7.0365 J22.4158
G02 X24.3877 Y43.3544 I17.0327 J18.0420
G02 X22.8911 Y54.4534 I25.6046 J9.1030
G02 X37.6018 Y77.7423 I28.9436 J-1.9920
G02 X50.8131 Y81.7101 I15.3899 J-27.2647
G02 X65.5626 Y79.5097 I2.4221 J-34.2982
G02 X79.6061 Y69.4427 I-12.0533 J-31.6434
G02 X87.0380 Y53.9622 I-27.3356 J-22.6475
G02 X86.5569 Y36.1240 I-38.3631 J-7.8909
G02 X77.8967 Y19.8445 I-38.2080 J9.8822
G02 X60.8236 Y8.5441 I-30.0632 J26.8733
G02 X39.9439 Y6.8104 I-13.9512 J41.4227
G02 X20.5319 Y14.7894 I6.9729 J44.5674
G02 X6.9143 Y30.7494 I26.4550 J36.3620
G02 X1.8220 Y54.4180 I42.6544 J21.5591
G02 X9.3652 Y79.0525 I50.6380 J-2.0333
G02 X26.3989 Y95.6597 I42.1935 J-26.2380
G02 X50.5452 Y102.7935 I26.4888 J-45.2273
G02 X77.7041 Y97.2055 I2.6248 J-56.0368
G02 X99.1515 Y78.5835 I-23.8488 J-49.1288
G02 X107.3154 Y59.9420 I-46.8005 J-31.6045
G02 X108.3272 Y37.7364 I-58.6495 J-13.7983
G02 X101.7678 Y17.4421 I-60.9059 J8.4786
G02 X96.7864 Y9.5815 I-53.0891 J28.1349
G02 X89.1765 Y1.2017 I-48.5088 J36.4063
G03 X88.8054 Y0.0939 I1.1245 J-0.9928
G03 X89.7299 Y-1.2924 I1.9348 J0.2887
G03 X91.1674 Y-1.3389 I0.7613 J1.2924
G01 X91.4199 Y-1.1779
G01 X92.2230 Y-0.4399
G01 X92.9332 Y0.2395
G01 X94.3211 Y1.6316
G01 X95.6644 Y3.0666
G03 X106.8007 Y20.3272 I-46.9835 J42.5361
G03 X112.0162 Y51.0050 I-59.3439 J25.8713
G03 X102.4137 Y79.6057 I-60.3833 J-4.3610
G03 X81.7065 Y98.8294 I-48.5755 J-31.5598
G03 X52.6350 Y106.1379 I-28.5480 J-52.0824
G03 X36.0042 Y103.5123 I0.4625 J-56.9111
G03 X21.5107 Y96.4287 I16.2996 J-51.7193
G03 X2.5039 Y72.7917 I29.8978 J-43.5016
G03 X-0.3626 Y41.5535 I49.4713 J-20.2901
G03 X14.6185 Y15.3608 I47.9376 J10.0375
G01 Z-2.0000 F600
G03 X34.4220 Y4.6295 I32.1500 J35.6912 F1200
G03 X56.2228 Y3.9044 I12.4462 J46.1116
G03 X74.7661 Y12.4221 I-8.6179 J43.2051
G03 X87.6322 Y29.1562 I-26.0400 J33.3341
G03 X91.0773 Y48.1917 I-39.6094 J16.9983
G03 X85.5267 Y66.7497 I-39.7647 J-1.7844
G03 X53.9780 Y85.0754 I-32.2496 J-19.2002
G03 X38.5001 Y81.8938 I-0.8381 J-35.1623
G03 X25.9098 Y71.7227 I13.8052 J-29.9669
G03 X19.9482 Y57.5598 I26.0850 J-19.3161
G03 X21.3031 Y42.2307 I30.3372 J-5.0430
G03 X28.4560 Y31.3005 I26.4409 J9.4977
G03 X38.7893 Y25.2510 I18.3826 J19.5498
G03 X51.1277 Y24.3411 I8.0623 J25.2168
G03 X62.1110 Y29.2743 I-3.7616 J23.0683
G03 X70.1602 Y45.8516 I-13.7012 J16.8955
G03 X68.1037 Y54.8988 I-19.1833 J0.3967
G03 X62.2343 Y61.4995 I-15.6240 J-7.9830
G03 X50.0942 Y63.8774 I-8.9684 J-13.6087
G03 X44.5090 Y61.2236 I2.5815 J-12.6372
G03 X40.9469 Y56.2928 I7.2234 J-8.9704
G03 X40.2441 Y52.4687 I10.9447 J-3.9882
G03 X40.9855 Y48.5103 I9.6516 J-0.2409
G03 X45.7824 Y44.2841 I6.6779 J2.7442
G03 X47.5765 Y44.1952 I1.1685 J5.4359
G03 X49.6558 Y44.7393 I-0.7594 J7.1477
G03 X51.3193 Y45.8524 I-1.8866 J4.6193
G03 X52.1258 Y47.2214 I-2.3381 J2.2994
G03 X52.0700 Y49.0677 I-2.9370 J0.8352
G03 X51.3692 Y50.3050 I-3.9369 J-1.4128
G03 X50.6412 Y50.8109 I-1.1818 J-0.9238
G03 X49.7546 Y50.8174 I-0.4538 J-1.4297
G03 X48.7174 Y50.0285 I0.8252 J-2.1615
G03 X48.9201 Y48.0974 I1.3149 J-0.8382
G02 X48.0187 Y47.6334 I-1.6234 J2.0462
G02 X46.7622 Y47.4538 I-1.1622 J3.6465
G01 X46.5693 Y47.4721
G01 X46.2085 Y47.5948
G01 X45.8062 Y47.7813
G02 X44.7378 Y48.6180 I1.7666 J3.3564
G02 X43.6705 Y50.8673 I3.6907 J3.1291
G02 X44.7369 Y56.5982 I7.9325 J1.4886
G02 X49.4467 Y60.2934 I7.7106 J-4.9785
G02 X54.5374 Y60.8486 I3.7892 J-11.1282
G02 X59.3634 Y59.3865 I-1.4110 J-13.3534
G02 X63.0888 Y56.4485 I-6.4713 J-12.0365
G02 X65.9284 Y51.6809 I-10.7919 J-9.6572
G02 X66.6783 Y43.4486 I-16.0416 J-5.6116
G02 X63.9241 Y36.1378 I-18.4060 J2.7598
G02 X58.3422 Y30.5770 I-16.0718 J10.5510
G02 X50.9150 Y27.6376 I-11.0365 J17.0334
G02 X39.7707 Y28.3834 I-4.0654 J22.8868
G02 X30.7117 Y33.6845 I7.0365 J22.4158
G02 X24.3877 Y43.3544 I17.0327 J18.0420
G02 X22.8911 Y54.4534 I25.6046 J9.1030
G02 X37.6018 Y77.7423 I28.9436 J-1.9920
G02 X50.8131 Y81.7101 I15.3899 J-27.2647
G02 X65.5626 Y79.5097 I2.4221 J-34.2982
G02 X79.6061 Y69.4427 I-12.0533 J-31.6434
G02 X87.0380 Y53.9622 I-27.3356 J-22.6475
G02 X86.5569 Y36.1240 I-38.3631 J-7.8909
G02 X77.8967 Y19.8445 I-38.2080 J9.8822
G02 X60.8236 Y8.5441 I-30.0632 J26.8733
G02 X39.9439 Y6.8104 I-13.9512 J41.4227
G02 X20.5319 Y14.7894 I6.9729 J44.5674
G02 X6.9143 Y30.7494 I26.4550 J36.3620
G02 X1.8220 Y54.4180 I42.6544 J21.5591
G02 X9.3652 Y79.0525 I50.6380 J-2.0333
G02 X26.3989 Y95.6597 I42.1935 J-26.2380
G02 X50.5452 Y102.7935 I26.4888 J-45.2273
G02 X77.7041 Y97.2055 I2.6248 J-56.0368
G02 X99.1515 Y78.5835 I-23.8488 J-49.1288
G02 X107.3154 Y59.9420 I-46.8005 J-31.6045
G02 X108.3272 Y37.7364 I-58.6495 J-13.7983
G02 X101.7678 Y17.4421 I-60.9059 J8.4786
G02 X96.7864 Y9.5815 I-53.0891 J28.1349
G02 X89.1765 Y1.2017 I-48.5088 J36.4063
G03 X88.8054 Y0.0939 I1.1245 J-0.9928
G03 X89.7299 Y-1.2924 I1.9348 J0.2887
G03 X91.1674 Y-1.3389 I0.7613 J1.2924
G01 X91.4199 Y-1.1779
G01 X92.2230 Y-0.4399
G01 X92.9332 Y0.2395
G01 X94.3211 Y1.6316
G01 X95.6644 Y3.0666
G03 X106.8007 Y20.3272 I-46.9835 J42.5361
G03 X112.0162 Y51.0050 I-59.3439 J25.8713
G03 X102.4137 Y79.6057 I-60.3833 J-4.3610
G03 X81.7065 Y98.8294 I-48.5755 J-31.5598
G03 X52.6350 Y106.1379 I-28.5480 J-52.0824
G03 X36.0042 Y103.5123 I0.4625 J-56.9111
G03 X21.5107 Y96.4287 I16.2996 J-51.7193
G03 X2.5039 Y72.7917 I29.8978 J-43.5016
G03 X-0.3626 Y41.5535 I49.4713 J-20.2901
G03 X14.6185 Y15.3608 I47.9376 J10.0375
G01 Z-3.0000 F600
G03 X34.4220 Y4.6295 I32.1500 J35.6912 F1200
G03 X56.2228 Y3.9044 I12.4462 J46.1116
G03 X74.7661 Y12.4221 I-8.6179 J43.2051
G03 X87.6322 Y29.1562 I-26.0400 J33.3341
G03 X91.0773 Y48.1917 I-39.6094 J16.9983
G03 X85.5267 Y66.7497 I-39.7647 J-1.7844
G03 X53.9780 Y85.0754 I-32.2496 J-19.2002
G03 X38.5001 Y81.8938 I-0.8381 J-35.1623
G03 X25.9098 Y71.7227 I13.8052 J-29.9669
G03 X19.9482 Y57.5598 I26.0850 J-19.3161
G03 X21.3031 Y42.2307 I30.3372 J-5.0430
G03 X28.4560 Y31.3005 I26.4409 J9.4977
G03 X38.7893 Y25.2510 I18.3826 J19.5498
G03 X51.1277 Y24.3411 I8.0623 J25.2168
G03 X62.1110 Y29.2743 I-3.7616 J23.0683
G03 X70.1602 Y45.8516 I-13.7012 J16.8955
G03 X68.1037 Y54.8988 I-19.1833 J0.3967
G03 X62.2343 Y61.4995 I-15.6240 J-7.9830
G03 X50.0942 Y63.8774 I-8.9684 J-13.6087
G03 X44.5090 Y61.2236 I2.5815 J-12.6372
G03 X40.9469 Y56.2928 I7.2234 J-8.9704
G03 X40.2441 Y52.4687 I10.9447 J-3.9882
G03 X40.9855 Y48.5103 I9.6516 J-0.2409
G03 X45.7824 Y44.2841 I6.6779 J2.7442
G03 X47.5765 Y44.1952 I1.1685 J5.4359
G03 X49.6558 Y44.7393 I-0.7594 J7.1477
G03 X51.3193 Y45.8524 I-1.8866 J4.6193
G03 X52.1258 Y47.2214 I-2.3381 J2.2994
G03 X52.0700 Y49.0677 I-2.9370 J0.8352
G03 X51.3692 Y50.3050 I-3.9369 J-1.4128
G03 X50.6412 Y50.8109 I-1.1818 J-0.9238
G03 X49.7546 Y50.8174 I-0.4538 J-1.4297
G03 X48.7174 Y50.0285 I0.8252 J-2.1615
G03 X48.9201 Y48.0974 I1.3149 J-0.8382
G02 X48.0187 Y47.6334 I-1.6234 J2.0462
G02 X46.7622 Y47.4538 I-1.1622 J3.6465
G01 X46.5693 Y47.4721
G01 X46.2085 Y47.5948
G01 X45.8062 Y47.7813
G02 X44.7378 Y48.6180 I1.7666 J3.3564
G02 X43.6705 Y50.8673 I3.6907 J3.1291
G02 X44.7369 Y56.5982 I7.9325 J1.4886
G02 X49.4467 Y60.2934 I7.7106 J-4.9785
G02 X54.5374 Y60.8486 I3.7892 J-11.1282
G02 X59.3634 Y59.3865 I-1.4110 J-13.3534
G02 X63.0888 Y56.4485 I-6.4713 J-12.0365
G02 X65.9284 Y51.6809 I-10.7919 J-9.6572
G02 X66.6783 Y43.4486 I-16.0416 J-5.6116
G02 X63.9241 Y36.1378 I-18.4060 J2.7598
G02 X58.3422 Y30.5770 I-16.0718 J10.5510
G02 X50.9150 Y27.6376 I-11.0365 J17.0334
G02 X39.7707 Y28.3834 I-4.0654 J22.8868
G02 X30.7117 Y33.6845 I7.0365 J22.4158
G02 X24.3877 Y43.3544 I17.0327 J18.0420
G02 X22.8911 Y54.4534 I25.6046 J9.1030
G02 X37.6018 Y77.7423 I28.9436 J-1.9920
G02 X50.8131 Y81.7101 I15.3899 J-27.2647
G02 X65.5626 Y79.5097 I2.4221 J-34.2982
G02 X79.6061 Y69.4427 I-12.0533 J-31.6434
G02 X87.0380 Y53.9622 I-27.3356 J-22.6475
G02 X86.5569 Y36.1240 I-38.3631 J-7.8909
G02 X77.8967 Y19.8445 I-38.2080 J9.8822
G02 X60.8236 Y8.5441 I-30.0632 J26.8733
G02 X39.9439 Y6.8104 I-13.9512 J41.4227
G02 X20.5319 Y14.7894 I6.9729 J44.5674
G02 X6.9143 Y30.7494 I26.4550 J36.3620
G02 X1.8220 Y54.4180 I42.6544 J21.5591
G02 X9.3652 Y79.0525 I50.6380 J-2.0333
G02 X26.3989 Y95.6597 I42.1935 J-26.2380
G02 X50.5452 Y102.7935 I26.4888 J-45.2273
G02 X77.7041 Y97.2055 I2.6248 J-56.0368
G02 X99.1515 Y78.5835 I-23.8488 J-49.1288
G02 X107.3154 Y59.9420 I-46.8005 J-31.6045
G02 X108.3272 Y37.7364 I-58.6495 J-13.7983
G02 X101.7678 Y17.4421 I-60.9059 J8.4786
G02 X96.7864 Y9.5815 I-53.0891 J28.1349
G02 X89.1765 Y1.2017 I-48.5088 J36.4063
G03 X88.8054 Y0.0939 I1.1245 J-0.9928
G03 X89.7299 Y-1.2924 I1.9348 J0.2887
G03 X91.1674 Y-1.3389 I0.7613 J1.2924
G01 X91.4199 Y-1.1779
G01 X92.2230 Y-0.4399
G01 X92.9332 Y0.2395
G01 X94.3211 Y1.6316
G01 X95.6644 Y3.0666
G03 X106.8007 Y20.3272 I-46.9835 J42.5361
G03 X112.0162 Y51.0050 I-59.3439 J25.8713
G03 X102.4137 Y79.6057 I-60.3833 J-4.3610
G03 X81.7065 Y98.8294 I-48.5755 J-31.5598
G03 X52.6350 Y106.1379 I-28.5480 J-52.0824
G03 X36.0042 Y103.5123 I0.4625 J-56.9111
G03 X21.5107 Y96.4287 I16.2996 J-51.7193
G03 X2.5039 Y72.7917 I29.8978 J-43.5016
G03 X-0.3626 Y41.5535 I49.4713 J-20.2901
G03 X14.6185 Y15.3608 I47.9376 J10.0375
G00 Z5.0000


(Nr. 2: Teil 1)
G00 X14.6185 Y15.3608 Z5.0000 F1200
G00 X13.0205 Y16.8756
G00 Z0.5000
G01 Z-1.0000 F600
G03 X32.3111 Y5.2455 I33.6572 J34.0133 F1200
G03 X54.7787 Y3.6359 I14.5717 J45.7849
G03 X74.1835 Y11.9726 I-7.2465 J43.6191
G03 X87.3716 Y28.5605 I-25.4733 J33.7888
G03 X91.1042 Y47.5413 I-39.3609 J17.5978
G03 X85.8577 Y66.1866 I-39.8719 J-1.1585
G03 X55.1130 Y85.0357 I-32.5789 J-18.6410
G03 X39.5436 Y82.3547 I-1.9230 J-35.3822
G03 X26.8051 Y72.8711 I12.8444 J-30.5494
G03 X20.0289 Y58.0379 I25.1116 J-20.4361
G03 X21.1415 Y42.6908 I30.3748 J-5.5119
G03 X27.7590 Y31.9826 I26.6080 J9.0445
G03 X38.4068 Y25.3750 I19.0338 J18.7889
G03 X50.7285 Y24.2774 I8.4524 J25.1756
G03 X61.7939 Y29.0194 I-3.3842 J23.1783
G03 X70.1619 Y46.1726 I-13.3833 J17.1465
G03 X68.1037 Y54.8988 I-19.2978 J0.0541
G03 X61.9314 Y61.6938 I-15.5728 J-7.9448
G03 X55.7066 Y64.0057 I-8.7867 J-14.1219
G03 X49.2695 Y63.6756 I-2.4555 J-15.0435
G03 X44.1341 Y60.9015 I3.3122 J-12.2719
G03 X40.8699 Y56.0754 I7.4058 J-8.5260
G03 X40.2477 Y52.0061 I10.9893 J-3.7625
G03 X40.9383 Y48.6227 I9.4540 J0.1674
G03 X45.9335 Y44.2514 I6.7102 J2.6281
G03 X49.6558 Y44.7393 I1.0164 J6.6887
G03 X51.2058 Y45.7386 I-1.9263 J4.6897
G03 X52.1471 Y47.2985 I-2.2170 J2.4017
G03 X52.0700 Y49.0677 I-2.9628 J0.7571
G03 X51.4602 Y50.1886 I-3.8203 J-1.3521
G03 X50.7816 Y50.7584 I-1.3042 J-0.8640
G03 X49.7546 Y50.8174 I-0.5942 J-1.3773
G03 X48.7174 Y50.0285 I0.8358 J-2.1754
G03 X48.9201 Y48.0974 I1.3149 J-0.8382
G02 X48.0187 Y47.6334 I-1.5293 J1.8634
G02 X46.7622 Y47.4538 I-1.1494 J3.5567
G01 X46.5693 Y47.4721
G01 X46.4535 Y47.5037
G01 X46.1393 Y47.6233
G01 X45.8711 Y47.7476
G01 X45.6165 Y47.8885
G02 X44.7378 Y48.6180 I1.9400 J3.2310
G02 X43.6705 Y50.8673 I3.7151 J3.1406
G02 X44.5578 Y56.3049 I7.9872 J1.4880
G02 X49.3600 Y60.2623 I7.8775 J-4.6670
G02 X54.0619 Y60.8895 I3.8373 J-10.8287
G02 X59.3634 Y59.3865 I-0.9270 J-13.3713
G02 X63.4361 Y56.0469 I-6.4689 J-12.0421
G02 X66.1012 Y51.1753 I-11.2324 J-9.3097
G02 X66.6361 Y43.1806 I-16.3982 J-5.1124
G02 X63.9241 Y36.1378 I-18.3786 J3.0335
G02 X58.0485 Y30.3890 I-16.0801 J10.5580
G02 X50.2226 Y27.5217 I-10.7928 J17.3437
G02 X30.0935 Y34.2895 I-3.3309 J23.4117
G02 X24.2445 Y43.7625 I17.6725 J17.4539
G02 X22.9247 Y54.8871 I25.9104 J8.7147
G02 X27.7905 Y68.7007 I29.1188 J-2.4933
G02 X38.0382 Y77.9862 I24.3950 J-16.6253
G02 X51.8623 Y81.7704 I15.0039 J-27.6686
G02 X66.5077 Y79.1316 I1.3532 J-34.4505
G02 X80.3542 Y68.5103 I-12.9846 J-31.2637
G02 X87.2653 Y52.7857 I-28.2249 J-21.7862
G02 X77.4948 Y19.3993 I-39.0900 J-6.6833
G02 X60.8236 Y8.5441 I-29.6712 J27.3392
G02 X39.2697 Y6.9218 I-13.9553 J41.4160
G02 X19.4381 Y15.6068 I7.6359 J44.4205
G02 X6.2421 Y32.1212 I27.7226 J35.6815
G02 X1.9064 Y55.9477 I43.6831 J20.2566
G02 X9.7740 Y79.7001 I50.5296 J-3.5578
G02 X27.1315 Y96.0841 I41.8937 J-26.9966
G02 X51.3931 Y102.8278 I25.7847 J-45.7504
G02 X84.3201 Y93.3995 I1.7868 J-55.9706
G02 X105.1329 Y67.0533 I-31.0497 J-45.9223
G02 X108.7429 Y50.7504 I-54.7039 J-20.6643
G02 X107.3046 Y32.2399 I-61.0246 J-4.5696
G02 X101.3250 Y16.6223 I-59.7112 J13.9087
G02 X95.6471 Y8.1080 I-52.4739 J28.8425
G01 X94.4623 Y6.6710
G01 X93.2330 Y5.2720
G02 X89.2813 Y1.3090 I-43.8094 J39.7326
G01 X89.1765 Y1.2017
G01 X89.0017 Y0.9585
G03 X89.0436 Y-0.6090 I1.2993 J-0.7496
G01 X89.1316 Y-0.7305
G01 X89.3819 Y-1.0097
G01 X89.6046 Y-1.2100
G01 X89.8627 Y-1.3620
G01 X90.1458 Y-1.4597
G03 X91.4199 Y-1.1779 I0.3454 J1.4597
G03 X97.5929 Y5.2964 I-41.5094 J45.7574
G03 X106.8007 Y20.3272 I-49.0576 J40.3884
G03 X112.0830 Y50.0247 I-59.3546 J25.8759
G03 X103.4623 Y77.9397 I-60.6421 J-3.4389
G03 X82.1482 Y98.5843 I-49.6636 J-29.9492
G03 X53.1402 Y106.1406 I-28.9911 J-51.8363
G03 X37.8959 Y104.0738 I-0.0110 J-57.1703
G03 X24.1624 Y98.1471 I14.5283 J-52.5407
G03 X3.4802 Y75.0368 I27.2916 J-45.2341
G03 X-0.8162 Y43.9627 I48.7490 J-22.5743
G03 X13.0205 Y16.8756 I48.5731 J7.7347
G01 Z-2.0000 F600
G03 X32.3111 Y5.2455 I33.6572 J34.0133 F1200
G03 X54.7787 Y3.6359 I14.5717 J45.7849
G03 X74.1835 Y11.9726 I-7.2465 J43.6191
G03 X87.3716 Y28.5605 I-25.4733 J33.7888
G03 X91.1042 Y47.5413 I-39.3609 J17.5978
G03 X85.8577 Y66.1866 I-39.8719 J-1.1585
G03 X55.1130 Y85.0357 I-32.5789 J-18.6410
G03 X39.5436 Y82.3547 I-1.9230 J-35.3822
G03 X26.8051 Y72.8711 I12.8444 J-30.5494
G03 X20.0289 Y58.0379 I25.1116 J-20.4361
G03 X21.1415 Y42.6908 I30.3748 J-5.5119
G03 X27.7590 Y31.9826 I26.6080 J9.0445
G03 X38.4068 Y25.3750 I19.0338 J18.7889
G03 X50.7285 Y24.2774 I8.4524 J25.1756
G03 X61.7939 Y29.0194 I-3.3842 J23.1783
G03 X70.1619 Y46.1726 I-13.3833 J17.1465
G03 X68.1037 Y54.8988 I-19.2978 J0.0541
G03 X61.9314 Y61.6938 I-15.5728 J-7.9448
G03 X55.7066 Y64.0057 I-8.7867 J-14.1219
G03 X49.2695 Y63.6756 I-2.4555 J-15.0435
G03 X44.1341 Y60.9015 I3.3122 J-12.2719
G03 X40.8699 Y56.0754 I7.4058 J-8.5260
G03 X40.2477 Y52.0061 I10.9893 J-3.7625
G03 X40.9383 Y48.6227 I9.4540 J0.1674
G03 X45.9335 Y44.2514 I6.7102 J2.6281
G03 X49.6558 Y44.7393 I1.0164 J6.6887
G03 X51.2058 Y45.7386 I-1.9263 J4.6897
G03 X52.1471 Y47.2985 I-2.2170 J2.4017
G03 X52.0700 Y49.0677 I-2.9628 J0.7571
G03 X51.4602 Y50.1886 I-3.8203 J-1.3521
G03 X50.7816 Y50.7584 I-1.3042 J-0.8640
G03 X49.7546 Y50.8174 I-0.5942 J-1.3773
G03 X48.7174 Y50.0285 I0.8358 J-2.1754
G03 X48.9201 Y48.0974 I1.3149 J-0.8382
G02 X48.0187 Y47.6334 I-1.5293 J1.8634
G02 X46.7622 Y47.4538 I-1.1494 J3.5567
G01 X46.5693 Y47.4721
G01 X46.4535 Y47.5037
G01 X46.1393 Y47.6233
G01 X45.8711 Y47.7476
G01 X45.6165 Y47.8885
G02 X44.7378 Y48.6180 I1.9400 J3.2310
G02 X43.6705 Y50.8673 I3.7151 J3.1406
G02 X44.5578 Y56.3049 I7.9872 J1.4880
G02 X49.3600 Y60.2623 I7.8775 J-4.6670
G02 X54.0619 Y60.8895 I3.8373 J-10.8287
G02 X59.3634 Y59.3865 I-0.9270 J-13.3713
G02 X63.4361 Y56.0469 I-6.4689 J-12.0421
G02 X66.1012 Y51.1753 I-11.2324 J-9.3097
G02 X66.6361 Y43.1806 I-16.3982 J-5.1124
G02 X63.9241 Y36.1378 I-18.3786 J3.0335
G02 X58.0485 Y30.3890 I-16.0801 J10.5580
G02 X50.2226 Y27.5217 I-10.7928 J17.3437
G02 X30.0935 Y34.2895 I-3.3309 J23.4117
G02 X24.2445 Y43.7625 I17.6725 J17.4539
G02 X22.9247 Y54.8871 I25.9104 J8.7147
G02 X27.7905 Y68.7007 I29.1188 J-2.4933
G02 X38.0382 Y77.9862 I24.3950 J-16.6253
G02 X51.8623 Y81.7704 I15.0039 J-27.6686
G02 X66.5077 Y79.1316 I1.3532 J-34.4505
G02 X80.3542 Y68.5103 I-12.9846 J-31.2637
G02 X87.2653 Y52.7857 I-28.2249 J-21.7862
G02 X77.4948 Y19.3993 I-39.0900 J-6.6833
G02 X60.8236 Y8.5441 I-29.6712 J27.3392
G02 X39.2697 Y6.9218 I-13.9553 J41.4160
G02 X19.4381 Y15.6068 I7.6359 J44.4205
G02 X6.2421 Y32.1212 I27.7226 J35.6815
G02 X1.9064 Y55.9477 I43.6831 J20.2566
G02 X9.7740 Y79.7001 I50.5296 J-3.5578
G02 X27.1315 Y96.0841 I41.8937 J-26.9966
G02 X51.3931 Y102.8278 I25.7847 J-45.7504
G02 X84.3201 Y93.3995 I1.7868 J-55.9706
G02 X105.1329 Y67.0533 I-31.0497 J-45.9223
G02 X108.7429 Y50.7504 I-54.7039 J-20.6643
G02 X107.3046 Y32.2399 I-61.0246 J-4.5696
G02 X101.3250 Y16.6223 I-59.7112 J13.9087
G02 X95.6471 Y8.1080 I-52.4739 J28.8425
G01 X94.4623 Y6.6710
G01 X93.2330 Y5.2720
G02 X89.2813 Y1.3090 I-43.8094 J39.7326
G01 X89.1765 Y1.2017
G01 X89.0017 Y0.9585
G03 X89.0436 Y-0.6090 I1.2993 J-0.7496
G01 X89.1316 Y-0.7305
G01 X89.3819 Y-1.0097
G01 X89.6046 Y-1.2100
G01 X89.8627 Y-1.3620
G01 X90.1458 Y-1.4597
G03 X91.4199 Y-1.1779 I0.3454 J1.4597
G03 X97.5929 Y5.2964 I-41.5094 J45.7574
G03 X106.8007 Y20.3272 I-49.0576 J40.3884
G03 X112.0830 Y50.0247 I-59.3546 J25.8759
G03 X103.4623 Y77.9397 I-60.6421 J-3.4389
G03 X82.1482 Y98.5843 I-49.6636 J-29.9492
G03 X53.1402 Y106.1406 I-28.9911 J-51.8363
G03 X37.8959 Y104.0738 I-0.0110 J-57.1703
G03 X24.1624 Y98.1471 I14.5283 J-52.5407
G03 X3.4802 Y75.0368 I27.2916 J-45.2341
G03 X-0.8162 Y43.9627 I48.7490 J-22.5743
G03 X13.0205 Y16.8756 I48.5731 J7.7347
G01 Z-3.0000 F600
G03 X32.3111 Y5.2455 I33.6572 J34.0133 F1200
G03 X54.7787 Y3.6359 I14.5717 J45.7849
G03 X74.1835 Y11.9726 I-7.2465 J43.6191
G03 X87.3716 Y28.5605 I-25.4733 J33.7888
G03 X91.1042 Y47.5413 I-39.3609 J17.5978
G03 X85.8577 Y66.1866 I-39.8719 J-1.1585
G03 X55.1130 Y85.0357 I-32.5789 J-18.6410
G03 X39.5436 Y82.3547 I-1.9230 J-35.3822
G03 X26.8051 Y72.8711 I12.8444 J-30.5494
G03 X20.0289 Y58.0379 I25.1116 J-20.4361
G03 X21.1415 Y42.6908 I30.3748 J-5.5119
G03 X27.7590 Y31.9826 I26.6080 J9.0445
G03 X38.4068 Y25.3750 I19.0338 J18.7889
G03 X50.7285 Y24.2774 I8.4524 J25.1756
G03 X61.7939 Y29.0194 I-3.3842 J23.1783
G03 X70.1619 Y46.1726 I-13.3833 J17.1465
G03 X68.1037 Y54.8988 I-19.2978 J0.0541
G03 X61.9314 Y61.6938 I-15.5728 J-7.9448
G03 X55.7066 Y64.0057 I-8.7867 J-14.1219
G03 X49.2695 Y63.6756 I-2.4555 J-15.0435
G03 X44.1341 Y60.9015 I3.3122 J-12.2719
G03 X40.8699 Y56.0754 I7.4058 J-8.5260
G03 X40.2477 Y52.0061 I10.9893 J-3.7625
G03 X40.9383 Y48.6227 I9.4540 J0.1674
G03 X45.9335 Y44.2514 I6.7102 J2.6281
G03 X49.6558 Y44.7393 I1.0164 J6.6887
G03 X51.2058 Y45.7386 I-1.9263 J4.6897
G03 X52.1471 Y47.2985 I-2.2170 J2.4017
G03 X52.0700 Y49.0677 I-2.9628 J0.7571
G03 X51.4602 Y50.1886 I-3.8203 J-1.3521
G03 X50.7816 Y50.7584 I-1.3042 J-0.8640
G03 X49.7546 Y50.8174 I-0.5942 J-1.3773
G03 X48.7174 Y50.0285 I0.8358 J-2.1754
G03 X48.9201 Y48.0974 I1.3149 J-0.8382
G02 X48.0187 Y47.6334 I-1.5293 J1.8634
G02 X46.7622 Y47.4538 I-1.1494 J3.5567
G01 X46.5693 Y47.4721
G01 X46.4535 Y47.5037
G01 X46.1393 Y47.6233
G01 X45.8711 Y47.7476
G01 X45.6165 Y47.8885
G02 X44.7378 Y48.6180 I1.9400 J3.2310
G02 X43.6705 Y50.8673 I3.7151 J3.1406
G02 X44.5578 Y56.3049 I7.9872 J1.4880
G02 X49.3600 Y60.2623 I7.8775 J-4.6670
G02 X54.0619 Y60.8895 I3.8373 J-10.8287
G02 X59.3634 Y59.3865 I-0.9270 J-13.3713
G02 X63.4361 Y56.0469 I-6.4689 J-12.0421
G02 X66.1012 Y51.1753 I-11.2324 J-9.3097
G02 X66.6361 Y43.1806 I-16.3982 J-5.1124
G02 X63.9241 Y36.1378 I-18.3786 J3.0335
G02 X58.0485 Y30.3890 I-16.0801 J10.5580
G02 X50.2226 Y27.5217 I-10.7928 J17.3437
G02 X30.0935 Y34.2895 I-3.3309 J23.4117
G02 X24.2445 Y43.7625 I17.6725 J17.4539
G02 X22.9247 Y54.8871 I25.9104 J8.7147
G02 X27.7905 Y68.7007 I29.1188 J-2.4933
G02 X38.0382 Y77.9862 I24.3950 J-16.6253
G02 X51.8623 Y81.7704 I15.0039 J-27.6686
G02 X66.5077 Y79.1316 I1.3532 J-34.4505
G02 X80.3542 Y68.5103 I-12.9846 J-31.2637
G02 X87.2653 Y52.7857 I-28.2249 J-21.7862
G02 X77.4948 Y19.3993 I-39.0900 J-6.6833
G02 X60.8236 Y8.5441 I-29.6712 J27.3392
G02 X39.2697 Y6.9218 I-13.9553 J41.4160
G02 X19.4381 Y15.6068 I7.6359 J44.4205
G02 X6.2421 Y32.1212 I27.7226 J35.6815
G02 X1.9064 Y55.9477 I43.6831 J20.2566
G02 X9.7740 Y79.7001 I50.5296 J-3.5578
G02 X27.1315 Y96.0841 I41.8937 J-26.9966
G02 X51.3931 Y102.8278 I25.7847 J-45.7504
G02 X84.3201 Y93.3995 I1.7868 J-55.9706
G02 X105.1329 Y67.0533 I-31.0497 J-45.9223
G02 X108.7429 Y50.7504 I-54.7039 J-20.6643
G02 X107.3046 Y32.2399 I-61.0246 J-4.5696
G02 X101.3250 Y16.6223 I-59.7112 J13.9087
G02 X95.6471 Y8.1080 I-52.4739 J28.8425
G01 X94.4623 Y6.6710
G01 X93.2330 Y5.2720
G02 X89.2813 Y1.3090 I-43.8094 J39.7326
G01 X89.1765 Y1.2017
G01 X89.0017 Y0.9585
G03 X89.0436 Y-0.6090 I1.2993 J-0.7496
G01 X89.1316 Y-0.7305
G01 X89.3819 Y-1.0097
G01 X89.6046 Y-1.2100
G01 X89.8627 Y-1.3620
G01 X90.1458 Y-1.4597
G03 X91.4199 Y-1.1779 I0.3454 J1.4597
G03 X97.5929 Y5.2964 I-41.5094 J45.7574
G03 X106.8007 Y20.3272 I-49.0576 J40.3884
G03 X112.0830 Y50.0247 I-59.3546 J25.8759
G03 X103.4623 Y77.9397 I-60.6421 J-3.4389
G03 X82.1482 Y98.5843 I-49.6636 J-29.9492
G03 X53.1402 Y106.1406 I-28.9911 J-51.8363
G03 X37.8959 Y104.0738 I-0.0110 J-57.1703
G03 X24.1624 Y98.1471 I14.5283 J-52.5407
G03 X3.4802 Y75.0368 I27.2916 J-45.2341
G03 X-0.8162 Y43.9627 I48.7490 J-22.5743
G03 X13.0205 Y16.8756 I48.5731 J7.7347
G00 Z5.0000
G00 X0.0000 Y0.0000

M05
M30	
