(/home/kira/.eagle/ulp/pcb-gcode.ulp)
(Copyright 2005 - 2009 by John Johnson)
(See readme.txt for licensing terms.)
(This file generated from the board:)
(.../projects/examples/hexapod/hexapod.brd)
(Current profile is .../.eagle/ulp/profiles/generic.pp  )
(This file generated 07.11.15 23:40)
(Beginning of every file)
(Beginning of every bottom file)
(Outline Begin)
(Bottom outline Begin)
G21
(Absolute Coordinates)
G90
G00 X0.0000 Y0.0000 
M03
G04 P3.000000
G00 Z2.5400 
G00 X-6.6666 Y33.4600 
G01 Z0.0000 F254.00 
G01 X-6.6666 Y33.5586 F508.00 
G01 X-6.8145 Y33.7065 
G01 X-7.3279 Y33.7065 
G01 X-7.3279 Y33.3121 
G01 X-6.8145 Y33.3121 
G01 X-6.6666 Y33.4600 
G00 Z2.5400 
G00 X-6.6666 Y34.2608 
G01 Z0.0000 F254.00 
G01 X-6.6666 Y34.3594 F508.00 
G01 X-6.8145 Y34.5073 
G01 X-7.3279 Y34.5073 
G01 X-7.3279 Y34.1129 
G01 X-6.8145 Y34.1129 
G01 X-6.6666 Y34.2608 
G00 Z2.5400 
G00 X-5.5428 Y34.5073 
G01 Z0.0000 F254.00 
G01 X-5.6907 Y34.3594 F508.00 
G01 X-5.6907 Y33.4600 
G01 X-5.5428 Y33.3121 
G01 X-5.1773 Y33.3121 
G01 X-5.0294 Y33.4600 
G01 X-5.0294 Y34.3594 
G01 X-5.1773 Y34.5073 
G01 X-5.5428 Y34.5073 
G00 Z2.5400 
G00 X-72.6694 Y16.2538 
G01 Z0.0000 F254.00 
G01 X-72.1338 Y16.7894 F508.00 
G01 X-71.3762 Y16.7894 
G01 X-70.8406 Y16.2538 
G01 X-70.8406 Y15.9305 
G01 X-69.8834 Y14.9734 
G01 X-69.3694 Y14.9734 
G01 X-69.4817 Y14.9957 
G01 X-69.6481 Y15.0647 
G01 X-69.7979 Y15.1647 
G01 X-69.9253 Y15.2921 
G01 X-70.0253 Y15.4419 
G01 X-70.0943 Y15.6083 
G01 X-70.1294 Y15.7849 
G01 X-70.1294 Y15.9651 
G01 X-70.0943 Y16.1417 
G01 X-70.0928 Y16.1451 
G01 X-70.7753 Y16.8276 
G01 X-77.8148 Y16.8276 
G01 X-78.4972 Y16.1452 
G01 X-78.4957 Y16.1417 
G01 X-78.4606 Y15.9651 
G01 X-78.4606 Y15.7849 
G01 X-78.4957 Y15.6083 
G01 X-78.5647 Y15.4419 
G01 X-78.6647 Y15.2921 
G01 X-78.7921 Y15.1647 
G01 X-78.9419 Y15.0647 
G01 X-79.1083 Y14.9957 
G01 X-79.2206 Y14.9734 
G01 X-78.8653 Y14.9734 
G01 X-78.8597 Y14.9790 
G01 X-78.8004 Y15.0186 
G01 X-78.7473 Y15.0540 
G01 X-78.6804 Y15.0818 
G01 X-78.6225 Y15.1057 
G01 X-78.5516 Y15.1198 
G01 X-78.4900 Y15.1321 
G01 X-78.4222 Y15.1321 
G01 X-73.6266 Y15.1321 
G01 X-72.7637 Y15.9951 
G01 X-72.7163 Y16.0424 
G01 X-72.6694 Y16.0894 
G01 X-72.6694 Y16.2538 
G00 Z2.5400 
G00 X-42.1894 Y16.2538 
G01 Z0.0000 F254.00 
G01 X-41.6538 Y16.7894 F508.00 
G01 X-40.8962 Y16.7894 
G01 X-40.3606 Y16.2538 
G01 X-40.3606 Y15.9305 
G01 X-39.4034 Y14.9734 
G01 X-38.8894 Y14.9734 
G01 X-39.0017 Y14.9957 
G01 X-39.1681 Y15.0647 
G01 X-39.3179 Y15.1647 
G01 X-39.4453 Y15.2921 
G01 X-39.5453 Y15.4419 
G01 X-39.6143 Y15.6083 
G01 X-39.6494 Y15.7849 
G01 X-39.6494 Y15.9651 
G01 X-39.6143 Y16.1417 
G01 X-39.6128 Y16.1451 
G01 X-40.2953 Y16.8276 
G01 X-41.6198 Y16.8276 
G01 X-42.1913 Y16.2560 
G01 X-42.2637 Y16.2142 
G01 X-42.3445 Y16.1926 
G01 X-47.9698 Y16.1926 
G01 X-48.0172 Y16.1452 
G01 X-48.0157 Y16.1417 
G01 X-47.9806 Y15.9651 
G01 X-47.9806 Y15.7849 
G01 X-48.0157 Y15.6083 
G01 X-48.0847 Y15.4419 
G01 X-48.1847 Y15.2921 
G01 X-48.3121 Y15.1647 
G01 X-48.4619 Y15.0647 
G01 X-48.6283 Y14.9957 
G01 X-48.7406 Y14.9734 
G01 X-46.3216 Y14.9734 
G01 X-45.4590 Y15.8360 
G01 X-45.3635 Y15.9315 
G01 X-45.2511 Y16.0065 
G01 X-45.1263 Y16.0582 
G01 X-44.9938 Y16.0846 
G01 X-42.1894 Y16.0846 
G01 X-42.1894 Y16.2538 
G00 Z2.5400 
G00 X-32.0294 Y15.4962 
G01 Z0.0000 F254.00 
G01 X-32.0294 Y16.2538 F508.00 
G01 X-31.4938 Y16.7894 
G01 X-30.7362 Y16.7894 
G01 X-30.2006 Y16.2538 
G01 X-30.2006 Y15.9305 
G01 X-29.9634 Y15.6933 
G01 X-29.9204 Y15.6502 
G01 X-29.2435 Y14.9734 
G01 X-28.7294 Y14.9734 
G01 X-28.8417 Y14.9957 
G01 X-29.0081 Y15.0647 
G01 X-29.1579 Y15.1647 
G01 X-29.2853 Y15.2921 
G01 X-29.3853 Y15.4419 
G01 X-29.4543 Y15.6083 
G01 X-29.4894 Y15.7849 
G01 X-29.4894 Y15.9651 
G01 X-29.4543 Y16.1417 
G01 X-29.4332 Y16.1926 
G01 X-30.0456 Y16.1926 
G01 X-30.1264 Y16.2142 
G01 X-30.1987 Y16.2560 
G01 X-30.7703 Y16.8276 
G01 X-31.4598 Y16.8276 
G01 X-32.6072 Y15.6802 
G01 X-32.6664 Y15.6210 
G01 X-32.7387 Y15.5792 
G01 X-32.8195 Y15.5576 
G01 X-37.8767 Y15.5576 
G01 X-37.9247 Y15.4419 
G01 X-38.0247 Y15.2921 
G01 X-38.1521 Y15.1647 
G01 X-38.3019 Y15.0647 
G01 X-38.4683 Y14.9957 
G01 X-38.5806 Y14.9734 
G01 X-38.2253 Y14.9734 
G01 X-37.9333 Y15.2654 
G01 X-37.9022 Y15.2965 
G01 X-37.8342 Y15.3419 
G01 X-37.7898 Y15.3715 
G01 X-37.7199 Y15.4005 
G01 X-37.6650 Y15.4232 
G01 X-37.5984 Y15.4365 
G01 X-37.5325 Y15.4496 
G01 X-37.4653 Y15.4496 
G01 X-31.9827 Y15.4496 
G01 X-32.0294 Y15.4962 
G00 Z2.5400 
G00 X-66.0124 Y45.6692 
G01 Z0.0000 F254.00 
G01 X-67.3376 Y45.6693 F508.00 
G01 X-67.5534 Y45.4534 
G01 X-65.7965 Y45.4534 
G01 X-66.0124 Y45.6692 
G00 Z2.5400 
G00 X-44.4224 Y45.6692 
G01 Z0.0000 F254.00 
G01 X-45.7476 Y45.6693 F508.00 
G01 X-45.9635 Y45.4534 
G01 X-44.2065 Y45.4534 
G01 X-44.4224 Y45.6692 
G00 Z2.5400 
G00 X-111.7180 Y62.8241 
G01 Z0.0000 F254.00 
G01 X-111.7064 Y62.7848 F508.00 
G01 X-111.6876 Y62.7483 
G01 X-111.6623 Y62.7160 
G01 X-111.6312 Y62.6891 
G01 X-111.5957 Y62.6686 
G01 X-111.5569 Y62.6552 
G01 X-111.5163 Y62.6493 
G01 X-111.4753 Y62.6513 
G01 X-111.4354 Y62.6610 
G01 X-111.3980 Y62.6780 
G01 X-111.3646 Y62.7018 
G01 X-111.3363 Y62.7315 
G01 X-111.3141 Y62.7661 
G01 X-111.2988 Y62.8042 
G01 X-111.2911 Y62.8445 
G01 X-111.2911 Y62.8855 
G01 X-111.2988 Y62.9258 
G01 X-111.3141 Y62.9639 
G01 X-111.3363 Y62.9985 
G01 X-111.3646 Y63.0282 
G01 X-111.3981 Y63.0520 
G01 X-111.4354 Y63.0690 
G01 X-111.4753 Y63.0787 
G01 X-111.5163 Y63.0807 
G01 X-111.5569 Y63.0748 
G01 X-111.5957 Y63.0614 
G01 X-111.6312 Y63.0409 
G01 X-111.6623 Y63.0140 
G01 X-111.6876 Y62.9817 
G01 X-111.7064 Y62.9452 
G01 X-111.7180 Y62.9059 
G01 X-111.7219 Y62.8650 
G01 X-111.7180 Y62.8241 
G00 Z2.5400 
G00 X-111.7180 Y51.3941 
G01 Z0.0000 F254.00 
G01 X-111.7064 Y51.3548 F508.00 
G01 X-111.6876 Y51.3183 
G01 X-111.6623 Y51.2860 
G01 X-111.6312 Y51.2591 
G01 X-111.5957 Y51.2386 
G01 X-111.5569 Y51.2252 
G01 X-111.5163 Y51.2193 
G01 X-111.4753 Y51.2213 
G01 X-111.4354 Y51.2310 
G01 X-111.3980 Y51.2480 
G01 X-111.3646 Y51.2718 
G01 X-111.3363 Y51.3015 
G01 X-111.3141 Y51.3361 
G01 X-111.2988 Y51.3742 
G01 X-111.2911 Y51.4145 
G01 X-111.2911 Y51.4555 
G01 X-111.2988 Y51.4958 
G01 X-111.3141 Y51.5339 
G01 X-111.3363 Y51.5685 
G01 X-111.3646 Y51.5982 
G01 X-111.3981 Y51.6220 
G01 X-111.4354 Y51.6390 
G01 X-111.4753 Y51.6487 
G01 X-111.5163 Y51.6507 
G01 X-111.5569 Y51.6448 
G01 X-111.5957 Y51.6314 
G01 X-111.6312 Y51.6109 
G01 X-111.6623 Y51.5840 
G01 X-111.6876 Y51.5517 
G01 X-111.7064 Y51.5152 
G01 X-111.7180 Y51.4759 
G01 X-111.7219 Y51.4350 
G01 X-111.7180 Y51.3941 
G00 Z2.5400 
G00 X-84.5573 Y53.8554 
G01 Z0.0000 F254.00 
G01 X-87.5103 Y50.9024 F508.00 
G01 X-87.6227 Y50.8274 
G01 X-87.7475 Y50.7757 
G01 X-87.8800 Y50.7493 
G01 X-88.0150 Y50.7493 
G01 X-88.1475 Y50.7757 
G01 X-88.2723 Y50.8274 
G01 X-88.3847 Y50.9024 
G01 X-88.4802 Y50.9979 
G01 X-88.5552 Y51.1103 
G01 X-88.6069 Y51.2351 
G01 X-88.6333 Y51.3676 
G01 X-88.6333 Y51.5026 
G01 X-88.6069 Y51.6351 
G01 X-88.5552 Y51.7599 
G01 X-88.4802 Y51.8723 
G01 X-85.5272 Y54.8253 
G01 X-85.4148 Y54.9003 
G01 X-85.2900 Y54.9520 
G01 X-85.1575 Y54.9784 
G01 X-85.0225 Y54.9784 
G01 X-84.8900 Y54.9520 
G01 X-84.7652 Y54.9003 
G01 X-84.6528 Y54.8253 
G01 X-84.5573 Y54.7298 
G01 X-84.4823 Y54.6174 
G01 X-84.4306 Y54.4926 
G01 X-84.4042 Y54.3601 
G01 X-84.4042 Y54.2251 
G01 X-84.4306 Y54.0926 
G01 X-84.4823 Y53.9678 
G01 X-84.5573 Y53.8554 
G00 Z2.5400 
G00 X-85.6978 Y25.0826 
G01 Z0.0000 F254.00 
G01 X-91.1606 Y25.0826 F508.00 
G01 X-91.1606 Y25.0212 
G01 X-91.6962 Y24.4856 
G01 X-92.4538 Y24.4856 
G01 X-92.9894 Y25.0212 
G01 X-92.9894 Y25.7788 
G01 X-92.4538 Y26.3144 
G01 X-91.6962 Y26.3144 
G01 X-91.1606 Y25.7788 
G01 X-91.1606 Y25.7176 
G01 X-85.5245 Y25.7176 
G01 X-85.4437 Y25.6960 
G01 X-85.3714 Y25.6542 
G01 X-85.3122 Y25.5950 
G01 X-81.3190 Y21.6018 
G01 X-81.1876 Y21.6282 
G01 X-81.0550 Y21.6282 
G01 X-80.9250 Y21.6023 
G01 X-80.8025 Y21.5516 
G01 X-80.6922 Y21.4779 
G01 X-80.5985 Y21.3842 
G01 X-80.5248 Y21.2739 
G01 X-80.4741 Y21.1514 
G01 X-80.4482 Y21.0214 
G01 X-80.4482 Y20.8888 
G01 X-80.4741 Y20.7588 
G01 X-80.5248 Y20.6363 
G01 X-80.5985 Y20.5260 
G01 X-80.6922 Y20.4323 
G01 X-80.8025 Y20.3586 
G01 X-80.9250 Y20.3079 
G01 X-81.0550 Y20.2820 
G01 X-81.1876 Y20.2820 
G01 X-81.3176 Y20.3079 
G01 X-81.4401 Y20.3586 
G01 X-81.5504 Y20.4323 
G01 X-81.6441 Y20.5260 
G01 X-81.7178 Y20.6363 
G01 X-81.7685 Y20.7588 
G01 X-81.7944 Y20.8888 
G01 X-81.7944 Y21.0214 
G01 X-81.7685 Y21.1514 
G01 X-85.6978 Y25.0826 
G00 Z2.5400 
G00 X-78.3953 Y24.4476 
G01 Z0.0000 F254.00 
G01 X-84.0206 Y24.4476 F508.00 
G01 X-84.1014 Y24.4692 
G01 X-84.1737 Y24.5110 
G01 X-87.1265 Y27.4638 
G01 X-91.2580 Y27.4638 
G01 X-91.6962 Y27.0256 
G01 X-92.4538 Y27.0256 
G01 X-92.9894 Y27.5612 
G01 X-92.9894 Y28.3188 
G01 X-92.4538 Y28.8544 
G01 X-91.6962 Y28.8544 
G01 X-91.1606 Y28.3188 
G01 X-91.1606 Y28.0988 
G01 X-86.9532 Y28.0988 
G01 X-86.8724 Y28.0772 
G01 X-86.8000 Y28.0354 
G01 X-86.7409 Y27.9762 
G01 X-83.8473 Y25.0826 
G01 X-78.2220 Y25.0826 
G01 X-78.1412 Y25.0610 
G01 X-78.0688 Y25.0192 
G01 X-78.0097 Y24.9600 
G01 X-76.0802 Y23.0305 
G01 X-75.9488 Y23.0569 
G01 X-75.8162 Y23.0569 
G01 X-75.6862 Y23.0310 
G01 X-75.5637 Y22.9803 
G01 X-75.4534 Y22.9066 
G01 X-75.3597 Y22.8129 
G01 X-75.2860 Y22.7026 
G01 X-75.2353 Y22.5801 
G01 X-75.2094 Y22.4501 
G01 X-75.2094 Y22.3175 
G01 X-75.2353 Y22.1875 
G01 X-75.2860 Y22.0650 
G01 X-75.3597 Y21.9547 
G01 X-75.4534 Y21.8610 
G01 X-75.5637 Y21.7873 
G01 X-75.6862 Y21.7366 
G01 X-75.8162 Y21.7107 
G01 X-75.9488 Y21.7107 
G01 X-76.0788 Y21.7366 
G01 X-76.2013 Y21.7873 
G01 X-76.3116 Y21.8610 
G01 X-76.4053 Y21.9547 
G01 X-76.4790 Y22.0650 
G01 X-76.5297 Y22.1875 
G01 X-76.5556 Y22.3175 
G01 X-76.5556 Y22.4501 
G01 X-76.5297 Y22.5801 
G01 X-78.3953 Y24.4476 
G00 Z2.5400 
G00 X-87.5131 Y4.1276 
G01 Z0.0000 F254.00 
G01 X-87.5434 Y4.1357 F508.00 
G01 X-87.5925 Y4.1154 
G01 X-87.7225 Y4.0895 
G01 X-87.8551 Y4.0895 
G01 X-87.9851 Y4.1154 
G01 X-88.1076 Y4.1661 
G01 X-88.2179 Y4.2398 
G01 X-88.3116 Y4.3335 
G01 X-88.3853 Y4.4438 
G01 X-88.4360 Y4.5663 
G01 X-88.4619 Y4.6963 
G01 X-88.4619 Y4.8289 
G01 X-88.4360 Y4.9589 
G01 X-88.3853 Y5.0814 
G01 X-88.3116 Y5.1917 
G01 X-88.2179 Y5.2854 
G01 X-88.1076 Y5.3591 
G01 X-87.9851 Y5.4098 
G01 X-87.8551 Y5.4357 
G01 X-87.7225 Y5.4357 
G01 X-87.5925 Y5.4098 
G01 X-87.4700 Y5.3591 
G01 X-87.3597 Y5.2854 
G01 X-87.2660 Y5.1917 
G01 X-87.1923 Y5.0814 
G01 X-87.1416 Y4.9589 
G01 X-87.1157 Y4.8289 
G01 X-87.1157 Y4.7626 
G01 X-72.0345 Y4.7626 
G01 X-71.9603 Y4.8742 
G01 X-71.8666 Y4.9679 
G01 X-71.7563 Y5.0416 
G01 X-71.6338 Y5.0923 
G01 X-71.5038 Y5.1182 
G01 X-71.3712 Y5.1182 
G01 X-71.2412 Y5.0923 
G01 X-71.1187 Y5.0416 
G01 X-71.0084 Y4.9679 
G01 X-70.9147 Y4.8742 
G01 X-70.8410 Y4.7639 
G01 X-70.7903 Y4.6414 
G01 X-70.7644 Y4.5114 
G01 X-70.7644 Y4.3788 
G01 X-70.7903 Y4.2488 
G01 X-70.8410 Y4.1263 
G01 X-70.9147 Y4.0160 
G01 X-71.0084 Y3.9223 
G01 X-71.1187 Y3.8486 
G01 X-71.2412 Y3.7979 
G01 X-71.3712 Y3.7720 
G01 X-71.5038 Y3.7720 
G01 X-71.6338 Y3.7979 
G01 X-71.7563 Y3.8486 
G01 X-71.8666 Y3.9223 
G01 X-71.9603 Y4.0160 
G01 X-72.0340 Y4.1263 
G01 X-87.5131 Y4.1276 
G00 Z2.5400 
G00 X-15.9975 Y58.0392 
G01 Z0.0000 F254.00 
G01 X-15.9532 Y57.9948 F508.00 
G01 X-15.9384 Y57.9800 
G01 X-14.9614 Y57.0030 
G01 X-14.8301 Y57.0294 
G01 X-14.6975 Y57.0294 
G01 X-14.5675 Y57.0035 
G01 X-14.4450 Y56.9528 
G01 X-14.3347 Y56.8791 
G01 X-14.2410 Y56.7854 
G01 X-14.1673 Y56.6751 
G01 X-14.1166 Y56.5526 
G01 X-14.0907 Y56.4226 
G01 X-14.0907 Y56.2900 
G01 X-14.1166 Y56.1600 
G01 X-14.1673 Y56.0375 
G01 X-14.2410 Y55.9272 
G01 X-14.3347 Y55.8335 
G01 X-14.4450 Y55.7598 
G01 X-14.5675 Y55.7091 
G01 X-14.6975 Y55.6832 
G01 X-14.8301 Y55.6832 
G01 X-14.9601 Y55.7091 
G01 X-15.0826 Y55.7598 
G01 X-15.1929 Y55.8335 
G01 X-15.2866 Y55.9272 
G01 X-15.3603 Y56.0375 
G01 X-15.4110 Y56.1600 
G01 X-15.4369 Y56.2900 
G01 X-15.4369 Y56.4226 
G01 X-15.4110 Y56.5526 
G01 X-16.3240 Y57.4676 
G01 X-93.0548 Y57.4676 
G01 X-96.3496 Y54.1728 
G01 X-96.3232 Y54.0414 
G01 X-96.3232 Y53.9088 
G01 X-96.3491 Y53.7788 
G01 X-96.3998 Y53.6563 
G01 X-96.4735 Y53.5460 
G01 X-96.5672 Y53.4523 
G01 X-96.6775 Y53.3786 
G01 X-96.8000 Y53.3279 
G01 X-96.9300 Y53.3020 
G01 X-97.0626 Y53.3020 
G01 X-97.1926 Y53.3279 
G01 X-97.3151 Y53.3786 
G01 X-97.4254 Y53.4523 
G01 X-97.5191 Y53.5460 
G01 X-97.5928 Y53.6563 
G01 X-97.6435 Y53.7788 
G01 X-97.6694 Y53.9088 
G01 X-97.6694 Y54.0414 
G01 X-97.6435 Y54.1714 
G01 X-97.5928 Y54.2939 
G01 X-97.5191 Y54.4042 
G01 X-97.4254 Y54.4979 
G01 X-97.3151 Y54.5716 
G01 X-97.1926 Y54.6223 
G01 X-97.0626 Y54.6482 
G01 X-96.9300 Y54.6482 
G01 X-96.8000 Y54.6223 
G01 X-93.3812 Y58.0392 
G01 X-93.3089 Y58.0810 
G01 X-93.2281 Y58.1026 
G01 X-16.1507 Y58.1026 
G01 X-16.0867 Y58.0854 
G01 X-16.0699 Y58.0810 
G01 X-16.0179 Y58.0509 
G01 X-15.9976 Y58.0392 
G00 Z2.5400 
G00 X-56.8959 Y12.9814 
G01 Z0.0000 F254.00 
G01 X-56.9550 Y12.9222 F508.00 
G01 X-57.0274 Y12.8804 
G01 X-57.1082 Y12.8588 
G01 X-59.7280 Y12.8588 
G01 X-59.8022 Y12.7472 
G01 X-59.8959 Y12.6535 
G01 X-60.0062 Y12.5798 
G01 X-60.1287 Y12.5291 
G01 X-60.2587 Y12.5032 
G01 X-60.3913 Y12.5032 
G01 X-60.5213 Y12.5291 
G01 X-60.6438 Y12.5798 
G01 X-60.7541 Y12.6535 
G01 X-60.8478 Y12.7472 
G01 X-60.9215 Y12.8575 
G01 X-60.9722 Y12.9800 
G01 X-60.9981 Y13.1100 
G01 X-60.9981 Y13.2426 
G01 X-60.9722 Y13.3726 
G01 X-60.9215 Y13.4951 
G01 X-60.8478 Y13.6054 
G01 X-60.7541 Y13.6991 
G01 X-60.6438 Y13.7728 
G01 X-60.5213 Y13.8235 
G01 X-60.3913 Y13.8494 
G01 X-60.2587 Y13.8494 
G01 X-60.1287 Y13.8235 
G01 X-60.0062 Y13.7728 
G01 X-59.8959 Y13.6991 
G01 X-59.8022 Y13.6054 
G01 X-59.7285 Y13.4951 
G01 X-57.2815 Y13.4938 
G01 X-55.2567 Y15.5186 
G01 X-55.2831 Y15.6500 
G01 X-55.2831 Y15.7826 
G01 X-55.2572 Y15.9126 
G01 X-55.2065 Y16.0351 
G01 X-55.1328 Y16.1454 
G01 X-55.0391 Y16.2391 
G01 X-54.9288 Y16.3128 
G01 X-54.8063 Y16.3635 
G01 X-54.6763 Y16.3894 
G01 X-54.5437 Y16.3894 
G01 X-54.4137 Y16.3635 
G01 X-54.2912 Y16.3128 
G01 X-54.1809 Y16.2391 
G01 X-54.0872 Y16.1454 
G01 X-54.0135 Y16.0351 
G01 X-53.9628 Y15.9126 
G01 X-53.9369 Y15.7826 
G01 X-53.9369 Y15.6500 
G01 X-53.9628 Y15.5200 
G01 X-54.0135 Y15.3975 
G01 X-54.0872 Y15.2872 
G01 X-54.1809 Y15.1935 
G01 X-54.2912 Y15.1198 
G01 X-54.4137 Y15.0691 
G01 X-54.5437 Y15.0432 
G01 X-54.6763 Y15.0432 
G01 X-54.8063 Y15.0691 
G01 X-56.8959 Y12.9814 
G00 Z2.5400 
G00 X-41.6559 Y39.8102 
G01 Z0.0000 F254.00 
G01 X-41.7151 Y39.7510 F508.00 
G01 X-41.7874 Y39.7092 
G01 X-41.8682 Y39.6876 
G01 X-55.7593 Y39.6876 
G01 X-55.8335 Y39.5760 
G01 X-55.9272 Y39.4823 
G01 X-56.0375 Y39.4086 
G01 X-56.1600 Y39.3579 
G01 X-56.2900 Y39.3320 
G01 X-56.4226 Y39.3320 
G01 X-56.5526 Y39.3579 
G01 X-56.6751 Y39.4086 
G01 X-56.7854 Y39.4823 
G01 X-56.8791 Y39.5760 
G01 X-56.9528 Y39.6863 
G01 X-57.0035 Y39.8088 
G01 X-57.0294 Y39.9388 
G01 X-57.0294 Y40.0714 
G01 X-57.0035 Y40.2014 
G01 X-56.9528 Y40.3239 
G01 X-56.8791 Y40.4342 
G01 X-56.7854 Y40.5279 
G01 X-56.6751 Y40.6016 
G01 X-56.5526 Y40.6523 
G01 X-56.4226 Y40.6782 
G01 X-56.2900 Y40.6782 
G01 X-56.1600 Y40.6523 
G01 X-56.0375 Y40.6016 
G01 X-55.9272 Y40.5279 
G01 X-55.8335 Y40.4342 
G01 X-55.7598 Y40.3239 
G01 X-42.0415 Y40.3226 
G01 X-41.6042 Y40.7599 
G01 X-41.6306 Y40.8913 
G01 X-41.6306 Y41.0239 
G01 X-41.6047 Y41.1539 
G01 X-41.5540 Y41.2764 
G01 X-41.4803 Y41.3867 
G01 X-41.3866 Y41.4804 
G01 X-41.2763 Y41.5541 
G01 X-41.1538 Y41.6048 
G01 X-41.0238 Y41.6307 
G01 X-40.8912 Y41.6307 
G01 X-40.7612 Y41.6048 
G01 X-40.6387 Y41.5541 
G01 X-40.5284 Y41.4804 
G01 X-40.4347 Y41.3867 
G01 X-40.3610 Y41.2764 
G01 X-40.3103 Y41.1539 
G01 X-40.2844 Y41.0239 
G01 X-40.2844 Y40.8913 
G01 X-40.3103 Y40.7613 
G01 X-40.3610 Y40.6388 
G01 X-40.4347 Y40.5285 
G01 X-40.5284 Y40.4348 
G01 X-40.6387 Y40.3611 
G01 X-40.7612 Y40.3104 
G01 X-40.8912 Y40.2845 
G01 X-41.0238 Y40.2845 
G01 X-41.1538 Y40.3104 
G01 X-41.6559 Y39.8102 
G00 Z2.5400 
G00 X-64.5916 Y34.6076 
G01 Z0.0000 F254.00 
G01 X-64.5991 Y34.5700 F508.00 
G01 X-64.6498 Y34.4475 
G01 X-64.7235 Y34.3372 
G01 X-64.8172 Y34.2435 
G01 X-64.9275 Y34.1698 
G01 X-65.0500 Y34.1191 
G01 X-65.1800 Y34.0932 
G01 X-65.3126 Y34.0932 
G01 X-65.4426 Y34.1191 
G01 X-65.5651 Y34.1698 
G01 X-65.6754 Y34.2435 
G01 X-65.7691 Y34.3372 
G01 X-65.8428 Y34.4475 
G01 X-65.8935 Y34.5700 
G01 X-65.9194 Y34.7000 
G01 X-65.9194 Y34.8326 
G01 X-65.8935 Y34.9626 
G01 X-65.8428 Y35.0851 
G01 X-65.7691 Y35.1954 
G01 X-65.6754 Y35.2891 
G01 X-65.5651 Y35.3628 
G01 X-65.4426 Y35.4135 
G01 X-65.3126 Y35.4394 
G01 X-65.1800 Y35.4394 
G01 X-65.0500 Y35.4135 
G01 X-64.9275 Y35.3628 
G01 X-64.8172 Y35.2891 
G01 X-64.7707 Y35.2426 
G01 X-63.6208 Y35.2426 
G01 X-63.5466 Y35.3542 
G01 X-63.4529 Y35.4479 
G01 X-63.3426 Y35.5216 
G01 X-63.2201 Y35.5723 
G01 X-63.0901 Y35.5982 
G01 X-62.9575 Y35.5982 
G01 X-62.8275 Y35.5723 
G01 X-62.7050 Y35.5216 
G01 X-62.5947 Y35.4479 
G01 X-62.5010 Y35.3542 
G01 X-62.4273 Y35.2439 
G01 X-62.3766 Y35.1214 
G01 X-62.3507 Y34.9914 
G01 X-62.3507 Y34.8588 
G01 X-62.3766 Y34.7288 
G01 X-62.4273 Y34.6063 
G01 X-62.5010 Y34.4960 
G01 X-62.5947 Y34.4023 
G01 X-62.7050 Y34.3286 
G01 X-62.8275 Y34.2779 
G01 X-62.9575 Y34.2520 
G01 X-63.0901 Y34.2520 
G01 X-63.2201 Y34.2779 
G01 X-63.3426 Y34.3286 
G01 X-63.4529 Y34.4023 
G01 X-63.5466 Y34.4960 
G01 X-63.6203 Y34.6063 
G01 X-64.5916 Y34.6076 
G00 Z2.5400 
G00 X-60.9220 Y5.8738 
G01 Z0.0000 F254.00 
G01 X-60.9215 Y5.8751 F508.00 
G01 X-60.8478 Y5.9854 
G01 X-60.7541 Y6.0791 
G01 X-60.6438 Y6.1528 
G01 X-60.5213 Y6.2035 
G01 X-60.3913 Y6.2294 
G01 X-60.2587 Y6.2294 
G01 X-60.1287 Y6.2035 
G01 X-60.0062 Y6.1528 
G01 X-59.8959 Y6.0791 
G01 X-59.8022 Y5.9854 
G01 X-59.7285 Y5.8751 
G01 X-59.6778 Y5.7526 
G01 X-59.6519 Y5.6226 
G01 X-59.6519 Y5.4900 
G01 X-59.6778 Y5.3600 
G01 X-59.7285 Y5.2375 
G01 X-59.8022 Y5.1272 
G01 X-59.8959 Y5.0335 
G01 X-60.0062 Y4.9598 
G01 X-60.1287 Y4.9091 
G01 X-60.2587 Y4.8832 
G01 X-60.3913 Y4.8832 
G01 X-60.5213 Y4.9091 
G01 X-60.6438 Y4.9598 
G01 X-60.7541 Y5.0335 
G01 X-60.8478 Y5.1272 
G01 X-60.9215 Y5.2375 
G01 X-72.5868 Y5.2388 
G01 X-72.6610 Y5.1272 
G01 X-72.7547 Y5.0335 
G01 X-72.8650 Y4.9598 
G01 X-72.9875 Y4.9091 
G01 X-73.1175 Y4.8832 
G01 X-73.2501 Y4.8832 
G01 X-73.3801 Y4.9091 
G01 X-73.5026 Y4.9598 
G01 X-73.6129 Y5.0335 
G01 X-73.7066 Y5.1272 
G01 X-73.7803 Y5.2375 
G01 X-73.8310 Y5.3600 
G01 X-73.8569 Y5.4900 
G01 X-73.8569 Y5.6226 
G01 X-73.8310 Y5.7526 
G01 X-73.7803 Y5.8751 
G01 X-73.7066 Y5.9854 
G01 X-73.6129 Y6.0791 
G01 X-73.5026 Y6.1528 
G01 X-73.3801 Y6.2035 
G01 X-73.2501 Y6.2294 
G01 X-73.1175 Y6.2294 
G01 X-72.9875 Y6.2035 
G01 X-72.8650 Y6.1528 
G01 X-72.7547 Y6.0791 
G01 X-72.6610 Y5.9854 
G01 X-72.5873 Y5.8751 
G01 X-60.9220 Y5.8738 
G00 Z2.5400 
G00 X-77.8148 Y39.0526 
G01 Z0.0000 F254.00 
G01 X-76.4794 Y39.0525 F508.00 
G01 X-76.4794 Y39.1138 
G01 X-75.9438 Y39.6494 
G01 X-75.1862 Y39.6494 
G01 X-74.6506 Y39.1138 
G01 X-74.6506 Y38.3562 
G01 X-75.1862 Y37.8206 
G01 X-75.9438 Y37.8206 
G01 X-76.4794 Y38.3562 
G01 X-76.4794 Y38.4175 
G01 X-77.9164 Y38.4176 
G01 X-77.9881 Y38.4176 
G01 X-78.0689 Y38.4392 
G01 X-78.1413 Y38.4810 
G01 X-78.2004 Y38.5402 
G01 X-78.7011 Y39.0409 
G01 X-78.8325 Y39.0145 
G01 X-78.9651 Y39.0145 
G01 X-79.0951 Y39.0404 
G01 X-79.2176 Y39.0911 
G01 X-79.3279 Y39.1648 
G01 X-79.4216 Y39.2585 
G01 X-79.4953 Y39.3688 
G01 X-79.5460 Y39.4913 
G01 X-79.5719 Y39.6213 
G01 X-79.5719 Y39.7539 
G01 X-79.5460 Y39.8839 
G01 X-79.4953 Y40.0064 
G01 X-79.4216 Y40.1167 
G01 X-79.3279 Y40.2104 
G01 X-79.2176 Y40.2841 
G01 X-79.0951 Y40.3348 
G01 X-78.9651 Y40.3607 
G01 X-78.8325 Y40.3607 
G01 X-78.7025 Y40.3348 
G01 X-78.5800 Y40.2841 
G01 X-78.4697 Y40.2104 
G01 X-78.3760 Y40.1167 
G01 X-78.3023 Y40.0064 
G01 X-78.2516 Y39.8839 
G01 X-78.2257 Y39.7539 
G01 X-78.2257 Y39.6213 
G01 X-78.2516 Y39.4913 
G01 X-77.8148 Y39.0526 
G00 Z2.5400 
G00 X-22.3475 Y5.0166 
G01 Z0.0000 F254.00 
G01 X-22.3031 Y4.9723 F508.00 
G01 X-22.2884 Y4.9575 
G01 X-22.2639 Y4.9330 
G01 X-22.1326 Y4.9594 
G01 X-22.0000 Y4.9594 
G01 X-21.8700 Y4.9335 
G01 X-21.7475 Y4.8828 
G01 X-21.6372 Y4.8091 
G01 X-21.5435 Y4.7154 
G01 X-21.4698 Y4.6051 
G01 X-21.4191 Y4.4826 
G01 X-21.3932 Y4.3526 
G01 X-21.3932 Y4.2200 
G01 X-21.4191 Y4.0900 
G01 X-21.4698 Y3.9675 
G01 X-21.5435 Y3.8572 
G01 X-21.6372 Y3.7635 
G01 X-21.7475 Y3.6898 
G01 X-21.8700 Y3.6391 
G01 X-22.0000 Y3.6132 
G01 X-22.1326 Y3.6132 
G01 X-22.2626 Y3.6391 
G01 X-22.3851 Y3.6898 
G01 X-22.4954 Y3.7635 
G01 X-22.5891 Y3.8572 
G01 X-22.6628 Y3.9675 
G01 X-22.7135 Y4.0900 
G01 X-22.7394 Y4.2200 
G01 X-22.7394 Y4.3526 
G01 X-22.7210 Y4.4451 
G01 X-23.6918 Y4.4451 
G01 X-23.7660 Y4.3335 
G01 X-23.8597 Y4.2398 
G01 X-23.9700 Y4.1661 
G01 X-24.0925 Y4.1154 
G01 X-24.2225 Y4.0895 
G01 X-24.3551 Y4.0895 
G01 X-24.4851 Y4.1154 
G01 X-24.6076 Y4.1661 
G01 X-24.7179 Y4.2398 
G01 X-24.8116 Y4.3335 
G01 X-24.8853 Y4.4438 
G01 X-24.9360 Y4.5663 
G01 X-24.9619 Y4.6963 
G01 X-24.9619 Y4.8289 
G01 X-24.9360 Y4.9589 
G01 X-24.8853 Y5.0814 
G01 X-24.8116 Y5.1917 
G01 X-24.7179 Y5.2854 
G01 X-24.6076 Y5.3591 
G01 X-24.4851 Y5.4098 
G01 X-24.3551 Y5.4357 
G01 X-24.2225 Y5.4357 
G01 X-24.0925 Y5.4098 
G01 X-23.9700 Y5.3591 
G01 X-23.8597 Y5.2854 
G01 X-23.7660 Y5.1917 
G01 X-23.6923 Y5.0814 
G01 X-22.5843 Y5.0801 
G01 X-22.5429 Y5.0801 
G01 X-22.5007 Y5.0801 
G01 X-22.4558 Y5.0681 
G01 X-22.4199 Y5.0585 
G01 X-22.3705 Y5.0299 
G01 X-22.3476 Y5.0167 
G00 Z2.5400 
G00 X-12.1673 Y40.9966 
G01 Z0.0000 F254.00 
G01 X-13.3391 Y39.8249 F508.00 
G01 X-13.3741 Y39.7899 
G01 X-13.4371 Y39.7478 
G01 X-13.4865 Y39.7149 
G01 X-13.5516 Y39.6879 
G01 X-13.6113 Y39.6632 
G01 X-13.6848 Y39.6485 
G01 X-13.7438 Y39.6368 
G01 X-13.8106 Y39.6368 
G01 X-14.2137 Y39.6368 
G01 X-13.6906 Y39.1138 
G01 X-13.6906 Y38.3562 
G01 X-14.2262 Y37.8206 
G01 X-14.9838 Y37.8206 
G01 X-15.5194 Y38.3562 
G01 X-15.5194 Y39.1138 
G01 X-14.9963 Y39.6368 
G01 X-16.7537 Y39.6368 
G01 X-16.2306 Y39.1138 
G01 X-16.2306 Y38.3562 
G01 X-16.7662 Y37.8206 
G01 X-17.5238 Y37.8206 
G01 X-18.0594 Y38.3562 
G01 X-18.0594 Y39.1138 
G01 X-17.5363 Y39.6368 
G01 X-19.2936 Y39.6368 
G01 X-18.7706 Y39.1138 
G01 X-18.7706 Y38.3562 
G01 X-19.3062 Y37.8206 
G01 X-20.0638 Y37.8206 
G01 X-20.5994 Y38.3562 
G01 X-20.5994 Y38.6795 
G01 X-21.3129 Y39.3930 
G01 X-21.4084 Y39.4885 
G01 X-22.3504 Y40.4305 
G01 X-38.4509 Y40.4305 
G01 X-40.3606 Y38.5209 
G01 X-40.3606 Y38.3562 
G01 X-40.8962 Y37.8206 
G01 X-41.6538 Y37.8206 
G01 X-42.1894 Y38.3562 
G01 X-42.1894 Y39.1138 
G01 X-41.6538 Y39.6494 
G01 X-41.1718 Y39.6494 
G01 X-39.1722 Y41.6490 
G01 X-39.0598 Y41.7241 
G01 X-38.9402 Y41.7736 
G01 X-38.9350 Y41.7757 
G01 X-38.8602 Y41.7906 
G01 X-38.8025 Y41.8021 
G01 X-21.9988 Y41.8021 
G01 X-21.8663 Y41.7757 
G01 X-21.7415 Y41.7240 
G01 X-21.6291 Y41.6490 
G01 X-21.5336 Y41.5535 
G01 X-20.8677 Y40.8876 
G01 X-20.8036 Y40.9303 
G01 X-20.6788 Y40.9820 
G01 X-20.5463 Y41.0084 
G01 X-14.0953 Y41.0084 
G01 X-13.1371 Y41.9665 
G01 X-13.0248 Y42.0416 
G01 X-12.9000 Y42.0933 
G01 X-12.7675 Y42.1196 
G01 X-12.6324 Y42.1196 
G01 X-12.4999 Y42.0932 
G01 X-12.3751 Y42.0415 
G01 X-12.2628 Y41.9665 
G01 X-12.1673 Y41.8709 
G01 X-12.0922 Y41.7586 
G01 X-12.0405 Y41.6338 
G01 X-12.0142 Y41.5013 
G01 X-12.0142 Y41.3662 
G01 X-12.0406 Y41.2337 
G01 X-12.0923 Y41.1089 
G01 X-12.1673 Y40.9966 
G00 Z2.5400 
G00 X-62.9563 Y40.4305 
G01 Z0.0000 F254.00 
G01 X-82.9009 Y40.4305 F508.00 
G01 X-84.2064 Y39.1251 
G01 X-84.2107 Y39.1033 
G01 X-84.2797 Y38.9369 
G01 X-84.3797 Y38.7871 
G01 X-84.4983 Y38.6686 
G01 X-84.4563 Y38.6966 
G01 X-84.3338 Y38.7473 
G01 X-84.2038 Y38.7732 
G01 X-84.0712 Y38.7732 
G01 X-83.9412 Y38.7473 
G01 X-83.8187 Y38.6966 
G01 X-83.7084 Y38.6229 
G01 X-83.6147 Y38.5292 
G01 X-83.5410 Y38.4189 
G01 X-83.4903 Y38.2964 
G01 X-83.4644 Y38.1664 
G01 X-83.4644 Y38.0338 
G01 X-83.4903 Y37.9038 
G01 X-83.5410 Y37.7813 
G01 X-83.6147 Y37.6710 
G01 X-83.7084 Y37.5773 
G01 X-83.8187 Y37.5036 
G01 X-83.9412 Y37.4529 
G01 X-84.0712 Y37.4270 
G01 X-84.2038 Y37.4270 
G01 X-84.3338 Y37.4529 
G01 X-84.4563 Y37.5036 
G01 X-84.4989 Y37.5321 
G01 X-84.1756 Y37.2088 
G01 X-84.1756 Y36.4512 
G01 X-84.7112 Y35.9156 
G01 X-85.4688 Y35.9156 
G01 X-86.0044 Y36.4512 
G01 X-86.0044 Y37.2088 
G01 X-85.4688 Y37.7444 
G01 X-84.7112 Y37.7444 
G01 X-84.7055 Y37.7387 
G01 X-84.7340 Y37.7813 
G01 X-85.4348 Y37.7826 
G01 X-88.4238 Y34.7936 
G01 X-88.4238 Y33.4583 
G01 X-88.3122 Y33.3841 
G01 X-88.2185 Y33.2904 
G01 X-88.1448 Y33.1801 
G01 X-88.0941 Y33.0576 
G01 X-88.0682 Y32.9276 
G01 X-88.0682 Y32.7950 
G01 X-88.0941 Y32.6650 
G01 X-88.1448 Y32.5425 
G01 X-88.2185 Y32.4322 
G01 X-88.3122 Y32.3385 
G01 X-88.4225 Y32.2648 
G01 X-88.5450 Y32.2141 
G01 X-88.6750 Y32.1882 
G01 X-88.8076 Y32.1882 
G01 X-88.9376 Y32.2141 
G01 X-89.0601 Y32.2648 
G01 X-89.1704 Y32.3385 
G01 X-89.2641 Y32.4322 
G01 X-89.3378 Y32.5425 
G01 X-89.3885 Y32.6650 
G01 X-89.4144 Y32.7950 
G01 X-89.4144 Y32.9276 
G01 X-89.3885 Y33.0576 
G01 X-89.3378 Y33.1801 
G01 X-89.2641 Y33.2904 
G01 X-89.1704 Y33.3841 
G01 X-89.0601 Y33.4578 
G01 X-89.0588 Y34.9669 
G01 X-89.0372 Y35.0477 
G01 X-88.9954 Y35.1200 
G01 X-88.9362 Y35.1792 
G01 X-85.7612 Y38.3542 
G01 X-85.6889 Y38.3960 
G01 X-85.6081 Y38.4176 
G01 X-84.7345 Y38.4176 
G01 X-84.6603 Y38.5292 
G01 X-84.5754 Y38.6141 
G01 X-84.6569 Y38.5597 
G01 X-84.8233 Y38.4907 
G01 X-84.9999 Y38.4556 
G01 X-85.1801 Y38.4556 
G01 X-85.3567 Y38.4907 
G01 X-85.5231 Y38.5597 
G01 X-85.6729 Y38.6597 
G01 X-85.8003 Y38.7871 
G01 X-85.9003 Y38.9369 
G01 X-85.9693 Y39.1033 
G01 X-86.0044 Y39.2799 
G01 X-86.0044 Y39.4601 
G01 X-85.9693 Y39.6367 
G01 X-85.9003 Y39.8031 
G01 X-85.8003 Y39.9529 
G01 X-85.6729 Y40.0803 
G01 X-85.5231 Y40.1803 
G01 X-85.3567 Y40.2493 
G01 X-85.1801 Y40.2844 
G01 X-84.9999 Y40.2844 
G01 X-84.9890 Y40.2822 
G01 X-83.6527 Y41.6185 
G01 X-83.6222 Y41.6490 
G01 X-83.5807 Y41.6767 
G01 X-83.5098 Y41.7240 
G01 X-83.4979 Y41.7290 
G01 X-83.3850 Y41.7757 
G01 X-83.3304 Y41.7866 
G01 X-83.2525 Y41.8021 
G01 X-83.2111 Y41.8021 
G01 X-62.9563 Y41.8021 
G01 X-62.8238 Y41.7757 
G01 X-62.6990 Y41.7240 
G01 X-62.6913 Y41.7189 
G01 X-65.0541 Y44.0818 
G01 X-71.4382 Y44.0818 
G01 X-71.5050 Y44.0818 
G01 X-71.5640 Y44.0935 
G01 X-71.6375 Y44.1081 
G01 X-71.6972 Y44.1329 
G01 X-71.7623 Y44.1598 
G01 X-71.8117 Y44.1928 
G01 X-71.8746 Y44.2349 
G01 X-71.9097 Y44.2699 
G01 X-72.9457 Y45.3058 
G01 X-73.9711 Y44.2804 
G01 X-74.0166 Y44.2349 
G01 X-74.0825 Y44.1909 
G01 X-74.1290 Y44.1599 
G01 X-74.2250 Y44.1201 
G01 X-74.2538 Y44.1082 
G01 X-74.3566 Y44.0877 
G01 X-74.3863 Y44.0818 
G01 X-74.4531 Y44.0818 
G01 X-79.0567 Y44.0818 
G01 X-79.1250 Y44.0818 
G01 X-79.1531 Y44.0874 
G01 X-79.2575 Y44.1081 
G01 X-79.2841 Y44.1192 
G01 X-79.3823 Y44.1598 
G01 X-79.4270 Y44.1897 
G01 X-79.4947 Y44.2349 
G01 X-79.5388 Y44.2790 
G01 X-80.7004 Y45.4406 
G01 X-80.7351 Y45.4406 
G01 X-80.9117 Y45.4757 
G01 X-81.0781 Y45.5447 
G01 X-81.2279 Y45.6447 
G01 X-81.3553 Y45.7721 
G01 X-81.4553 Y45.9219 
G01 X-81.4822 Y45.9868 
G01 X-88.9007 Y45.9868 
G01 X-88.9675 Y45.9868 
G01 X-89.0431 Y46.0018 
G01 X-89.1000 Y46.0131 
G01 X-89.1590 Y46.0376 
G01 X-89.2248 Y46.0648 
G01 X-89.2595 Y46.0880 
G01 X-89.3371 Y46.1399 
G01 X-89.3629 Y46.1657 
G01 X-90.2265 Y47.0291 
G01 X-90.3015 Y47.1414 
G01 X-90.3532 Y47.2662 
G01 X-90.3796 Y47.3987 
G01 X-90.3796 Y47.5338 
G01 X-90.3533 Y47.6663 
G01 X-90.3016 Y47.7911 
G01 X-90.2265 Y47.9034 
G01 X-90.1310 Y47.9990 
G01 X-90.0187 Y48.0740 
G01 X-89.8939 Y48.1257 
G01 X-89.7614 Y48.1521 
G01 X-89.6263 Y48.1521 
G01 X-89.4938 Y48.1258 
G01 X-89.3690 Y48.0741 
G01 X-89.2567 Y47.9990 
G01 X-88.6160 Y47.3584 
G01 X-81.1203 Y47.3584 
G01 X-81.0544 Y47.3585 
G01 X-80.9876 Y47.3452 
G01 X-80.9219 Y47.3322 
G01 X-80.8596 Y47.3065 
G01 X-80.7970 Y47.2807 
G01 X-80.7697 Y47.2625 
G01 X-80.7351 Y47.2694 
G01 X-80.5549 Y47.2694 
G01 X-80.3783 Y47.2343 
G01 X-80.2119 Y47.1653 
G01 X-80.0621 Y47.0653 
G01 X-79.9347 Y46.9379 
G01 X-79.8347 Y46.7881 
G01 X-79.7657 Y46.6217 
G01 X-79.7306 Y46.4451 
G01 X-79.7306 Y46.4105 
G01 X-79.4555 Y46.1354 
G01 X-79.4953 Y46.1950 
G01 X-79.5460 Y46.3175 
G01 X-79.5719 Y46.4475 
G01 X-79.5719 Y46.5801 
G01 X-79.5460 Y46.7101 
G01 X-79.4953 Y46.8326 
G01 X-79.4216 Y46.9429 
G01 X-79.3279 Y47.0366 
G01 X-79.2176 Y47.1103 
G01 X-79.0951 Y47.1610 
G01 X-78.9651 Y47.1869 
G01 X-78.8325 Y47.1869 
G01 X-78.7025 Y47.1610 
G01 X-74.9417 Y50.9199 
G01 X-74.9681 Y51.0513 
G01 X-74.9681 Y51.1839 
G01 X-74.9422 Y51.3139 
G01 X-74.8915 Y51.4364 
G01 X-74.8178 Y51.5467 
G01 X-74.7241 Y51.6404 
G01 X-74.6138 Y51.7141 
G01 X-74.4913 Y51.7648 
G01 X-74.3613 Y51.7907 
G01 X-74.2287 Y51.7907 
G01 X-74.0987 Y51.7648 
G01 X-73.9762 Y51.7141 
G01 X-73.8659 Y51.6404 
G01 X-73.7722 Y51.5467 
G01 X-73.6985 Y51.4364 
G01 X-73.6478 Y51.3139 
G01 X-73.6219 Y51.1839 
G01 X-73.6219 Y51.0513 
G01 X-73.6478 Y50.9213 
G01 X-73.6985 Y50.7988 
G01 X-73.7722 Y50.6885 
G01 X-73.8659 Y50.5948 
G01 X-73.9762 Y50.5211 
G01 X-74.0987 Y50.4704 
G01 X-74.2287 Y50.4445 
G01 X-74.3613 Y50.4445 
G01 X-74.4913 Y50.4704 
G01 X-78.2521 Y46.7115 
G01 X-78.2257 Y46.5801 
G01 X-78.2257 Y46.4475 
G01 X-78.2516 Y46.3175 
G01 X-78.3023 Y46.1950 
G01 X-78.3760 Y46.0847 
G01 X-78.4697 Y45.9910 
G01 X-78.5800 Y45.9173 
G01 X-78.7025 Y45.8666 
G01 X-78.8325 Y45.8407 
G01 X-78.9651 Y45.8407 
G01 X-79.0951 Y45.8666 
G01 X-79.2176 Y45.9173 
G01 X-79.2772 Y45.9571 
G01 X-78.7734 Y45.4534 
G01 X-75.7194 Y45.4534 
G01 X-75.8317 Y45.4757 
G01 X-75.9981 Y45.5447 
G01 X-76.1479 Y45.6447 
G01 X-76.2753 Y45.7721 
G01 X-76.3753 Y45.9219 
G01 X-76.4443 Y46.0883 
G01 X-76.4794 Y46.2649 
G01 X-76.4794 Y46.4451 
G01 X-76.4443 Y46.6217 
G01 X-76.3753 Y46.7881 
G01 X-76.2753 Y46.9379 
G01 X-76.1479 Y47.0653 
G01 X-75.9981 Y47.1653 
G01 X-75.8317 Y47.2343 
G01 X-75.6551 Y47.2694 
G01 X-75.4749 Y47.2694 
G01 X-75.2983 Y47.2343 
G01 X-75.1319 Y47.1653 
G01 X-75.0798 Y47.1306 
G01 X-70.6799 Y51.5304 
G01 X-70.6075 Y51.5722 
G01 X-70.5475 Y51.5882 
G01 X-70.5268 Y51.5938 
G01 X-60.1245 Y51.5938 
G01 X-60.0437 Y51.5722 
G01 X-59.9714 Y51.5304 
G01 X-59.9122 Y51.4712 
G01 X-58.7648 Y50.3238 
G01 X-50.6140 Y50.3238 
G01 X-50.2604 Y50.6775 
G01 X-50.2461 Y50.6918 
G01 X-50.2013 Y50.7366 
G01 X-50.1791 Y50.7495 
G01 X-50.1289 Y50.7784 
G01 X-50.0936 Y50.7879 
G01 X-50.0481 Y50.8001 
G01 X-50.0068 Y50.8001 
G01 X-49.9645 Y50.8001 
G01 X-36.8497 Y50.8001 
G01 X-36.8681 Y50.8925 
G01 X-36.8681 Y51.0251 
G01 X-36.8422 Y51.1551 
G01 X-36.7915 Y51.2776 
G01 X-36.7178 Y51.3879 
G01 X-36.6241 Y51.4816 
G01 X-36.5138 Y51.5553 
G01 X-36.3913 Y51.6060 
G01 X-36.2613 Y51.6319 
G01 X-36.1287 Y51.6319 
G01 X-35.9987 Y51.6060 
G01 X-35.8762 Y51.5553 
G01 X-35.7659 Y51.4816 
G01 X-35.6722 Y51.3879 
G01 X-35.5985 Y51.2776 
G01 X-35.5478 Y51.1551 
G01 X-35.5219 Y51.0251 
G01 X-35.5219 Y50.8925 
G01 X-35.5478 Y50.7625 
G01 X-35.5985 Y50.6400 
G01 X-35.6722 Y50.5297 
G01 X-35.7659 Y50.4360 
G01 X-35.8762 Y50.3623 
G01 X-35.9987 Y50.3116 
G01 X-36.1287 Y50.2857 
G01 X-36.2613 Y50.2857 
G01 X-36.3913 Y50.3116 
G01 X-36.4613 Y50.2436 
G01 X-36.4764 Y50.2285 
G01 X-36.5176 Y50.2047 
G01 X-36.5487 Y50.1867 
G01 X-36.5811 Y50.1781 
G01 X-36.6295 Y50.1651 
G01 X-36.6709 Y50.1651 
G01 X-49.8748 Y50.1651 
G01 X-50.2284 Y49.8114 
G01 X-50.2431 Y49.7966 
G01 X-50.2875 Y49.7523 
G01 X-50.3105 Y49.7390 
G01 X-50.3599 Y49.7105 
G01 X-50.3958 Y49.7008 
G01 X-50.4407 Y49.6888 
G01 X-50.4829 Y49.6888 
G01 X-50.5243 Y49.6888 
G01 X-58.9381 Y49.6888 
G01 X-59.0189 Y49.7104 
G01 X-59.0912 Y49.7522 
G01 X-60.2978 Y50.9588 
G01 X-70.3535 Y50.9588 
G01 X-74.6872 Y46.6252 
G01 X-74.6857 Y46.6217 
G01 X-74.6506 Y46.4451 
G01 X-74.6506 Y46.2649 
G01 X-74.6857 Y46.0883 
G01 X-74.7547 Y45.9219 
G01 X-74.8547 Y45.7721 
G01 X-74.9821 Y45.6447 
G01 X-75.1319 Y45.5447 
G01 X-75.2983 Y45.4757 
G01 X-75.4106 Y45.4534 
G01 X-74.7379 Y45.4534 
G01 X-73.9394 Y46.2518 
G01 X-73.9394 Y46.7338 
G01 X-73.4038 Y47.2694 
G01 X-72.6462 Y47.2694 
G01 X-72.1106 Y46.7338 
G01 X-72.1106 Y46.4105 
G01 X-72.0750 Y46.3749 
G01 X-71.1535 Y45.4534 
G01 X-70.8765 Y45.4534 
G01 X-71.3994 Y45.9762 
G01 X-71.3994 Y46.7338 
G01 X-70.8638 Y47.2694 
G01 X-70.1062 Y47.2694 
G01 X-69.5706 Y46.7338 
G01 X-69.5706 Y45.9762 
G01 X-70.0935 Y45.4534 
G01 X-68.3365 Y45.4534 
G01 X-68.8594 Y45.9762 
G01 X-68.8594 Y46.7338 
G01 X-68.3238 Y47.2694 
G01 X-67.5662 Y47.2694 
G01 X-67.3377 Y47.0409 
G01 X-66.0123 Y47.0408 
G01 X-65.7838 Y47.2694 
G01 X-65.0262 Y47.2694 
G01 X-64.4906 Y46.7338 
G01 X-64.4906 Y45.9762 
G01 X-65.0135 Y45.4534 
G01 X-64.7024 Y45.4534 
G01 X-64.5955 Y45.4321 
G01 X-64.5700 Y45.4270 
G01 X-64.4451 Y45.3753 
G01 X-64.3505 Y45.3121 
G01 X-64.3328 Y45.3003 
G01 X-64.2494 Y45.2168 
G01 X-64.2373 Y45.2048 
G01 X-62.1514 Y43.1188 
G01 X-62.1915 Y43.1788 
G01 X-62.2422 Y43.3013 
G01 X-62.2681 Y43.4313 
G01 X-62.2681 Y43.5639 
G01 X-62.2422 Y43.6939 
G01 X-62.1915 Y43.8164 
G01 X-62.1178 Y43.9267 
G01 X-62.0241 Y44.0204 
G01 X-61.9138 Y44.0941 
G01 X-61.7913 Y44.1448 
G01 X-61.6613 Y44.1707 
G01 X-61.5287 Y44.1707 
G01 X-61.3987 Y44.1448 
G01 X-61.2762 Y44.0941 
G01 X-61.1659 Y44.0204 
G01 X-61.0722 Y43.9267 
G01 X-60.9985 Y43.8164 
G01 X-60.9478 Y43.6939 
G01 X-60.9219 Y43.5639 
G01 X-60.9219 Y43.4313 
G01 X-60.9478 Y43.3013 
G01 X-60.0348 Y42.3863 
G01 X-42.9833 Y42.3863 
G01 X-42.9091 Y42.4979 
G01 X-42.8154 Y42.5916 
G01 X-42.7051 Y42.6653 
G01 X-42.5826 Y42.7160 
G01 X-42.4526 Y42.7419 
G01 X-42.3200 Y42.7419 
G01 X-42.1900 Y42.7160 
G01 X-42.0675 Y42.6653 
G01 X-41.9572 Y42.5916 
G01 X-41.8635 Y42.4979 
G01 X-41.7898 Y42.3876 
G01 X-41.7391 Y42.2651 
G01 X-41.7132 Y42.1351 
G01 X-41.7132 Y42.0025 
G01 X-41.7391 Y41.8725 
G01 X-41.7898 Y41.7500 
G01 X-41.8635 Y41.6397 
G01 X-41.9572 Y41.5460 
G01 X-42.0675 Y41.4723 
G01 X-42.1900 Y41.4216 
G01 X-42.3200 Y41.3957 
G01 X-42.4526 Y41.3957 
G01 X-42.5826 Y41.4216 
G01 X-42.7051 Y41.4723 
G01 X-42.8154 Y41.5460 
G01 X-42.9091 Y41.6397 
G01 X-42.9828 Y41.7500 
G01 X-60.2081 Y41.7513 
G01 X-60.2721 Y41.7685 
G01 X-60.2889 Y41.7729 
G01 X-60.3409 Y41.8030 
G01 X-60.3612 Y41.8147 
G01 X-60.4056 Y41.8591 
G01 X-60.4204 Y41.8739 
G01 X-61.3974 Y42.8509 
G01 X-61.5287 Y42.8245 
G01 X-61.6613 Y42.8245 
G01 X-61.7913 Y42.8504 
G01 X-61.9138 Y42.9011 
G01 X-61.9738 Y42.9412 
G01 X-61.7872 Y42.7546 
G01 X-61.5275 Y42.7546 
G01 X-61.3950 Y42.7282 
G01 X-61.2702 Y42.6765 
G01 X-61.1578 Y42.6015 
G01 X-61.0623 Y42.5060 
G01 X-60.9873 Y42.3936 
G01 X-60.9356 Y42.2688 
G01 X-60.9092 Y42.1363 
G01 X-60.9092 Y42.0013 
G01 X-60.9356 Y41.8688 
G01 X-60.9873 Y41.7440 
G01 X-61.0623 Y41.6316 
G01 X-61.1578 Y41.5361 
G01 X-61.2702 Y41.4611 
G01 X-61.3950 Y41.4094 
G01 X-61.5275 Y41.3830 
G01 X-62.1389 Y41.3830 
G01 X-62.2428 Y41.4037 
G01 X-62.2713 Y41.4094 
G01 X-62.3962 Y41.4611 
G01 X-62.4561 Y41.5011 
G01 X-62.4161 Y41.4411 
G01 X-62.3644 Y41.3163 
G01 X-62.3380 Y41.1838 
G01 X-62.3380 Y41.0488 
G01 X-62.3644 Y40.9163 
G01 X-62.4161 Y40.7915 
G01 X-62.4911 Y40.6791 
G01 X-62.5866 Y40.5836 
G01 X-62.6990 Y40.5086 
G01 X-62.8238 Y40.4569 
G01 X-62.9563 Y40.4305 
G00 Z2.5400 
G00 X-35.5328 Y28.0988 
G01 Z0.0000 F254.00 
G01 X-37.9180 Y28.0988 F508.00 
G01 X-38.3562 Y27.6606 
G01 X-39.1138 Y27.6606 
G01 X-39.6494 Y28.1962 
G01 X-39.6494 Y28.9538 
G01 X-39.1138 Y29.4894 
G01 X-38.3562 Y29.4894 
G01 X-37.8206 Y28.9538 
G01 X-37.8206 Y28.7338 
G01 X-35.3595 Y28.7338 
G01 X-35.2787 Y28.7122 
G01 X-35.2064 Y28.6704 
G01 X-35.1472 Y28.6112 
G01 X-33.0590 Y26.5230 
G01 X-32.9276 Y26.5494 
G01 X-32.7950 Y26.5494 
G01 X-32.6650 Y26.5235 
G01 X-32.5425 Y26.4728 
G01 X-32.4322 Y26.3991 
G01 X-32.3385 Y26.3054 
G01 X-32.2648 Y26.1951 
G01 X-32.2141 Y26.0726 
G01 X-32.1882 Y25.9426 
G01 X-32.1882 Y25.8100 
G01 X-32.2141 Y25.6800 
G01 X-32.2648 Y25.5575 
G01 X-32.3385 Y25.4472 
G01 X-32.4322 Y25.3535 
G01 X-32.5425 Y25.2798 
G01 X-32.6650 Y25.2291 
G01 X-32.7950 Y25.2032 
G01 X-32.9276 Y25.2032 
G01 X-33.0576 Y25.2291 
G01 X-33.1801 Y25.2798 
G01 X-33.2904 Y25.3535 
G01 X-33.3841 Y25.4472 
G01 X-33.4578 Y25.5575 
G01 X-33.5085 Y25.6800 
G01 X-33.5344 Y25.8100 
G01 X-33.5344 Y25.9426 
G01 X-33.5085 Y26.0726 
G01 X-35.5328 Y28.0988 
G00 Z2.5400 
G00 X-19.1708 Y13.4938 
G01 Z0.0000 F254.00 
G01 X-19.1703 Y13.4951 F508.00 
G01 X-19.0966 Y13.6054 
G01 X-19.0029 Y13.6991 
G01 X-18.8926 Y13.7728 
G01 X-18.7701 Y13.8235 
G01 X-18.6401 Y13.8494 
G01 X-18.5075 Y13.8494 
G01 X-18.3775 Y13.8235 
G01 X-18.2550 Y13.7728 
G01 X-18.1447 Y13.6991 
G01 X-18.0510 Y13.6054 
G01 X-17.9773 Y13.4951 
G01 X-17.9266 Y13.3726 
G01 X-17.9007 Y13.2426 
G01 X-17.9007 Y13.1100 
G01 X-17.9266 Y12.9800 
G01 X-17.9773 Y12.8575 
G01 X-18.0510 Y12.7472 
G01 X-18.1447 Y12.6535 
G01 X-18.2550 Y12.5798 
G01 X-18.3775 Y12.5291 
G01 X-18.5075 Y12.5032 
G01 X-18.6401 Y12.5032 
G01 X-18.7701 Y12.5291 
G01 X-18.8926 Y12.5798 
G01 X-19.0029 Y12.6535 
G01 X-19.0966 Y12.7472 
G01 X-19.1703 Y12.8575 
G01 X-36.5505 Y12.8588 
G01 X-36.6247 Y12.7472 
G01 X-36.7184 Y12.6535 
G01 X-36.8287 Y12.5798 
G01 X-36.9512 Y12.5291 
G01 X-37.0812 Y12.5032 
G01 X-37.2138 Y12.5032 
G01 X-37.3438 Y12.5291 
G01 X-37.4663 Y12.5798 
G01 X-37.5766 Y12.6535 
G01 X-37.6703 Y12.7472 
G01 X-37.7440 Y12.8575 
G01 X-37.7947 Y12.9800 
G01 X-37.8206 Y13.1100 
G01 X-37.8206 Y13.2426 
G01 X-37.7947 Y13.3726 
G01 X-37.7440 Y13.4951 
G01 X-37.6703 Y13.6054 
G01 X-37.5766 Y13.6991 
G01 X-37.4663 Y13.7728 
G01 X-37.3438 Y13.8235 
G01 X-37.2138 Y13.8494 
G01 X-37.0812 Y13.8494 
G01 X-36.9512 Y13.8235 
G01 X-36.8287 Y13.7728 
G01 X-36.7184 Y13.6991 
G01 X-36.6247 Y13.6054 
G01 X-36.5510 Y13.4951 
G01 X-19.1708 Y13.4938 
G00 Z2.5400 
G00 X-56.8053 Y28.0988 
G01 Z0.0000 F254.00 
G01 X-58.2380 Y28.0988 F508.00 
G01 X-58.6762 Y27.6606 
G01 X-59.4338 Y27.6606 
G01 X-59.9694 Y28.1962 
G01 X-59.9694 Y28.9538 
G01 X-59.4338 Y29.4894 
G01 X-58.6762 Y29.4894 
G01 X-58.1406 Y28.9538 
G01 X-58.1406 Y28.7338 
G01 X-56.6320 Y28.7338 
G01 X-56.5512 Y28.7122 
G01 X-56.4789 Y28.6704 
G01 X-56.4197 Y28.6112 
G01 X-55.9190 Y28.1105 
G01 X-55.7876 Y28.1369 
G01 X-55.6550 Y28.1369 
G01 X-55.5250 Y28.1110 
G01 X-55.4025 Y28.0603 
G01 X-55.2922 Y27.9866 
G01 X-55.1985 Y27.8929 
G01 X-55.1248 Y27.7826 
G01 X-55.0741 Y27.6601 
G01 X-55.0482 Y27.5301 
G01 X-55.0482 Y27.3975 
G01 X-55.0741 Y27.2675 
G01 X-55.1248 Y27.1450 
G01 X-55.1985 Y27.0347 
G01 X-55.2922 Y26.9410 
G01 X-55.4025 Y26.8673 
G01 X-55.5250 Y26.8166 
G01 X-55.6550 Y26.7907 
G01 X-55.7876 Y26.7907 
G01 X-55.9176 Y26.8166 
G01 X-56.0401 Y26.8673 
G01 X-56.1504 Y26.9410 
G01 X-56.2441 Y27.0347 
G01 X-56.3178 Y27.1450 
G01 X-56.3685 Y27.2675 
G01 X-56.3944 Y27.3975 
G01 X-56.3944 Y27.5301 
G01 X-56.3685 Y27.6601 
G01 X-56.8053 Y28.0988 
G00 Z2.5400 
G00 X-81.0795 Y6.6676 
G01 Z0.0000 F254.00 
G01 X-81.1631 Y6.6676 F508.00 
G01 X-81.2439 Y6.6892 
G01 X-81.3162 Y6.7310 
G01 X-82.7449 Y8.1597 
G01 X-82.8041 Y8.2188 
G01 X-82.8459 Y8.2912 
G01 X-82.8675 Y8.3720 
G01 X-82.8675 Y11.7476 
G01 X-95.1331 Y11.7476 
G01 X-95.2139 Y11.7692 
G01 X-95.2862 Y11.8110 
G01 X-96.0799 Y12.6047 
G01 X-96.1391 Y12.6639 
G01 X-96.1809 Y12.7362 
G01 X-96.2025 Y12.8170 
G01 X-96.2025 Y16.9863 
G01 X-96.2443 Y16.9863 
G01 X-96.3251 Y17.0079 
G01 X-96.3974 Y17.0497 
G01 X-97.1912 Y17.8435 
G01 X-97.2504 Y17.9027 
G01 X-97.2922 Y17.9750 
G01 X-97.3138 Y18.0558 
G01 X-97.3138 Y19.5681 
G01 X-97.2922 Y19.6488 
G01 X-97.2504 Y19.7212 
G01 X-97.1912 Y19.7804 
G01 X-97.1189 Y19.8222 
G01 X-97.0381 Y19.8438 
G01 X-95.5257 Y19.8438 
G01 X-95.4449 Y19.8222 
G01 X-95.3726 Y19.7804 
G01 X-94.9598 Y19.3676 
G01 X-94.2703 Y19.3676 
G01 X-93.6625 Y19.9753 
G01 X-93.6625 Y21.2726 
G01 X-95.1331 Y21.2726 
G01 X-95.2139 Y21.2942 
G01 X-95.2862 Y21.3360 
G01 X-96.0799 Y22.1297 
G01 X-96.1391 Y22.1889 
G01 X-96.1809 Y22.2612 
G01 X-96.2025 Y22.3420 
G01 X-96.2025 Y29.2519 
G01 X-96.1809 Y29.3327 
G01 X-96.1391 Y29.4050 
G01 X-96.0799 Y29.4642 
G01 X-96.0076 Y29.5060 
G01 X-95.9268 Y29.5276 
G01 X-81.2528 Y29.5276 
G01 X-80.1667 Y30.6136 
G01 X-80.2894 Y30.7362 
G01 X-80.2894 Y31.4938 
G01 X-79.7538 Y32.0294 
G01 X-78.9962 Y32.0294 
G01 X-78.4606 Y31.4938 
G01 X-78.4606 Y30.7362 
G01 X-78.9962 Y30.2006 
G01 X-79.6817 Y30.2006 
G01 X-80.9264 Y28.9560 
G01 X-80.9657 Y28.9333 
G01 X-80.9987 Y28.9142 
G01 X-81.0155 Y28.9097 
G01 X-81.0795 Y28.8926 
G01 X-95.5675 Y28.8926 
G01 X-95.5675 Y22.5153 
G01 X-94.9598 Y21.9076 
G01 X-93.3032 Y21.9076 
G01 X-93.2224 Y21.8860 
G01 X-93.1501 Y21.8442 
G01 X-93.0909 Y21.7850 
G01 X-93.0491 Y21.7127 
G01 X-93.0275 Y21.6319 
G01 X-93.0275 Y19.8856 
G01 X-93.0275 Y19.8442 
G01 X-93.0275 Y19.8020 
G01 X-93.0404 Y19.7538 
G01 X-93.0491 Y19.7212 
G01 X-93.0876 Y19.6546 
G01 X-93.0909 Y19.6488 
G01 X-93.1393 Y19.6005 
G01 X-93.1501 Y19.5897 
G01 X-93.9199 Y18.8200 
G01 X-93.9438 Y18.7960 
G01 X-93.9955 Y18.7662 
G01 X-94.0162 Y18.7542 
G01 X-94.0662 Y18.7408 
G01 X-94.0970 Y18.7326 
G01 X-94.1393 Y18.7326 
G01 X-95.1331 Y18.7326 
G01 X-95.2139 Y18.7542 
G01 X-95.2862 Y18.7960 
G01 X-95.3454 Y18.8552 
G01 X-95.6990 Y19.2088 
G01 X-96.6788 Y19.2088 
G01 X-96.6788 Y18.2291 
G01 X-96.0710 Y17.6213 
G01 X-95.8432 Y17.6213 
G01 X-95.7624 Y17.5997 
G01 X-95.6900 Y17.5579 
G01 X-95.6309 Y17.4987 
G01 X-95.5891 Y17.4263 
G01 X-95.5675 Y17.3456 
G01 X-95.5675 Y12.9903 
G01 X-94.9598 Y12.3826 
G01 X-82.5082 Y12.3826 
G01 X-82.4274 Y12.3610 
G01 X-82.3551 Y12.3192 
G01 X-82.2959 Y12.2600 
G01 X-82.2541 Y12.1877 
G01 X-82.2325 Y12.1069 
G01 X-82.2325 Y8.5453 
G01 X-80.9898 Y7.3026 
G01 X-69.6495 Y7.3026 
G01 X-69.6192 Y7.2945 
G01 X-69.5701 Y7.3148 
G01 X-69.4401 Y7.3407 
G01 X-69.3075 Y7.3407 
G01 X-69.1775 Y7.3148 
G01 X-69.0550 Y7.2641 
G01 X-68.9447 Y7.1904 
G01 X-68.8510 Y7.0967 
G01 X-68.7773 Y6.9864 
G01 X-68.7266 Y6.8639 
G01 X-68.7007 Y6.7339 
G01 X-68.7007 Y6.6013 
G01 X-68.7266 Y6.4713 
G01 X-68.7773 Y6.3488 
G01 X-68.8510 Y6.2385 
G01 X-68.9447 Y6.1448 
G01 X-69.0550 Y6.0711 
G01 X-69.1775 Y6.0204 
G01 X-69.3075 Y5.9945 
G01 X-69.4401 Y5.9945 
G01 X-69.5701 Y6.0204 
G01 X-69.6926 Y6.0711 
G01 X-69.8029 Y6.1448 
G01 X-69.8966 Y6.2385 
G01 X-69.9703 Y6.3488 
G01 X-70.0210 Y6.4713 
G01 X-70.0469 Y6.6013 
G01 X-70.0469 Y6.6676 
G01 X-81.0795 Y6.6676 
G00 Z2.5400 
G00 X-74.2316 Y37.6600 
G01 Z0.0000 F254.00 
G01 X-74.1724 Y37.7192 F508.00 
G01 X-74.1001 Y37.7610 
G01 X-74.0193 Y37.7826 
G01 X-72.5108 Y37.7826 
G01 X-72.4366 Y37.8942 
G01 X-72.3429 Y37.9879 
G01 X-72.2326 Y38.0616 
G01 X-72.1101 Y38.1123 
G01 X-71.9801 Y38.1382 
G01 X-71.8475 Y38.1382 
G01 X-71.7175 Y38.1123 
G01 X-71.5950 Y38.0616 
G01 X-71.4847 Y37.9879 
G01 X-71.3910 Y37.8942 
G01 X-71.3173 Y37.7839 
G01 X-71.2666 Y37.6614 
G01 X-71.2407 Y37.5314 
G01 X-71.2407 Y37.3988 
G01 X-71.2666 Y37.2688 
G01 X-71.3173 Y37.1463 
G01 X-71.3910 Y37.0360 
G01 X-71.4847 Y36.9423 
G01 X-71.5950 Y36.8686 
G01 X-71.7175 Y36.8179 
G01 X-71.8475 Y36.7920 
G01 X-71.9801 Y36.7920 
G01 X-72.1101 Y36.8179 
G01 X-72.2326 Y36.8686 
G01 X-72.3429 Y36.9423 
G01 X-72.4366 Y37.0360 
G01 X-72.5103 Y37.1463 
G01 X-73.8460 Y37.1476 
G01 X-74.1246 Y36.8690 
G01 X-74.0982 Y36.7376 
G01 X-74.0982 Y36.6050 
G01 X-74.1241 Y36.4750 
G01 X-74.1748 Y36.3525 
G01 X-74.2485 Y36.2422 
G01 X-74.3422 Y36.1485 
G01 X-74.4525 Y36.0748 
G01 X-74.5750 Y36.0241 
G01 X-74.7050 Y35.9982 
G01 X-74.8376 Y35.9982 
G01 X-74.9676 Y36.0241 
G01 X-75.0901 Y36.0748 
G01 X-75.2004 Y36.1485 
G01 X-75.2941 Y36.2422 
G01 X-75.3678 Y36.3525 
G01 X-75.4185 Y36.4750 
G01 X-75.4444 Y36.6050 
G01 X-75.4444 Y36.7376 
G01 X-75.4185 Y36.8676 
G01 X-75.3678 Y36.9901 
G01 X-75.2941 Y37.1004 
G01 X-75.2004 Y37.1941 
G01 X-75.0901 Y37.2678 
G01 X-74.9676 Y37.3185 
G01 X-74.8376 Y37.3444 
G01 X-74.7050 Y37.3444 
G01 X-74.5750 Y37.3185 
G01 X-74.2316 Y37.6600 
G00 Z2.5400 
G00 X-63.6170 Y16.6688 
G01 Z0.0000 F254.00 
G01 X-65.7605 Y16.6688 F508.00 
G01 X-65.7610 Y16.6675 
G01 X-65.8347 Y16.5572 
G01 X-65.9284 Y16.4635 
G01 X-66.0387 Y16.3898 
G01 X-66.1612 Y16.3391 
G01 X-66.2912 Y16.3132 
G01 X-66.4238 Y16.3132 
G01 X-66.5538 Y16.3391 
G01 X-66.6763 Y16.3898 
G01 X-66.7866 Y16.4635 
G01 X-66.8803 Y16.5572 
G01 X-66.9540 Y16.6675 
G01 X-67.0047 Y16.7900 
G01 X-67.0306 Y16.9200 
G01 X-67.0306 Y17.0526 
G01 X-67.0047 Y17.1826 
G01 X-66.9540 Y17.3051 
G01 X-66.8803 Y17.4154 
G01 X-66.7866 Y17.5091 
G01 X-66.6763 Y17.5828 
G01 X-66.5538 Y17.6335 
G01 X-66.4238 Y17.6594 
G01 X-66.2912 Y17.6594 
G01 X-66.1612 Y17.6335 
G01 X-66.0387 Y17.5828 
G01 X-65.9284 Y17.5091 
G01 X-65.8347 Y17.4154 
G01 X-65.7610 Y17.3051 
G01 X-64.0144 Y17.3038 
G01 X-64.0144 Y17.3701 
G01 X-63.9885 Y17.5001 
G01 X-63.9378 Y17.6226 
G01 X-63.8641 Y17.7329 
G01 X-63.7704 Y17.8266 
G01 X-63.6601 Y17.9003 
G01 X-63.5376 Y17.9510 
G01 X-63.4076 Y17.9769 
G01 X-63.2750 Y17.9769 
G01 X-63.1450 Y17.9510 
G01 X-63.0225 Y17.9003 
G01 X-62.9122 Y17.8266 
G01 X-62.8185 Y17.7329 
G01 X-62.7448 Y17.6226 
G01 X-62.6941 Y17.5001 
G01 X-62.6682 Y17.3701 
G01 X-62.6682 Y17.2375 
G01 X-62.6941 Y17.1075 
G01 X-62.7448 Y16.9850 
G01 X-62.8185 Y16.8747 
G01 X-62.9122 Y16.7810 
G01 X-63.0225 Y16.7073 
G01 X-63.1450 Y16.6566 
G01 X-63.2750 Y16.6307 
G01 X-63.4076 Y16.6307 
G01 X-63.5376 Y16.6566 
G01 X-63.5867 Y16.6769 
G01 X-63.6170 Y16.6688 
G00 Z2.5400 
G00 X-66.4733 Y12.3983 
G01 Z0.0000 F254.00 
G01 X-66.4732 Y12.3984 F508.00 
G01 X-65.3416 Y13.5300 
G01 X-65.2824 Y13.5892 
G01 X-65.2101 Y13.6310 
G01 X-65.1293 Y13.6526 
G01 X-64.5733 Y13.6526 
G01 X-64.4991 Y13.7642 
G01 X-64.4054 Y13.8579 
G01 X-64.2951 Y13.9316 
G01 X-64.1726 Y13.9823 
G01 X-64.0426 Y14.0082 
G01 X-63.9100 Y14.0082 
G01 X-63.7800 Y13.9823 
G01 X-63.6575 Y13.9316 
G01 X-63.5472 Y13.8579 
G01 X-63.4535 Y13.7642 
G01 X-63.3798 Y13.6539 
G01 X-63.3291 Y13.5314 
G01 X-63.3032 Y13.4014 
G01 X-63.3032 Y13.2688 
G01 X-63.3291 Y13.1388 
G01 X-63.3798 Y13.0163 
G01 X-63.4535 Y12.9060 
G01 X-63.5472 Y12.8123 
G01 X-63.6575 Y12.7386 
G01 X-63.7800 Y12.6879 
G01 X-63.9100 Y12.6620 
G01 X-64.0426 Y12.6620 
G01 X-64.1726 Y12.6879 
G01 X-64.2951 Y12.7386 
G01 X-64.4054 Y12.8123 
G01 X-64.4991 Y12.9060 
G01 X-64.5728 Y13.0163 
G01 X-64.9560 Y13.0176 
G01 X-65.5910 Y12.3826 
G01 X-52.3495 Y12.3826 
G01 X-52.2753 Y12.4942 
G01 X-52.1816 Y12.5879 
G01 X-52.0713 Y12.6616 
G01 X-51.9488 Y12.7123 
G01 X-51.8188 Y12.7382 
G01 X-51.6862 Y12.7382 
G01 X-51.5562 Y12.7123 
G01 X-51.4337 Y12.6616 
G01 X-51.3234 Y12.5879 
G01 X-51.2297 Y12.4942 
G01 X-51.1560 Y12.3839 
G01 X-51.1053 Y12.2614 
G01 X-51.0794 Y12.1314 
G01 X-51.0794 Y11.9988 
G01 X-51.1053 Y11.8688 
G01 X-51.1560 Y11.7463 
G01 X-51.2297 Y11.6360 
G01 X-51.3234 Y11.5423 
G01 X-51.4337 Y11.4686 
G01 X-51.5562 Y11.4179 
G01 X-51.6862 Y11.3920 
G01 X-51.8188 Y11.3920 
G01 X-51.9488 Y11.4179 
G01 X-52.0713 Y11.4686 
G01 X-52.1139 Y11.4971 
G01 X-51.7906 Y11.1738 
G01 X-51.7906 Y10.4162 
G01 X-52.3262 Y9.8806 
G01 X-53.0838 Y9.8806 
G01 X-53.6194 Y10.4162 
G01 X-53.6194 Y11.1738 
G01 X-53.0838 Y11.7094 
G01 X-52.3262 Y11.7094 
G01 X-52.3205 Y11.7037 
G01 X-52.3490 Y11.7463 
G01 X-66.0019 Y11.7476 
G01 X-66.0019 Y11.6813 
G01 X-66.0278 Y11.5513 
G01 X-66.0785 Y11.4288 
G01 X-66.1070 Y11.3862 
G01 X-65.7838 Y11.7094 
G01 X-65.0262 Y11.7094 
G01 X-64.4906 Y11.1738 
G01 X-64.4906 Y10.4162 
G01 X-65.0262 Y9.8806 
G01 X-65.7838 Y9.8806 
G01 X-66.3194 Y10.4162 
G01 X-66.3194 Y11.1738 
G01 X-66.3136 Y11.1796 
G01 X-66.3562 Y11.1511 
G01 X-66.4787 Y11.1004 
G01 X-66.6087 Y11.0745 
G01 X-66.7413 Y11.0745 
G01 X-66.8713 Y11.1004 
G01 X-66.9938 Y11.1511 
G01 X-67.0364 Y11.1796 
G01 X-67.0306 Y11.1738 
G01 X-67.0306 Y10.4162 
G01 X-67.0739 Y10.3730 
G01 X-66.5435 Y9.8426 
G01 X-34.5803 Y9.8426 
G01 X-33.9725 Y10.4503 
G01 X-33.9725 Y12.1069 
G01 X-33.9509 Y12.1877 
G01 X-33.9091 Y12.2600 
G01 X-33.8499 Y12.3192 
G01 X-33.7776 Y12.3610 
G01 X-33.6968 Y12.3826 
G01 X-17.1070 Y12.3826 
G01 X-17.0328 Y12.4942 
G01 X-16.9391 Y12.5879 
G01 X-16.8288 Y12.6616 
G01 X-16.7063 Y12.7123 
G01 X-16.5763 Y12.7382 
G01 X-16.4437 Y12.7382 
G01 X-16.3137 Y12.7123 
G01 X-16.1912 Y12.6616 
G01 X-16.0809 Y12.5879 
G01 X-15.9872 Y12.4942 
G01 X-15.9135 Y12.3839 
G01 X-15.8628 Y12.2614 
G01 X-15.8369 Y12.1314 
G01 X-15.8369 Y11.9988 
G01 X-15.8628 Y11.8688 
G01 X-15.9135 Y11.7463 
G01 X-15.9872 Y11.6360 
G01 X-16.0809 Y11.5423 
G01 X-16.1912 Y11.4686 
G01 X-16.3137 Y11.4179 
G01 X-16.4437 Y11.3920 
G01 X-16.5763 Y11.3920 
G01 X-16.7063 Y11.4179 
G01 X-16.8288 Y11.4686 
G01 X-16.9391 Y11.5423 
G01 X-17.0328 Y11.6360 
G01 X-17.1065 Y11.7463 
G01 X-33.3375 Y11.7476 
G01 X-33.3375 Y10.3606 
G01 X-33.3375 Y10.3192 
G01 X-33.3375 Y10.2770 
G01 X-33.3504 Y10.2288 
G01 X-33.3591 Y10.1962 
G01 X-33.3976 Y10.1296 
G01 X-33.4009 Y10.1239 
G01 X-33.4493 Y10.0755 
G01 X-33.4601 Y10.0647 
G01 X-34.2299 Y9.2950 
G01 X-34.2538 Y9.2710 
G01 X-34.3055 Y9.2412 
G01 X-34.3262 Y9.2292 
G01 X-34.3762 Y9.2158 
G01 X-34.4070 Y9.2076 
G01 X-34.4493 Y9.2076 
G01 X-66.6754 Y9.2076 
G01 X-66.7168 Y9.2076 
G01 X-66.7451 Y9.2152 
G01 X-66.7975 Y9.2292 
G01 X-66.8278 Y9.2467 
G01 X-66.8699 Y9.2710 
G01 X-67.5229 Y9.9239 
G01 X-67.5662 Y9.8806 
G01 X-68.3238 Y9.8806 
G01 X-68.8594 Y10.4162 
G01 X-68.8594 Y11.1738 
G01 X-68.3238 Y11.7094 
G01 X-67.5662 Y11.7094 
G01 X-67.2430 Y11.3862 
G01 X-67.2715 Y11.4288 
G01 X-67.3222 Y11.5513 
G01 X-67.3481 Y11.6813 
G01 X-67.3481 Y11.8139 
G01 X-67.3222 Y11.9439 
G01 X-67.2715 Y12.0664 
G01 X-67.1978 Y12.1767 
G01 X-67.1041 Y12.2704 
G01 X-66.9938 Y12.3441 
G01 X-66.8713 Y12.3948 
G01 X-66.7413 Y12.4207 
G01 X-66.6087 Y12.4207 
G01 X-66.4787 Y12.3948 
G01 X-66.4733 Y12.3983 
G00 Z2.5400 
G00 X-14.8844 Y18.0362 
G01 Z0.0000 F254.00 
G01 X-14.8844 Y18.7938 F508.00 
G01 X-14.3488 Y19.3294 
G01 X-13.8669 Y19.3294 
G01 X-8.0601 Y25.1360 
G01 X-8.0572 Y25.1390 
G01 X-8.0036 Y25.1748 
G01 X-7.9448 Y25.2140 
G01 X-7.8200 Y25.2657 
G01 X-7.7668 Y25.2763 
G01 X-7.3638 Y25.6794 
G01 X-6.6062 Y25.6794 
G01 X-6.3777 Y25.4509 
G01 X-5.0523 Y25.4508 
G01 X-5.0279 Y25.4753 
G01 X-4.8781 Y25.5753 
G01 X-4.7117 Y25.6443 
G01 X-4.5351 Y25.6794 
G01 X-4.3549 Y25.6794 
G01 X-4.1783 Y25.6443 
G01 X-4.0119 Y25.5753 
G01 X-3.8621 Y25.4753 
G01 X-3.7347 Y25.3479 
G01 X-3.6347 Y25.1981 
G01 X-3.5657 Y25.0317 
G01 X-3.5306 Y24.8551 
G01 X-3.5306 Y24.6749 
G01 X-3.5657 Y24.4983 
G01 X-3.6347 Y24.3319 
G01 X-3.7347 Y24.1821 
G01 X-3.8621 Y24.0547 
G01 X-4.0119 Y23.9547 
G01 X-4.1783 Y23.8857 
G01 X-4.3549 Y23.8506 
G01 X-4.5351 Y23.8506 
G01 X-4.7117 Y23.8857 
G01 X-4.8781 Y23.9547 
G01 X-5.0279 Y24.0547 
G01 X-5.0524 Y24.0792 
G01 X-6.3776 Y24.0793 
G01 X-6.6062 Y23.8506 
G01 X-7.3638 Y23.8506 
G01 X-7.3848 Y23.8716 
G01 X-13.0556 Y18.2009 
G01 X-13.0556 Y18.0362 
G01 X-13.5912 Y17.5006 
G01 X-14.3488 Y17.5006 
G01 X-14.8844 Y18.0362 
G00 Z2.5400 
G00 X-17.5641 Y68.5154 
G01 Z0.0000 F254.00 
G01 X-17.5641 Y69.9146 F508.00 
G01 X-16.5746 Y70.9041 
G01 X-15.1754 Y70.9041 
G01 X-14.1859 Y69.9146 
G01 X-14.1859 Y68.5154 
G01 X-15.1754 Y67.5259 
G01 X-16.5746 Y67.5259 
G01 X-17.5641 Y68.5154 
G00 Z2.5400 
G00 X-53.1241 Y69.1043 
G01 Z0.0000 F254.00 
G01 X-53.1241 Y69.3257 F508.00 
G01 X-53.0952 Y69.5452 
G01 X-53.0379 Y69.7591 
G01 X-52.9532 Y69.9637 
G01 X-52.8424 Y70.1554 
G01 X-52.7077 Y70.3311 
G01 X-52.5511 Y70.4877 
G01 X-52.3754 Y70.6224 
G01 X-52.1837 Y70.7332 
G01 X-51.9791 Y70.8179 
G01 X-51.7652 Y70.8752 
G01 X-51.5457 Y70.9041 
G01 X-51.3243 Y70.9041 
G01 X-51.1048 Y70.8752 
G01 X-50.8909 Y70.8179 
G01 X-50.6863 Y70.7332 
G01 X-50.4946 Y70.6224 
G01 X-50.3189 Y70.4877 
G01 X-50.1623 Y70.3311 
G01 X-50.0276 Y70.1554 
G01 X-49.9168 Y69.9637 
G01 X-49.8321 Y69.7591 
G01 X-49.7748 Y69.5452 
G01 X-49.7459 Y69.3257 
G01 X-49.7459 Y69.1043 
G01 X-49.7748 Y68.8848 
G01 X-49.8321 Y68.6709 
G01 X-49.9168 Y68.4663 
G01 X-50.0276 Y68.2746 
G01 X-50.1623 Y68.0989 
G01 X-50.3189 Y67.9423 
G01 X-50.4946 Y67.8076 
G01 X-50.6863 Y67.6968 
G01 X-50.8909 Y67.6121 
G01 X-51.1048 Y67.5548 
G01 X-51.3243 Y67.5259 
G01 X-51.5457 Y67.5259 
G01 X-51.7652 Y67.5548 
G01 X-51.9791 Y67.6121 
G01 X-52.1837 Y67.6968 
G01 X-52.3754 Y67.8076 
G01 X-52.5511 Y67.9423 
G01 X-52.7077 Y68.0989 
G01 X-52.8424 Y68.2746 
G01 X-52.9532 Y68.4663 
G01 X-53.0379 Y68.6709 
G01 X-53.0952 Y68.8848 
G01 X-53.1241 Y69.1043 
G00 Z2.5400 
G00 X-55.5244 Y72.0112 
G01 Z0.0000 F254.00 
G01 X-55.5244 Y72.7688 F508.00 
G01 X-54.9888 Y73.3044 
G01 X-54.2312 Y73.3044 
G01 X-53.6956 Y72.7688 
G01 X-53.6956 Y72.0112 
G01 X-54.2312 Y71.4756 
G01 X-54.9888 Y71.4756 
G01 X-55.5244 Y72.0112 
G00 Z2.5400 
G00 X-55.5244 Y74.5512 
G01 Z0.0000 F254.00 
G01 X-55.5244 Y75.3088 F508.00 
G01 X-54.9888 Y75.8444 
G01 X-54.2312 Y75.8444 
G01 X-53.6956 Y75.3088 
G01 X-53.6956 Y74.5512 
G01 X-54.2312 Y74.0156 
G01 X-54.9888 Y74.0156 
G01 X-55.5244 Y74.5512 
G00 Z2.5400 
G00 X-92.9894 Y12.9562 
G01 Z0.0000 F254.00 
G01 X-92.9894 Y13.7138 F508.00 
G01 X-92.4538 Y14.2494 
G01 X-91.6962 Y14.2494 
G01 X-91.1606 Y13.7138 
G01 X-91.1606 Y12.9562 
G01 X-91.6962 Y12.4206 
G01 X-92.4538 Y12.4206 
G01 X-92.9894 Y12.9562 
G00 Z2.5400 
G00 X-86.2838 Y30.6205 
G01 Z0.0000 F254.00 
G01 X-86.2838 Y31.6095 F508.00 
G01 X-85.5845 Y32.3088 
G01 X-84.5955 Y32.3088 
G01 X-84.0876 Y31.8009 
G01 X-82.0404 Y31.8009 
G01 X-80.2894 Y33.5518 
G01 X-80.2894 Y34.0338 
G01 X-79.7538 Y34.5694 
G01 X-78.9962 Y34.5694 
G01 X-78.5145 Y34.0877 
G01 X-78.5428 Y34.1300 
G01 X-78.5935 Y34.2525 
G01 X-78.6194 Y34.3825 
G01 X-78.6194 Y34.5151 
G01 X-78.5935 Y34.6451 
G01 X-78.5428 Y34.7676 
G01 X-78.4691 Y34.8779 
G01 X-78.3754 Y34.9716 
G01 X-78.2651 Y35.0453 
G01 X-78.1426 Y35.0960 
G01 X-78.0126 Y35.1219 
G01 X-77.8800 Y35.1219 
G01 X-77.7500 Y35.0960 
G01 X-77.6275 Y35.0453 
G01 X-77.5172 Y34.9716 
G01 X-77.4235 Y34.8779 
G01 X-77.3498 Y34.7676 
G01 X-77.2991 Y34.6451 
G01 X-77.2732 Y34.5151 
G01 X-77.2732 Y34.3825 
G01 X-77.2991 Y34.2525 
G01 X-73.2110 Y30.1626 
G01 X-70.4578 Y30.1626 
G01 X-70.0068 Y30.6136 
G01 X-70.1294 Y30.7362 
G01 X-70.1294 Y31.4938 
G01 X-69.5938 Y32.0294 
G01 X-68.8362 Y32.0294 
G01 X-68.3006 Y31.4938 
G01 X-68.3006 Y30.7362 
G01 X-68.8362 Y30.2006 
G01 X-69.5217 Y30.2006 
G01 X-70.1314 Y29.5910 
G01 X-70.1744 Y29.5662 
G01 X-70.2037 Y29.5492 
G01 X-70.2580 Y29.5347 
G01 X-70.2845 Y29.5276 
G01 X-70.3268 Y29.5276 
G01 X-73.3843 Y29.5276 
G01 X-73.4069 Y29.5336 
G01 X-73.4650 Y29.5492 
G01 X-73.5374 Y29.5910 
G01 X-77.7486 Y33.8021 
G01 X-77.8800 Y33.7757 
G01 X-78.0126 Y33.7757 
G01 X-78.1426 Y33.8016 
G01 X-78.2651 Y33.8523 
G01 X-78.3754 Y33.9260 
G01 X-78.4606 Y34.0112 
G01 X-78.4606 Y33.2762 
G01 X-78.9962 Y32.7406 
G01 X-79.1608 Y32.7406 
G01 X-81.3180 Y30.5836 
G01 X-81.4315 Y30.5073 
G01 X-81.5489 Y30.4587 
G01 X-81.5563 Y30.4557 
G01 X-81.6294 Y30.4411 
G01 X-81.6888 Y30.4293 
G01 X-84.0874 Y30.4293 
G01 X-84.5955 Y29.9212 
G01 X-85.5845 Y29.9212 
G01 X-86.2838 Y30.6205 
G00 Z2.5400 
G00 X-86.2838 Y20.8610 
G01 Z0.0000 F254.00 
G01 X-86.2838 Y21.0490 F508.00 
G01 X-86.2544 Y21.2345 
G01 X-86.1963 Y21.4133 
G01 X-86.1110 Y21.5807 
G01 X-86.0006 Y21.7327 
G01 X-85.8677 Y21.8656 
G01 X-85.7157 Y21.9760 
G01 X-85.5483 Y22.0613 
G01 X-85.3695 Y22.1194 
G01 X-85.1840 Y22.1488 
G01 X-84.9960 Y22.1488 
G01 X-84.8105 Y22.1194 
G01 X-84.6317 Y22.0613 
G01 X-84.4643 Y21.9760 
G01 X-84.3123 Y21.8656 
G01 X-84.1794 Y21.7327 
G01 X-84.0690 Y21.5807 
G01 X-83.9837 Y21.4133 
G01 X-83.9256 Y21.2345 
G01 X-83.8962 Y21.0490 
G01 X-83.8962 Y20.8610 
G01 X-83.9256 Y20.6755 
G01 X-83.9837 Y20.4967 
G01 X-84.0690 Y20.3293 
G01 X-84.1794 Y20.1773 
G01 X-84.3123 Y20.0444 
G01 X-84.4643 Y19.9340 
G01 X-84.6317 Y19.8487 
G01 X-84.8105 Y19.7906 
G01 X-84.9960 Y19.7612 
G01 X-85.1840 Y19.7612 
G01 X-85.3695 Y19.7906 
G01 X-85.5483 Y19.8487 
G01 X-85.7157 Y19.9340 
G01 X-85.8677 Y20.0444 
G01 X-86.0006 Y20.1773 
G01 X-86.1110 Y20.3293 
G01 X-86.1963 Y20.4967 
G01 X-86.2544 Y20.6755 
G01 X-86.2838 Y20.8610 
G00 Z2.5400 
G00 X-92.9894 Y37.7212 
G01 Z0.0000 F254.00 
G01 X-92.9894 Y38.4788 F508.00 
G01 X-92.4538 Y39.0144 
G01 X-91.9719 Y39.0144 
G01 X-86.9560 Y44.0303 
G01 X-86.8436 Y44.1053 
G01 X-86.7188 Y44.1570 
G01 X-86.5863 Y44.1834 
G01 X-86.4513 Y44.1834 
G01 X-86.3188 Y44.1570 
G01 X-86.1940 Y44.1053 
G01 X-86.0816 Y44.0303 
G01 X-85.9861 Y43.9348 
G01 X-85.9111 Y43.8224 
G01 X-85.8594 Y43.6976 
G01 X-85.8330 Y43.5651 
G01 X-85.8330 Y43.4301 
G01 X-85.8594 Y43.2976 
G01 X-85.9111 Y43.1728 
G01 X-85.9861 Y43.0604 
G01 X-91.1606 Y37.8859 
G01 X-91.1606 Y37.7212 
G01 X-91.6962 Y37.1856 
G01 X-92.4538 Y37.1856 
G01 X-92.9894 Y37.7212 
G00 Z2.5400 
G00 X-95.5294 Y37.7212 
G01 Z0.0000 F254.00 
G01 X-95.5294 Y38.4788 F508.00 
G01 X-94.9938 Y39.0144 
G01 X-94.2362 Y39.0144 
G01 X-93.7006 Y38.4788 
G01 X-93.7006 Y37.7212 
G01 X-94.2362 Y37.1856 
G01 X-94.9938 Y37.1856 
G01 X-95.5294 Y37.7212 
G00 Z2.5400 
G00 X-92.9894 Y35.1812 
G01 Z0.0000 F254.00 
G01 X-92.9894 Y35.9388 F508.00 
G01 X-92.4538 Y36.4744 
G01 X-91.6962 Y36.4744 
G01 X-91.1606 Y35.9388 
G01 X-91.1606 Y35.1812 
G01 X-91.6962 Y34.6456 
G01 X-92.4538 Y34.6456 
G01 X-92.9894 Y35.1812 
G00 Z2.5400 
G00 X-95.5294 Y35.1812 
G01 Z0.0000 F254.00 
G01 X-95.5294 Y35.9388 F508.00 
G01 X-94.9938 Y36.4744 
G01 X-94.2362 Y36.4744 
G01 X-93.7006 Y35.9388 
G01 X-93.7006 Y35.1812 
G01 X-94.2362 Y34.6456 
G01 X-94.9938 Y34.6456 
G01 X-95.5294 Y35.1812 
G00 Z2.5400 
G00 X-92.9894 Y32.6412 
G01 Z0.0000 F254.00 
G01 X-92.9894 Y33.3988 F508.00 
G01 X-92.4538 Y33.9344 
G01 X-91.6962 Y33.9344 
G01 X-91.1606 Y33.3988 
G01 X-91.1606 Y32.6412 
G01 X-91.6962 Y32.1056 
G01 X-92.4538 Y32.1056 
G01 X-92.9894 Y32.6412 
G00 Z2.5400 
G00 X-95.5294 Y32.6412 
G01 Z0.0000 F254.00 
G01 X-95.5294 Y33.3988 F508.00 
G01 X-94.9938 Y33.9344 
G01 X-94.2362 Y33.9344 
G01 X-93.7006 Y33.3988 
G01 X-93.7006 Y32.6412 
G01 X-94.2362 Y32.1056 
G01 X-94.9938 Y32.1056 
G01 X-95.5294 Y32.6412 
G00 Z2.5400 
G00 X-92.9894 Y30.1012 
G01 Z0.0000 F254.00 
G01 X-92.9894 Y30.8588 F508.00 
G01 X-92.4538 Y31.3944 
G01 X-91.6962 Y31.3944 
G01 X-91.1606 Y30.8588 
G01 X-91.1606 Y30.1012 
G01 X-91.6962 Y29.5656 
G01 X-92.4538 Y29.5656 
G01 X-92.9894 Y30.1012 
G00 Z2.5400 
G00 X-95.5294 Y30.1012 
G01 Z0.0000 F254.00 
G01 X-95.5294 Y30.8588 F508.00 
G01 X-94.9938 Y31.3944 
G01 X-94.2362 Y31.3944 
G01 X-93.7006 Y30.8588 
G01 X-93.7006 Y30.1012 
G01 X-94.2362 Y29.5656 
G01 X-94.9938 Y29.5656 
G01 X-95.5294 Y30.1012 
G00 Z2.5400 
G00 X-95.5294 Y27.5612 
G01 Z0.0000 F254.00 
G01 X-95.5294 Y28.3188 F508.00 
G01 X-94.9938 Y28.8544 
G01 X-94.2362 Y28.8544 
G01 X-93.7006 Y28.3188 
G01 X-93.7006 Y27.5612 
G01 X-93.7439 Y27.5180 
G01 X-93.2135 Y26.9876 
G01 X-90.0106 Y26.9876 
G01 X-89.9641 Y27.0341 
G01 X-89.8538 Y27.1078 
G01 X-89.7313 Y27.1585 
G01 X-89.6013 Y27.1844 
G01 X-89.4687 Y27.1844 
G01 X-89.3387 Y27.1585 
G01 X-89.2162 Y27.1078 
G01 X-89.1059 Y27.0341 
G01 X-89.0122 Y26.9404 
G01 X-88.9385 Y26.8301 
G01 X-88.8878 Y26.7076 
G01 X-88.8619 Y26.5776 
G01 X-88.8619 Y26.4450 
G01 X-88.8878 Y26.3150 
G01 X-88.9385 Y26.1925 
G01 X-89.0122 Y26.0822 
G01 X-89.1059 Y25.9885 
G01 X-89.2162 Y25.9148 
G01 X-89.3387 Y25.8641 
G01 X-89.4687 Y25.8382 
G01 X-89.6013 Y25.8382 
G01 X-89.7313 Y25.8641 
G01 X-89.8538 Y25.9148 
G01 X-89.9641 Y25.9885 
G01 X-90.0578 Y26.0822 
G01 X-90.1315 Y26.1925 
G01 X-90.1822 Y26.3150 
G01 X-90.1897 Y26.3526 
G01 X-93.3445 Y26.3526 
G01 X-93.3868 Y26.3526 
G01 X-93.4133 Y26.3597 
G01 X-93.4675 Y26.3742 
G01 X-93.4969 Y26.3912 
G01 X-93.5399 Y26.4160 
G01 X-94.1929 Y27.0689 
G01 X-94.2362 Y27.0256 
G01 X-94.9938 Y27.0256 
G01 X-95.5294 Y27.5612 
G00 Z2.5400 
G00 X-95.5294 Y25.0212 
G01 Z0.0000 F254.00 
G01 X-95.5294 Y25.7788 F508.00 
G01 X-94.9938 Y26.3144 
G01 X-94.2362 Y26.3144 
G01 X-93.7006 Y25.7788 
G01 X-93.7006 Y25.0212 
G01 X-93.7439 Y24.9779 
G01 X-93.2135 Y24.4476 
G01 X-90.1897 Y24.4476 
G01 X-90.1822 Y24.4851 
G01 X-90.1315 Y24.6076 
G01 X-90.0578 Y24.7179 
G01 X-89.9641 Y24.8116 
G01 X-89.8538 Y24.8853 
G01 X-89.7313 Y24.9360 
G01 X-89.6013 Y24.9619 
G01 X-89.4687 Y24.9619 
G01 X-89.3387 Y24.9360 
G01 X-89.2162 Y24.8853 
G01 X-89.1059 Y24.8116 
G01 X-89.0122 Y24.7179 
G01 X-88.9385 Y24.6076 
G01 X-88.8878 Y24.4851 
G01 X-88.8619 Y24.3551 
G01 X-88.8619 Y24.2225 
G01 X-88.8878 Y24.0925 
G01 X-88.9385 Y23.9700 
G01 X-89.0122 Y23.8597 
G01 X-89.1059 Y23.7660 
G01 X-89.2162 Y23.6923 
G01 X-89.3387 Y23.6416 
G01 X-89.4687 Y23.6157 
G01 X-89.6013 Y23.6157 
G01 X-89.7313 Y23.6416 
G01 X-89.8538 Y23.6923 
G01 X-89.9641 Y23.7660 
G01 X-90.0107 Y23.8126 
G01 X-93.3445 Y23.8126 
G01 X-93.3868 Y23.8126 
G01 X-93.4133 Y23.8197 
G01 X-93.4675 Y23.8342 
G01 X-93.4969 Y23.8512 
G01 X-93.5399 Y23.8760 
G01 X-94.1929 Y24.5289 
G01 X-94.2362 Y24.4856 
G01 X-94.9938 Y24.4856 
G01 X-95.5294 Y25.0212 
G00 Z2.5400 
G00 X-92.9894 Y22.4812 
G01 Z0.0000 F254.00 
G01 X-92.9894 Y23.2388 F508.00 
G01 X-92.4538 Y23.7744 
G01 X-91.6962 Y23.7744 
G01 X-91.4677 Y23.5459 
G01 X-84.8638 Y23.5459 
G01 X-84.7313 Y23.5195 
G01 X-84.6065 Y23.4678 
G01 X-84.4941 Y23.3928 
G01 X-84.3986 Y23.2973 
G01 X-84.3236 Y23.1849 
G01 X-84.2719 Y23.0601 
G01 X-84.2455 Y22.9276 
G01 X-84.2455 Y22.7926 
G01 X-84.2719 Y22.6601 
G01 X-84.3236 Y22.5353 
G01 X-84.3986 Y22.4229 
G01 X-84.4941 Y22.3274 
G01 X-84.6065 Y22.2524 
G01 X-84.7313 Y22.2007 
G01 X-84.8638 Y22.1743 
G01 X-91.4675 Y22.1743 
G01 X-91.6962 Y21.9456 
G01 X-92.4538 Y21.9456 
G01 X-92.9894 Y22.4812 
G00 Z2.5400 
G00 X-95.5294 Y22.4812 
G01 Z0.0000 F254.00 
G01 X-95.5294 Y23.2388 F508.00 
G01 X-94.9938 Y23.7744 
G01 X-94.2362 Y23.7744 
G01 X-93.7006 Y23.2388 
G01 X-93.7006 Y22.4812 
G01 X-94.2362 Y21.9456 
G01 X-94.9938 Y21.9456 
G01 X-95.5294 Y22.4812 
G00 Z2.5400 
G00 X-92.9894 Y19.9412 
G01 Z0.0000 F254.00 
G01 X-92.9894 Y20.6988 F508.00 
G01 X-92.4538 Y21.2344 
G01 X-91.6962 Y21.2344 
G01 X-91.1606 Y20.6988 
G01 X-91.1606 Y19.9412 
G01 X-91.6962 Y19.4056 
G01 X-92.4538 Y19.4056 
G01 X-92.9894 Y19.9412 
G00 Z2.5400 
G00 X-95.4943 Y20.5867 
G01 Z0.0000 F254.00 
G01 X-95.4253 Y20.7531 F508.00 
G01 X-95.3253 Y20.9029 
G01 X-95.1979 Y21.0303 
G01 X-95.0481 Y21.1303 
G01 X-94.8817 Y21.1993 
G01 X-94.7051 Y21.2344 
G01 X-94.5249 Y21.2344 
G01 X-94.3483 Y21.1993 
G01 X-94.1819 Y21.1303 
G01 X-94.0321 Y21.0303 
G01 X-93.9047 Y20.9029 
G01 X-93.8047 Y20.7531 
G01 X-93.7357 Y20.5867 
G01 X-93.7006 Y20.4101 
G01 X-93.7006 Y20.2299 
G01 X-93.7357 Y20.0533 
G01 X-93.8047 Y19.8869 
G01 X-93.9047 Y19.7371 
G01 X-94.0321 Y19.6097 
G01 X-94.1819 Y19.5097 
G01 X-94.3483 Y19.4407 
G01 X-94.5249 Y19.4056 
G01 X-94.7051 Y19.4056 
G01 X-94.8817 Y19.4407 
G01 X-95.0481 Y19.5097 
G01 X-95.1979 Y19.6097 
G01 X-95.3253 Y19.7371 
G01 X-95.3966 Y19.8438 
G01 X-97.3138 Y19.8438 
G01 X-97.3138 Y17.9116 
G01 X-96.9009 Y17.4987 
G01 X-96.8591 Y17.4263 
G01 X-96.8375 Y17.3456 
G01 X-96.8375 Y14.2494 
G01 X-96.7762 Y14.2494 
G01 X-96.2406 Y13.7138 
G01 X-96.2406 Y12.9562 
G01 X-96.7762 Y12.4206 
G01 X-97.5338 Y12.4206 
G01 X-98.0694 Y12.9562 
G01 X-98.0694 Y13.7138 
G01 X-97.5338 Y14.2494 
G01 X-97.4725 Y14.2494 
G01 X-97.4725 Y17.1723 
G01 X-97.8262 Y17.5260 
G01 X-97.8854 Y17.5852 
G01 X-97.9272 Y17.6575 
G01 X-97.9488 Y17.7383 
G01 X-97.9488 Y20.2031 
G01 X-97.9272 Y20.2839 
G01 X-97.8854 Y20.3562 
G01 X-97.8262 Y20.4154 
G01 X-97.7538 Y20.4572 
G01 X-97.6731 Y20.4788 
G01 X-95.5157 Y20.4788 
G01 X-95.4943 Y20.5867 
G00 Z2.5400 
G00 X-87.9094 Y12.9562 
G01 Z0.0000 F254.00 
G01 X-87.9094 Y13.7138 F508.00 
G01 X-87.3738 Y14.2494 
G01 X-86.6162 Y14.2494 
G01 X-86.0806 Y13.7138 
G01 X-86.0806 Y12.9562 
G01 X-86.6162 Y12.4206 
G01 X-87.3738 Y12.4206 
G01 X-87.9094 Y12.9562 
G00 Z2.5400 
G00 X-87.9094 Y2.7962 
G01 Z0.0000 F254.00 
G01 X-87.9094 Y3.5538 F508.00 
G01 X-87.3738 Y4.0894 
G01 X-86.6162 Y4.0894 
G01 X-86.0806 Y3.5538 
G01 X-86.0806 Y2.7962 
G01 X-86.6162 Y2.2606 
G01 X-87.3738 Y2.2606 
G01 X-87.9094 Y2.7962 
G00 Z2.5400 
G00 X-90.4494 Y12.9562 
G01 Z0.0000 F254.00 
G01 X-90.4494 Y13.7138 F508.00 
G01 X-89.9138 Y14.2494 
G01 X-89.1562 Y14.2494 
G01 X-88.6206 Y13.7138 
G01 X-88.6206 Y12.9562 
G01 X-89.1562 Y12.4206 
G01 X-89.9138 Y12.4206 
G01 X-90.4494 Y12.9562 
G00 Z2.5400 
G00 X-90.4494 Y3.5538 
G01 Z0.0000 F254.00 
G01 X-89.9138 Y4.0894 F508.00 
G01 X-89.1562 Y4.0894 
G01 X-88.6206 Y3.5538 
G01 X-88.6206 Y2.7962 
G01 X-89.1562 Y2.2606 
G01 X-89.3209 Y2.2606 
G01 X-90.4825 Y1.0990 
G01 X-90.5266 Y1.0549 
G01 X-90.5943 Y1.0097 
G01 X-90.6390 Y0.9799 
G01 X-90.7371 Y0.9392 
G01 X-90.7638 Y0.9282 
G01 X-90.8682 Y0.9074 
G01 X-90.8963 Y0.9018 
G01 X-90.9646 Y0.9018 
G01 X-93.0282 Y0.9018 
G01 X-93.0950 Y0.9018 
G01 X-93.1247 Y0.9077 
G01 X-93.2275 Y0.9281 
G01 X-93.2563 Y0.9401 
G01 X-93.3523 Y0.9798 
G01 X-93.3988 Y1.0109 
G01 X-93.4647 Y1.0549 
G01 X-93.5102 Y1.1004 
G01 X-94.6704 Y2.2606 
G01 X-94.9938 Y2.2606 
G01 X-95.5294 Y2.7962 
G01 X-95.5294 Y3.5538 
G01 X-94.9938 Y4.0894 
G01 X-94.2362 Y4.0894 
G01 X-93.7006 Y3.5538 
G01 X-93.7006 Y3.2305 
G01 X-92.7434 Y2.2734 
G01 X-92.4665 Y2.2734 
G01 X-92.9894 Y2.7962 
G01 X-92.9894 Y3.5538 
G01 X-92.4538 Y4.0894 
G01 X-91.6962 Y4.0894 
G01 X-91.1606 Y3.5538 
G01 X-91.1606 Y2.7962 
G01 X-91.6835 Y2.2734 
G01 X-91.2478 Y2.2734 
G01 X-90.4494 Y3.0718 
G01 X-90.4494 Y3.5538 
G00 Z2.5400 
G00 X-95.5294 Y12.9562 
G01 Z0.0000 F254.00 
G01 X-95.5294 Y13.7138 F508.00 
G01 X-94.9938 Y14.2494 
G01 X-94.2362 Y14.2494 
G01 X-93.7006 Y13.7138 
G01 X-93.7006 Y12.9562 
G01 X-94.2362 Y12.4206 
G01 X-94.9938 Y12.4206 
G01 X-95.5294 Y12.9562 
G00 Z2.5400 
G00 X-98.0694 Y2.7962 
G01 Z0.0000 F254.00 
G01 X-98.0694 Y3.5538 F508.00 
G01 X-97.5338 Y4.0894 
G01 X-97.0519 Y4.0894 
G01 X-92.9666 Y8.1746 
G01 X-93.0262 Y8.1348 
G01 X-93.1487 Y8.0841 
G01 X-93.2787 Y8.0582 
G01 X-93.4113 Y8.0582 
G01 X-93.5413 Y8.0841 
G01 X-93.6638 Y8.1348 
G01 X-93.7741 Y8.2085 
G01 X-93.8678 Y8.3022 
G01 X-93.9415 Y8.4125 
G01 X-93.9922 Y8.5350 
G01 X-94.0181 Y8.6650 
G01 X-94.0181 Y8.7976 
G01 X-93.9922 Y8.9276 
G01 X-96.8103 Y11.7476 
G01 X-97.6731 Y11.7476 
G01 X-97.7538 Y11.7692 
G01 X-97.8262 Y11.8110 
G01 X-98.6199 Y12.6047 
G01 X-98.6791 Y12.6639 
G01 X-98.7209 Y12.7362 
G01 X-98.7425 Y12.8170 
G01 X-98.7425 Y31.7919 
G01 X-98.7209 Y31.8727 
G01 X-98.6791 Y31.9450 
G01 X-98.6199 Y32.0042 
G01 X-98.5476 Y32.0460 
G01 X-98.4668 Y32.0676 
G01 X-86.8090 Y32.0676 
G01 X-83.1216 Y35.7550 
G01 X-83.0624 Y35.8142 
G01 X-82.9901 Y35.8560 
G01 X-82.9093 Y35.8776 
G01 X-68.3833 Y35.8776 
G01 X-68.3091 Y35.9892 
G01 X-68.2154 Y36.0829 
G01 X-68.1051 Y36.1566 
G01 X-67.9826 Y36.2073 
G01 X-67.8526 Y36.2332 
G01 X-67.7200 Y36.2332 
G01 X-67.5900 Y36.2073 
G01 X-67.4675 Y36.1566 
G01 X-67.3572 Y36.0829 
G01 X-67.2635 Y35.9892 
G01 X-67.1898 Y35.8789 
G01 X-67.1391 Y35.7564 
G01 X-67.1132 Y35.6264 
G01 X-67.1132 Y35.4938 
G01 X-67.1391 Y35.3638 
G01 X-67.1898 Y35.2413 
G01 X-67.2635 Y35.1310 
G01 X-67.3572 Y35.0373 
G01 X-67.4675 Y34.9636 
G01 X-67.5900 Y34.9129 
G01 X-67.7200 Y34.8870 
G01 X-67.8526 Y34.8870 
G01 X-67.9826 Y34.9129 
G01 X-68.1051 Y34.9636 
G01 X-68.2154 Y35.0373 
G01 X-68.3091 Y35.1310 
G01 X-68.3828 Y35.2413 
G01 X-82.7360 Y35.2426 
G01 X-86.4826 Y31.4960 
G01 X-86.5549 Y31.4542 
G01 X-86.6357 Y31.4326 
G01 X-98.1075 Y31.4326 
G01 X-98.1075 Y12.9903 
G01 X-97.4998 Y12.3826 
G01 X-96.6370 Y12.3826 
G01 X-96.5562 Y12.3610 
G01 X-96.4839 Y12.3192 
G01 X-96.4247 Y12.2600 
G01 X-93.5427 Y9.3780 
G01 X-93.4113 Y9.4044 
G01 X-93.2787 Y9.4044 
G01 X-93.1487 Y9.3785 
G01 X-93.0262 Y9.3278 
G01 X-92.9159 Y9.2541 
G01 X-92.8222 Y9.1604 
G01 X-92.7485 Y9.0501 
G01 X-92.6978 Y8.9276 
G01 X-92.6719 Y8.7976 
G01 X-92.6719 Y8.6650 
G01 X-92.6978 Y8.5350 
G01 X-92.7485 Y8.4125 
G01 X-92.7883 Y8.3529 
G01 X-89.6584 Y11.4828 
G01 X-89.6547 Y11.4865 
G01 X-89.5423 Y11.5615 
G01 X-89.4175 Y11.6132 
G01 X-89.3198 Y11.6327 
G01 X-89.2850 Y11.6396 
G01 X-83.9113 Y11.6396 
G01 X-83.7788 Y11.6132 
G01 X-83.6540 Y11.5615 
G01 X-83.5416 Y11.4865 
G01 X-83.4461 Y11.3910 
G01 X-83.3711 Y11.2786 
G01 X-83.3194 Y11.1538 
G01 X-83.2930 Y11.0213 
G01 X-83.2930 Y10.8863 
G01 X-83.3194 Y10.7538 
G01 X-83.3711 Y10.6289 
G01 X-83.4461 Y10.5166 
G01 X-83.5416 Y10.4211 
G01 X-83.6540 Y10.3461 
G01 X-83.7788 Y10.2944 
G01 X-83.9113 Y10.2680 
G01 X-88.9334 Y10.2680 
G01 X-96.2406 Y2.9609 
G01 X-96.2406 Y2.7962 
G01 X-96.7762 Y2.2606 
G01 X-97.5338 Y2.2606 
G01 X-98.0694 Y2.7962 
G00 Z2.5400 
G00 X-94.9120 Y49.8475 
G01 Z0.0000 F254.00 
G01 X-93.0480 Y49.8475 F508.00 
G01 X-92.8640 Y49.8109 
G01 X-92.6906 Y49.7391 
G01 X-92.5346 Y49.6349 
G01 X-92.4807 Y49.5809 
G01 X-85.0225 Y49.5809 
G01 X-84.8900 Y49.5545 
G01 X-84.7652 Y49.5028 
G01 X-84.6528 Y49.4278 
G01 X-84.5573 Y49.3323 
G01 X-84.4823 Y49.2199 
G01 X-84.4306 Y49.0951 
G01 X-84.4042 Y48.9626 
G01 X-84.4042 Y48.8276 
G01 X-84.4306 Y48.6951 
G01 X-84.4823 Y48.5703 
G01 X-84.5573 Y48.4579 
G01 X-84.6528 Y48.3624 
G01 X-84.7652 Y48.2874 
G01 X-84.8900 Y48.2357 
G01 X-85.0225 Y48.2093 
G01 X-92.4805 Y48.2093 
G01 X-92.5346 Y48.1551 
G01 X-92.6906 Y48.0509 
G01 X-92.8640 Y47.9791 
G01 X-93.0480 Y47.9425 
G01 X-94.9120 Y47.9425 
G01 X-95.0960 Y47.9791 
G01 X-95.2694 Y48.0509 
G01 X-95.4254 Y48.1551 
G01 X-95.5581 Y48.2878 
G01 X-95.6623 Y48.4438 
G01 X-95.7341 Y48.6172 
G01 X-95.7707 Y48.8012 
G01 X-95.7707 Y48.9888 
G01 X-95.7341 Y49.1728 
G01 X-95.6623 Y49.3462 
G01 X-95.5581 Y49.5022 
G01 X-95.4254 Y49.6349 
G01 X-95.2694 Y49.7391 
G01 X-95.0960 Y49.8109 
G01 X-94.9120 Y49.8475 
G00 Z2.5400 
G00 X-94.9120 Y52.3875 
G01 Z0.0000 F254.00 
G01 X-94.1562 Y52.3875 F508.00 
G01 X-94.1487 Y52.3950 
G01 X-94.1003 Y52.4435 
G01 X-94.0454 Y52.4803 
G01 X-93.9880 Y52.5187 
G01 X-93.9268 Y52.5441 
G01 X-93.8633 Y52.5705 
G01 X-93.7969 Y52.5838 
G01 X-93.7308 Y52.5970 
G01 X-93.6633 Y52.5971 
G01 X-93.5957 Y52.5972 
G01 X-91.8083 Y52.5971 
G01 X-91.8083 Y53.8838 
G01 X-91.7977 Y53.9373 
G01 X-91.7819 Y54.0163 
G01 X-91.7302 Y54.1411 
G01 X-91.6552 Y54.2535 
G01 X-91.5717 Y54.3369 
G01 X-88.8610 Y57.0478 
G01 X-88.7487 Y57.1228 
G01 X-88.6239 Y57.1745 
G01 X-88.4914 Y57.2009 
G01 X-88.3563 Y57.2009 
G01 X-88.2238 Y57.1745 
G01 X-88.0990 Y57.1228 
G01 X-87.9866 Y57.0478 
G01 X-87.8911 Y56.9523 
G01 X-87.8161 Y56.8400 
G01 X-87.7644 Y56.7152 
G01 X-87.7380 Y56.5827 
G01 X-87.7380 Y56.4476 
G01 X-87.7644 Y56.3151 
G01 X-87.8160 Y56.1903 
G01 X-87.8911 Y56.0779 
G01 X-90.4367 Y53.5322 
G01 X-90.4367 Y51.8438 
G01 X-90.4631 Y51.7113 
G01 X-90.5148 Y51.5864 
G01 X-90.5898 Y51.4741 
G01 X-90.6853 Y51.3786 
G01 X-90.7977 Y51.3036 
G01 X-90.9225 Y51.2519 
G01 X-91.0550 Y51.2255 
G01 X-92.2123 Y51.2255 
G01 X-92.2259 Y51.1572 
G01 X-92.2977 Y50.9838 
G01 X-92.4019 Y50.8278 
G01 X-92.5346 Y50.6951 
G01 X-92.6906 Y50.5909 
G01 X-92.8640 Y50.5191 
G01 X-93.0480 Y50.4825 
G01 X-93.8040 Y50.4825 
G01 X-93.9880 Y50.2985 
G01 X-94.0191 Y50.2674 
G01 X-94.0871 Y50.2220 
G01 X-94.1315 Y50.1924 
G01 X-94.2014 Y50.1634 
G01 X-94.2563 Y50.1407 
G01 X-94.3229 Y50.1274 
G01 X-94.3888 Y50.1143 
G01 X-94.4560 Y50.1143 
G01 X-95.4422 Y50.1143 
G01 X-96.1517 Y49.4047 
G01 X-96.1517 Y45.6121 
G01 X-81.6888 Y45.6121 
G01 X-81.5563 Y45.5857 
G01 X-81.4314 Y45.5340 
G01 X-81.3191 Y45.4590 
G01 X-80.5895 Y44.7294 
G01 X-80.2662 Y44.7294 
G01 X-79.7306 Y44.1938 
G01 X-79.7306 Y44.0293 
G01 X-79.7259 Y44.0246 
G01 X-68.1950 Y44.0246 
G01 X-68.0625 Y43.9982 
G01 X-67.9377 Y43.9465 
G01 X-67.8253 Y43.8715 
G01 X-67.7298 Y43.7760 
G01 X-67.6548 Y43.6636 
G01 X-67.6031 Y43.5388 
G01 X-67.5767 Y43.4063 
G01 X-67.5767 Y43.2713 
G01 X-67.6031 Y43.1388 
G01 X-67.6548 Y43.0140 
G01 X-67.7298 Y42.9016 
G01 X-67.8253 Y42.8061 
G01 X-67.9377 Y42.7311 
G01 X-68.0625 Y42.6794 
G01 X-68.1950 Y42.6530 
G01 X-80.0775 Y42.6530 
G01 X-80.2100 Y42.6794 
G01 X-80.3348 Y42.7311 
G01 X-80.4472 Y42.8061 
G01 X-80.5417 Y42.9006 
G01 X-81.0238 Y42.9006 
G01 X-81.5594 Y43.4362 
G01 X-81.5594 Y43.7595 
G01 X-82.0404 Y44.2405 
G01 X-96.9050 Y44.2405 
G01 X-97.0375 Y44.2669 
G01 X-97.1623 Y44.3186 
G01 X-97.2747 Y44.3936 
G01 X-97.3702 Y44.4891 
G01 X-97.4452 Y44.6014 
G01 X-97.4969 Y44.7263 
G01 X-97.5233 Y44.8588 
G01 X-97.5233 Y49.6895 
G01 X-97.5233 Y49.7563 
G01 X-97.5116 Y49.8153 
G01 X-97.4969 Y49.8888 
G01 X-97.4722 Y49.9485 
G01 X-97.4453 Y50.0136 
G01 X-97.4123 Y50.0630 
G01 X-97.3702 Y50.1259 
G01 X-97.3352 Y50.1610 
G01 X-96.2590 Y51.2373 
G01 X-96.2330 Y51.2633 
G01 X-96.1635 Y51.3328 
G01 X-96.1365 Y51.3508 
G01 X-96.0512 Y51.4078 
G01 X-96.0349 Y51.4146 
G01 X-95.9264 Y51.4595 
G01 X-95.9044 Y51.4639 
G01 X-95.7939 Y51.4859 
G01 X-95.7707 Y51.4859 
G01 X-95.7707 Y51.5288 
G01 X-95.7341 Y51.7128 
G01 X-95.6623 Y51.8862 
G01 X-95.5581 Y52.0422 
G01 X-95.4254 Y52.1749 
G01 X-95.2694 Y52.2791 
G01 X-95.0960 Y52.3509 
G01 X-94.9120 Y52.3875 
G00 Z2.5400 
G00 X-94.9120 Y54.9275 
G01 Z0.0000 F254.00 
G01 X-93.0480 Y54.9275 F508.00 
G01 X-92.8640 Y54.8909 
G01 X-92.6906 Y54.8191 
G01 X-92.5346 Y54.7149 
G01 X-92.4019 Y54.5822 
G01 X-92.2977 Y54.4262 
G01 X-92.2259 Y54.2528 
G01 X-92.1893 Y54.0688 
G01 X-92.1893 Y53.8812 
G01 X-92.2259 Y53.6972 
G01 X-92.2977 Y53.5238 
G01 X-92.4019 Y53.3678 
G01 X-92.5346 Y53.2351 
G01 X-92.6906 Y53.1309 
G01 X-92.8640 Y53.0591 
G01 X-93.0480 Y53.0225 
G01 X-94.9120 Y53.0225 
G01 X-95.0960 Y53.0591 
G01 X-95.2694 Y53.1309 
G01 X-95.4254 Y53.2351 
G01 X-95.5581 Y53.3678 
G01 X-95.6623 Y53.5238 
G01 X-95.7341 Y53.6972 
G01 X-95.7707 Y53.8812 
G01 X-95.7707 Y54.0688 
G01 X-95.7341 Y54.2528 
G01 X-95.6623 Y54.4262 
G01 X-95.5581 Y54.5822 
G01 X-95.4254 Y54.7149 
G01 X-95.2694 Y54.8191 
G01 X-95.0960 Y54.8909 
G01 X-94.9120 Y54.9275 
G00 Z2.5400 
G00 X-112.5410 Y51.2355 
G01 Z0.0000 F254.00 
G01 X-112.5410 Y51.2355 F508.00 
G01 X-112.5601 Y51.4350 
G01 X-112.5410 Y51.6345 
G01 X-112.4846 Y51.8268 
G01 X-112.3928 Y52.0049 
G01 X-112.2689 Y52.1624 
G01 X-112.1174 Y52.2936 
G01 X-111.9439 Y52.3938 
G01 X-111.7545 Y52.4594 
G01 X-111.5562 Y52.4879 
G01 X-111.3560 Y52.4784 
G01 X-111.1612 Y52.4311 
G01 X-110.9790 Y52.3479 
G01 X-110.8157 Y52.2316 
G01 X-110.6774 Y52.0866 
G01 X-110.5691 Y51.9180 
G01 X-110.4946 Y51.7320 
G01 X-110.4567 Y51.5352 
G01 X-110.4567 Y51.3348 
G01 X-110.4946 Y51.1380 
G01 X-110.5691 Y50.9520 
G01 X-110.6774 Y50.7834 
G01 X-110.8157 Y50.6384 
G01 X-110.9790 Y50.5221 
G01 X-111.1612 Y50.4389 
G01 X-111.3560 Y50.3916 
G01 X-111.5562 Y50.3821 
G01 X-111.7545 Y50.4106 
G01 X-111.9439 Y50.4762 
G01 X-112.1174 Y50.5764 
G01 X-112.2689 Y50.7076 
G01 X-112.3928 Y50.8651 
G01 X-112.4846 Y51.0432 
G01 X-112.5410 Y51.2355 
G00 Z2.5400 
G00 X-94.9120 Y61.2775 
G01 Z0.0000 F254.00 
G01 X-93.0480 Y61.2775 F508.00 
G01 X-92.8640 Y61.2409 
G01 X-92.6906 Y61.1691 
G01 X-92.5346 Y61.0649 
G01 X-92.4019 Y60.9322 
G01 X-92.2977 Y60.7762 
G01 X-92.2259 Y60.6028 
G01 X-92.1893 Y60.4188 
G01 X-92.1893 Y60.2312 
G01 X-92.2259 Y60.0472 
G01 X-92.2977 Y59.8738 
G01 X-92.4019 Y59.7178 
G01 X-92.5346 Y59.5851 
G01 X-92.6906 Y59.4809 
G01 X-92.8640 Y59.4091 
G01 X-93.0480 Y59.3725 
G01 X-94.9120 Y59.3725 
G01 X-95.0960 Y59.4091 
G01 X-95.2694 Y59.4809 
G01 X-95.4254 Y59.5851 
G01 X-95.5581 Y59.7178 
G01 X-95.6623 Y59.8738 
G01 X-95.7341 Y60.0472 
G01 X-95.7707 Y60.2312 
G01 X-95.7707 Y60.4188 
G01 X-95.7341 Y60.6028 
G01 X-95.6623 Y60.7762 
G01 X-95.5581 Y60.9322 
G01 X-95.4254 Y61.0649 
G01 X-95.2694 Y61.1691 
G01 X-95.0960 Y61.2409 
G01 X-94.9120 Y61.2775 
G00 Z2.5400 
G00 X-112.5410 Y62.6655 
G01 Z0.0000 F254.00 
G01 X-112.5410 Y62.6655 F508.00 
G01 X-112.5601 Y62.8650 
G01 X-112.5410 Y63.0645 
G01 X-112.4846 Y63.2568 
G01 X-112.3928 Y63.4349 
G01 X-112.2689 Y63.5924 
G01 X-112.1174 Y63.7236 
G01 X-111.9439 Y63.8238 
G01 X-111.7545 Y63.8894 
G01 X-111.5562 Y63.9179 
G01 X-111.3560 Y63.9084 
G01 X-111.1612 Y63.8611 
G01 X-110.9790 Y63.7779 
G01 X-110.8157 Y63.6616 
G01 X-110.6774 Y63.5166 
G01 X-110.5691 Y63.3480 
G01 X-110.4946 Y63.1620 
G01 X-110.4567 Y62.9652 
G01 X-110.4567 Y62.7648 
G01 X-110.4946 Y62.5680 
G01 X-110.5691 Y62.3820 
G01 X-110.6774 Y62.2134 
G01 X-110.8157 Y62.0684 
G01 X-110.9790 Y61.9521 
G01 X-111.1612 Y61.8689 
G01 X-111.3560 Y61.8216 
G01 X-111.5562 Y61.8121 
G01 X-111.7545 Y61.8406 
G01 X-111.9439 Y61.9062 
G01 X-112.1174 Y62.0064 
G01 X-112.2689 Y62.1376 
G01 X-112.3928 Y62.2951 
G01 X-112.4846 Y62.4732 
G01 X-112.5410 Y62.6655 
G00 Z2.5400 
G00 X-77.8383 Y66.4556 
G01 Z0.0000 F254.00 
G01 X-77.2506 Y67.0433 F508.00 
G01 X-76.6430 Y67.0433 
G01 X-69.0212 Y74.6650 
G01 X-69.0172 Y74.6690 
G01 X-68.9048 Y74.7440 
G01 X-68.7800 Y74.7957 
G01 X-68.6823 Y74.8152 
G01 X-68.6475 Y74.8221 
G01 X-65.7424 Y74.8221 
G01 X-65.7379 Y74.8391 
G01 X-65.6532 Y75.0437 
G01 X-65.5424 Y75.2354 
G01 X-65.4077 Y75.4111 
G01 X-65.2511 Y75.5677 
G01 X-65.0754 Y75.7024 
G01 X-64.8837 Y75.8132 
G01 X-64.6791 Y75.8979 
G01 X-64.4652 Y75.9552 
G01 X-64.2457 Y75.9841 
G01 X-64.0243 Y75.9841 
G01 X-63.8048 Y75.9552 
G01 X-63.5909 Y75.8979 
G01 X-63.3863 Y75.8132 
G01 X-63.1946 Y75.7024 
G01 X-63.0189 Y75.5677 
G01 X-62.8623 Y75.4111 
G01 X-62.7276 Y75.2354 
G01 X-62.6168 Y75.0437 
G01 X-62.5321 Y74.8391 
G01 X-62.4748 Y74.6252 
G01 X-62.4459 Y74.4057 
G01 X-62.4459 Y74.1843 
G01 X-62.4748 Y73.9648 
G01 X-62.5321 Y73.7509 
G01 X-62.6168 Y73.5463 
G01 X-62.7276 Y73.3546 
G01 X-62.8623 Y73.1789 
G01 X-63.0189 Y73.0223 
G01 X-63.1946 Y72.8876 
G01 X-63.3863 Y72.7768 
G01 X-63.5909 Y72.6921 
G01 X-63.8048 Y72.6348 
G01 X-64.0243 Y72.6059 
G01 X-64.2457 Y72.6059 
G01 X-64.4652 Y72.6348 
G01 X-64.6791 Y72.6921 
G01 X-64.8837 Y72.7768 
G01 X-65.0754 Y72.8876 
G01 X-65.2511 Y73.0223 
G01 X-65.4077 Y73.1789 
G01 X-65.5424 Y73.3546 
G01 X-65.5978 Y73.4505 
G01 X-68.2959 Y73.4505 
G01 X-75.8317 Y65.9148 
G01 X-75.8317 Y65.6244 
G01 X-76.4194 Y65.0367 
G01 X-77.2506 Y65.0367 
G01 X-77.3122 Y65.0368 
G01 X-92.2633 Y65.0368 
G01 X-92.2977 Y64.9538 
G01 X-92.4019 Y64.7978 
G01 X-92.5346 Y64.6651 
G01 X-92.6906 Y64.5609 
G01 X-92.8640 Y64.4891 
G01 X-93.0480 Y64.4525 
G01 X-94.9120 Y64.4525 
G01 X-95.0960 Y64.4891 
G01 X-95.2694 Y64.5609 
G01 X-95.4254 Y64.6651 
G01 X-95.5581 Y64.7978 
G01 X-95.6623 Y64.9538 
G01 X-95.7341 Y65.1272 
G01 X-95.7707 Y65.3112 
G01 X-95.7707 Y65.4988 
G01 X-95.7341 Y65.6828 
G01 X-95.6623 Y65.8562 
G01 X-95.5581 Y66.0122 
G01 X-95.4254 Y66.1449 
G01 X-95.2694 Y66.2491 
G01 X-95.0960 Y66.3209 
G01 X-94.9120 Y66.3575 
G01 X-93.7631 Y66.3575 
G01 X-93.7038 Y66.3820 
G01 X-93.5713 Y66.4084 
G01 X-77.8383 Y66.4084 
G01 X-77.8383 Y66.4556 
G00 Z2.5400 
G00 X-77.8383 Y60.5444 
G01 Z0.0000 F254.00 
G01 X-77.8383 Y60.9934 F508.00 
G01 X-78.8654 Y62.0205 
G01 X-92.6916 Y62.0205 
G01 X-92.8640 Y61.9491 
G01 X-93.0480 Y61.9125 
G01 X-94.9120 Y61.9125 
G01 X-95.0960 Y61.9491 
G01 X-95.2694 Y62.0209 
G01 X-95.4254 Y62.1251 
G01 X-95.5581 Y62.2578 
G01 X-95.6623 Y62.4138 
G01 X-95.7341 Y62.5872 
G01 X-95.7707 Y62.7712 
G01 X-95.7707 Y62.9588 
G01 X-95.7341 Y63.1428 
G01 X-95.6623 Y63.3162 
G01 X-95.5581 Y63.4722 
G01 X-95.4254 Y63.6049 
G01 X-95.2694 Y63.7091 
G01 X-95.0960 Y63.7809 
G01 X-94.9120 Y63.8175 
G01 X-93.0480 Y63.8175 
G01 X-92.8640 Y63.7809 
G01 X-92.6906 Y63.7091 
G01 X-92.5346 Y63.6049 
G01 X-92.4019 Y63.4722 
G01 X-92.3484 Y63.3921 
G01 X-78.5138 Y63.3921 
G01 X-78.3813 Y63.3657 
G01 X-78.2565 Y63.3140 
G01 X-78.1441 Y63.2390 
G01 X-78.0486 Y63.1435 
G01 X-76.8684 Y61.9633 
G01 X-76.4194 Y61.9633 
G01 X-75.8317 Y61.3756 
G01 X-75.8317 Y60.5444 
G01 X-76.4194 Y59.9567 
G01 X-77.2506 Y59.9567 
G01 X-77.8383 Y60.5444 
G00 Z2.5400 
G00 X-90.8177 Y73.5954 
G01 Z0.0000 F254.00 
G01 X-90.8177 Y74.9946 F508.00 
G01 X-89.8282 Y75.9841 
G01 X-88.4290 Y75.9841 
G01 X-87.4395 Y74.9946 
G01 X-87.4395 Y73.5954 
G01 X-88.4290 Y72.6059 
G01 X-89.8282 Y72.6059 
G01 X-90.8177 Y73.5954 
G00 Z2.5400 
G00 X-83.3247 Y73.5954 
G01 Z0.0000 F254.00 
G01 X-83.3247 Y74.9946 F508.00 
G01 X-82.3352 Y75.9841 
G01 X-80.9360 Y75.9841 
G01 X-79.9465 Y74.9946 
G01 X-79.9465 Y73.5954 
G01 X-80.9360 Y72.6059 
G01 X-82.3352 Y72.6059 
G01 X-83.3247 Y73.5954 
G00 Z2.5400 
G00 X-75.8317 Y73.5954 
G01 Z0.0000 F254.00 
G01 X-75.8317 Y74.9946 F508.00 
G01 X-74.8422 Y75.9841 
G01 X-73.4430 Y75.9841 
G01 X-72.4535 Y74.9946 
G01 X-72.4535 Y73.5954 
G01 X-73.4430 Y72.6059 
G01 X-74.8422 Y72.6059 
G01 X-75.8317 Y73.5954 
G00 Z2.5400 
G00 X-20.5994 Y10.4162 
G01 Z0.0000 F254.00 
G01 X-20.5994 Y11.1738 F508.00 
G01 X-20.0638 Y11.7094 
G01 X-19.3062 Y11.7094 
G01 X-18.7706 Y11.1738 
G01 X-18.7706 Y10.4162 
G01 X-19.3062 Y9.8806 
G01 X-20.0638 Y9.8806 
G01 X-20.5994 Y10.4162 
G00 Z2.5400 
G00 X-20.5994 Y7.8762 
G01 Z0.0000 F254.00 
G01 X-20.5994 Y8.6338 F508.00 
G01 X-20.0638 Y9.1694 
G01 X-19.3062 Y9.1694 
G01 X-18.7706 Y8.6338 
G01 X-18.7706 Y7.8762 
G01 X-19.3062 Y7.3406 
G01 X-20.0638 Y7.3406 
G01 X-20.5994 Y7.8762 
G00 Z2.5400 
G00 X-28.2194 Y7.8762 
G01 Z0.0000 F254.00 
G01 X-28.2194 Y8.6338 F508.00 
G01 X-27.6838 Y9.1694 
G01 X-26.9262 Y9.1694 
G01 X-26.3906 Y8.6338 
G01 X-26.3906 Y7.8762 
G01 X-26.9262 Y7.3406 
G01 X-27.6838 Y7.3406 
G01 X-28.2194 Y7.8762 
G00 Z2.5400 
G00 X-25.6794 Y7.8762 
G01 Z0.0000 F254.00 
G01 X-25.6794 Y8.6338 F508.00 
G01 X-25.1438 Y9.1694 
G01 X-24.3862 Y9.1694 
G01 X-23.8506 Y8.6338 
G01 X-23.8506 Y7.8762 
G01 X-24.3862 Y7.3406 
G01 X-25.1438 Y7.3406 
G01 X-25.6794 Y7.8762 
G00 Z2.5400 
G00 X-23.1394 Y7.8762 
G01 Z0.0000 F254.00 
G01 X-23.1394 Y8.6338 F508.00 
G01 X-22.6038 Y9.1694 
G01 X-21.8462 Y9.1694 
G01 X-21.3106 Y8.6338 
G01 X-21.3106 Y7.8762 
G01 X-21.8462 Y7.3406 
G01 X-22.6038 Y7.3406 
G01 X-23.1394 Y7.8762 
G00 Z2.5400 
G00 X-23.1394 Y10.4162 
G01 Z0.0000 F254.00 
G01 X-23.1394 Y11.1738 F508.00 
G01 X-22.6038 Y11.7094 
G01 X-21.8462 Y11.7094 
G01 X-21.3106 Y11.1738 
G01 X-21.3106 Y10.4162 
G01 X-21.8462 Y9.8806 
G01 X-22.6038 Y9.8806 
G01 X-23.1394 Y10.4162 
G00 Z2.5400 
G00 X-25.6794 Y10.4162 
G01 Z0.0000 F254.00 
G01 X-25.6794 Y11.1738 F508.00 
G01 X-25.1438 Y11.7094 
G01 X-24.3862 Y11.7094 
G01 X-23.8506 Y11.1738 
G01 X-23.8506 Y10.4162 
G01 X-24.3862 Y9.8806 
G01 X-25.1438 Y9.8806 
G01 X-25.6794 Y10.4162 
G00 Z2.5400 
G00 X-28.2194 Y10.4162 
G01 Z0.0000 F254.00 
G01 X-28.2194 Y11.1738 F508.00 
G01 X-27.6838 Y11.7094 
G01 X-26.9262 Y11.7094 
G01 X-26.3906 Y11.1738 
G01 X-26.3906 Y10.4162 
G01 X-26.9262 Y9.8806 
G01 X-27.6838 Y9.8806 
G01 X-28.2194 Y10.4162 
G00 Z2.5400 
G00 X-30.7594 Y10.4162 
G01 Z0.0000 F254.00 
G01 X-30.7594 Y11.1738 F508.00 
G01 X-30.2238 Y11.7094 
G01 X-29.4662 Y11.7094 
G01 X-28.9306 Y11.1738 
G01 X-28.9306 Y10.4162 
G01 X-29.4662 Y9.8806 
G01 X-30.2238 Y9.8806 
G01 X-30.2291 Y9.8859 
G01 X-30.2010 Y9.8439 
G01 X-7.8994 Y9.8425 
G01 X-7.8994 Y9.9038 
G01 X-7.3638 Y10.4394 
G01 X-6.6062 Y10.4394 
G01 X-6.0706 Y9.9038 
G01 X-6.0706 Y9.1462 
G01 X-6.0758 Y9.1410 
G01 X-6.0338 Y9.1691 
G01 X-5.9113 Y9.2198 
G01 X-5.7813 Y9.2457 
G01 X-5.6487 Y9.2457 
G01 X-5.5187 Y9.2198 
G01 X-5.3962 Y9.1691 
G01 X-5.3542 Y9.1410 
G01 X-5.3594 Y9.1462 
G01 X-5.3594 Y9.9038 
G01 X-5.3161 Y9.9471 
G01 X-5.8465 Y10.4776 
G01 X-16.5480 Y10.4776 
G01 X-16.6222 Y10.3660 
G01 X-16.7159 Y10.2723 
G01 X-16.8262 Y10.1986 
G01 X-16.9487 Y10.1479 
G01 X-17.0787 Y10.1220 
G01 X-17.2113 Y10.1220 
G01 X-17.3413 Y10.1479 
G01 X-17.4638 Y10.1986 
G01 X-17.5741 Y10.2723 
G01 X-17.6678 Y10.3660 
G01 X-17.7415 Y10.4763 
G01 X-17.7922 Y10.5988 
G01 X-17.8181 Y10.7288 
G01 X-17.8181 Y10.8614 
G01 X-17.7922 Y10.9914 
G01 X-17.7415 Y11.1139 
G01 X-17.6678 Y11.2242 
G01 X-17.5741 Y11.3179 
G01 X-17.4638 Y11.3916 
G01 X-17.3413 Y11.4423 
G01 X-17.2113 Y11.4682 
G01 X-17.0787 Y11.4682 
G01 X-16.9487 Y11.4423 
G01 X-16.8262 Y11.3916 
G01 X-16.7159 Y11.3179 
G01 X-16.6222 Y11.2242 
G01 X-16.5485 Y11.1139 
G01 X-5.7568 Y11.1126 
G01 X-5.7154 Y11.1126 
G01 X-5.6732 Y11.1126 
G01 X-5.6550 Y11.1077 
G01 X-5.5924 Y11.0910 
G01 X-5.5404 Y11.0609 
G01 X-5.5201 Y11.0492 
G01 X-5.4804 Y11.0095 
G01 X-5.4609 Y10.9900 
G01 X-4.8670 Y10.3961 
G01 X-4.8238 Y10.4394 
G01 X-4.0662 Y10.4394 
G01 X-3.5306 Y9.9038 
G01 X-3.5306 Y9.1462 
G01 X-4.0662 Y8.6106 
G01 X-4.8238 Y8.6106 
G01 X-5.1465 Y8.9334 
G01 X-5.1185 Y8.8914 
G01 X-5.0678 Y8.7689 
G01 X-5.0419 Y8.6389 
G01 X-5.0419 Y8.5063 
G01 X-5.0678 Y8.3763 
G01 X-5.1185 Y8.2538 
G01 X-5.1922 Y8.1435 
G01 X-5.2859 Y8.0498 
G01 X-5.3962 Y7.9761 
G01 X-5.5187 Y7.9254 
G01 X-5.6487 Y7.8995 
G01 X-5.7813 Y7.8995 
G01 X-5.9113 Y7.9254 
G01 X-5.9604 Y7.9457 
G01 X-5.9907 Y7.9376 
G01 X-17.8073 Y7.9376 
G01 X-18.9547 Y6.7902 
G01 X-19.0139 Y6.7310 
G01 X-19.0862 Y6.6892 
G01 X-19.1670 Y6.6676 
G01 X-42.9005 Y6.6676 
G01 X-42.9747 Y6.5560 
G01 X-43.0684 Y6.4623 
G01 X-43.1787 Y6.3886 
G01 X-43.3012 Y6.3379 
G01 X-43.4312 Y6.3120 
G01 X-43.5638 Y6.3120 
G01 X-43.6938 Y6.3379 
G01 X-43.8163 Y6.3886 
G01 X-43.9266 Y6.4623 
G01 X-44.0203 Y6.5560 
G01 X-44.0940 Y6.6663 
G01 X-44.1447 Y6.7888 
G01 X-44.1706 Y6.9188 
G01 X-44.1706 Y7.0514 
G01 X-44.1447 Y7.1814 
G01 X-44.0940 Y7.3039 
G01 X-44.0203 Y7.4142 
G01 X-43.9266 Y7.5079 
G01 X-43.8163 Y7.5816 
G01 X-43.6938 Y7.6323 
G01 X-43.5638 Y7.6582 
G01 X-43.4312 Y7.6582 
G01 X-43.3012 Y7.6323 
G01 X-43.1787 Y7.5816 
G01 X-43.1367 Y7.5536 
G01 X-43.4594 Y7.8762 
G01 X-43.4594 Y8.6338 
G01 X-42.9238 Y9.1694 
G01 X-42.1662 Y9.1694 
G01 X-41.6306 Y8.6338 
G01 X-41.6306 Y7.8762 
G01 X-42.1662 Y7.3406 
G01 X-42.9238 Y7.3406 
G01 X-42.9290 Y7.3459 
G01 X-42.9010 Y7.3039 
G01 X-19.3403 Y7.3026 
G01 X-18.1337 Y8.5092 
G01 X-18.0614 Y8.5510 
G01 X-17.9806 Y8.5726 
G01 X-6.3881 Y8.5726 
G01 X-6.3881 Y8.6389 
G01 X-6.3622 Y8.7689 
G01 X-6.3115 Y8.8914 
G01 X-6.2835 Y8.9334 
G01 X-6.6062 Y8.6106 
G01 X-7.3638 Y8.6106 
G01 X-7.8994 Y9.1462 
G01 X-7.8994 Y9.2075 
G01 X-30.2005 Y9.2076 
G01 X-30.2295 Y9.1637 
G01 X-30.2238 Y9.1694 
G01 X-29.4662 Y9.1694 
G01 X-28.9306 Y8.6338 
G01 X-28.9306 Y7.8762 
G01 X-29.4662 Y7.3406 
G01 X-30.2238 Y7.3406 
G01 X-30.7594 Y7.8762 
G01 X-30.7594 Y8.6338 
G01 X-30.4361 Y8.9571 
G01 X-30.4787 Y8.9286 
G01 X-30.6012 Y8.8779 
G01 X-30.7312 Y8.8520 
G01 X-30.8638 Y8.8520 
G01 X-30.9938 Y8.8779 
G01 X-31.1163 Y8.9286 
G01 X-31.2266 Y9.0023 
G01 X-31.3203 Y9.0960 
G01 X-31.3940 Y9.2063 
G01 X-31.4447 Y9.3288 
G01 X-31.4706 Y9.4588 
G01 X-31.4706 Y9.5914 
G01 X-31.4447 Y9.7214 
G01 X-31.3940 Y9.8439 
G01 X-31.3203 Y9.9542 
G01 X-31.2266 Y10.0479 
G01 X-31.1163 Y10.1216 
G01 X-30.9938 Y10.1723 
G01 X-30.8638 Y10.1982 
G01 X-30.7312 Y10.1982 
G01 X-30.6012 Y10.1723 
G01 X-30.4787 Y10.1216 
G01 X-30.4367 Y10.0935 
G01 X-30.7594 Y10.4162 
G00 Z2.5400 
G00 X-33.2994 Y7.8762 
G01 Z0.0000 F254.00 
G01 X-33.2994 Y8.6338 F508.00 
G01 X-32.7638 Y9.1694 
G01 X-32.0062 Y9.1694 
G01 X-31.4706 Y8.6338 
G01 X-31.4706 Y7.8762 
G01 X-32.0062 Y7.3406 
G01 X-32.7638 Y7.3406 
G01 X-33.2994 Y7.8762 
G00 Z2.5400 
G00 X-33.2994 Y10.4162 
G01 Z0.0000 F254.00 
G01 X-33.2994 Y11.1738 F508.00 
G01 X-32.7638 Y11.7094 
G01 X-32.0062 Y11.7094 
G01 X-31.4706 Y11.1738 
G01 X-31.4706 Y10.4162 
G01 X-32.0062 Y9.8806 
G01 X-32.7638 Y9.8806 
G01 X-33.2994 Y10.4162 
G00 Z2.5400 
G00 X-35.8394 Y7.8762 
G01 Z0.0000 F254.00 
G01 X-35.8394 Y8.6338 F508.00 
G01 X-35.3038 Y9.1694 
G01 X-34.5462 Y9.1694 
G01 X-34.0106 Y8.6338 
G01 X-34.0106 Y7.8762 
G01 X-34.5462 Y7.3406 
G01 X-35.3038 Y7.3406 
G01 X-35.8394 Y7.8762 
G00 Z2.5400 
G00 X-35.8394 Y10.4162 
G01 Z0.0000 F254.00 
G01 X-35.8394 Y11.1738 F508.00 
G01 X-35.3038 Y11.7094 
G01 X-34.5462 Y11.7094 
G01 X-34.0106 Y11.1738 
G01 X-34.0106 Y10.4162 
G01 X-34.5462 Y9.8806 
G01 X-35.3038 Y9.8806 
G01 X-35.8394 Y10.4162 
G00 Z2.5400 
G00 X-38.3794 Y7.8762 
G01 Z0.0000 F254.00 
G01 X-38.3794 Y8.6338 F508.00 
G01 X-37.8438 Y9.1694 
G01 X-37.0862 Y9.1694 
G01 X-36.5506 Y8.6338 
G01 X-36.5506 Y7.8762 
G01 X-37.0862 Y7.3406 
G01 X-37.8438 Y7.3406 
G01 X-38.3794 Y7.8762 
G00 Z2.5400 
G00 X-38.3794 Y10.4162 
G01 Z0.0000 F254.00 
G01 X-38.3794 Y11.1738 F508.00 
G01 X-37.8438 Y11.7094 
G01 X-37.0862 Y11.7094 
G01 X-36.5506 Y11.1738 
G01 X-36.5506 Y10.4162 
G01 X-37.0862 Y9.8806 
G01 X-37.8438 Y9.8806 
G01 X-38.3794 Y10.4162 
G00 Z2.5400 
G00 X-40.9194 Y7.8762 
G01 Z0.0000 F254.00 
G01 X-40.9194 Y8.6338 F508.00 
G01 X-40.3838 Y9.1694 
G01 X-39.6262 Y9.1694 
G01 X-39.0906 Y8.6338 
G01 X-39.0906 Y7.8762 
G01 X-39.6262 Y7.3406 
G01 X-40.3838 Y7.3406 
G01 X-40.9194 Y7.8762 
G00 Z2.5400 
G00 X-40.9194 Y10.4162 
G01 Z0.0000 F254.00 
G01 X-40.9194 Y11.1738 F508.00 
G01 X-40.3838 Y11.7094 
G01 X-39.6262 Y11.7094 
G01 X-39.0906 Y11.1738 
G01 X-39.0906 Y10.4162 
G01 X-39.6262 Y9.8806 
G01 X-40.3838 Y9.8806 
G01 X-40.9194 Y10.4162 
G00 Z2.5400 
G00 X-43.4594 Y10.4162 
G01 Z0.0000 F254.00 
G01 X-43.4594 Y11.1738 F508.00 
G01 X-42.9238 Y11.7094 
G01 X-42.1662 Y11.7094 
G01 X-41.6306 Y11.1738 
G01 X-41.6306 Y10.4162 
G01 X-42.1662 Y9.8806 
G01 X-42.9238 Y9.8806 
G01 X-43.4594 Y10.4162 
G00 Z2.5400 
G00 X-45.9994 Y7.8762 
G01 Z0.0000 F254.00 
G01 X-45.9994 Y8.6338 F508.00 
G01 X-45.4638 Y9.1694 
G01 X-44.7062 Y9.1694 
G01 X-44.1706 Y8.6338 
G01 X-44.1706 Y7.8762 
G01 X-44.7062 Y7.3406 
G01 X-45.4638 Y7.3406 
G01 X-45.9994 Y7.8762 
G00 Z2.5400 
G00 X-45.9994 Y10.4162 
G01 Z0.0000 F254.00 
G01 X-45.9994 Y11.1738 F508.00 
G01 X-45.4638 Y11.7094 
G01 X-44.7062 Y11.7094 
G01 X-44.1706 Y11.1738 
G01 X-44.1706 Y10.4162 
G01 X-44.7062 Y9.8806 
G01 X-45.4638 Y9.8806 
G01 X-45.9994 Y10.4162 
G00 Z2.5400 
G00 X-48.5394 Y7.8762 
G01 Z0.0000 F254.00 
G01 X-48.5394 Y8.6338 F508.00 
G01 X-48.0038 Y9.1694 
G01 X-47.2462 Y9.1694 
G01 X-46.7106 Y8.6338 
G01 X-46.7106 Y7.8762 
G01 X-47.0333 Y7.5535 
G01 X-46.9913 Y7.5816 
G01 X-46.8688 Y7.6323 
G01 X-46.7388 Y7.6582 
G01 X-46.6062 Y7.6582 
G01 X-46.4762 Y7.6323 
G01 X-46.3537 Y7.5816 
G01 X-46.2434 Y7.5079 
G01 X-46.1497 Y7.4142 
G01 X-46.0760 Y7.3039 
G01 X-46.0253 Y7.1814 
G01 X-45.9994 Y7.0514 
G01 X-45.9994 Y6.9188 
G01 X-46.0253 Y6.7888 
G01 X-46.0760 Y6.6663 
G01 X-46.1497 Y6.5560 
G01 X-46.2434 Y6.4623 
G01 X-46.3537 Y6.3886 
G01 X-46.4762 Y6.3379 
G01 X-46.6062 Y6.3120 
G01 X-46.7388 Y6.3120 
G01 X-46.8688 Y6.3379 
G01 X-46.9913 Y6.3886 
G01 X-47.1016 Y6.4623 
G01 X-47.1953 Y6.5560 
G01 X-47.2690 Y6.6663 
G01 X-61.5954 Y6.6676 
G01 X-61.6368 Y6.6676 
G01 X-61.6651 Y6.6752 
G01 X-61.7175 Y6.6892 
G01 X-61.7478 Y6.7067 
G01 X-61.7899 Y6.7310 
G01 X-62.4429 Y7.3839 
G01 X-62.4862 Y7.3406 
G01 X-63.2438 Y7.3406 
G01 X-63.7794 Y7.8762 
G01 X-63.7794 Y8.6338 
G01 X-63.2438 Y9.1694 
G01 X-62.4862 Y9.1694 
G01 X-61.9506 Y8.6338 
G01 X-61.9506 Y7.8762 
G01 X-61.9939 Y7.8330 
G01 X-61.4635 Y7.3026 
G01 X-47.2695 Y7.3026 
G01 X-47.2409 Y7.3459 
G01 X-47.2462 Y7.3406 
G01 X-48.0038 Y7.3406 
G01 X-48.5394 Y7.8762 
G00 Z2.5400 
G00 X-48.5394 Y10.4162 
G01 Z0.0000 F254.00 
G01 X-48.5394 Y11.1738 F508.00 
G01 X-48.0038 Y11.7094 
G01 X-47.2462 Y11.7094 
G01 X-46.7106 Y11.1738 
G01 X-46.7106 Y10.4162 
G01 X-47.2462 Y9.8806 
G01 X-48.0038 Y9.8806 
G01 X-48.5394 Y10.4162 
G00 Z2.5400 
G00 X-51.0794 Y7.8762 
G01 Z0.0000 F254.00 
G01 X-51.0794 Y8.6338 F508.00 
G01 X-50.5438 Y9.1694 
G01 X-49.7862 Y9.1694 
G01 X-49.2506 Y8.6338 
G01 X-49.2506 Y7.8762 
G01 X-49.7862 Y7.3406 
G01 X-50.5438 Y7.3406 
G01 X-51.0794 Y7.8762 
G00 Z2.5400 
G00 X-51.0794 Y10.4162 
G01 Z0.0000 F254.00 
G01 X-51.0794 Y11.1738 F508.00 
G01 X-50.5438 Y11.7094 
G01 X-49.7862 Y11.7094 
G01 X-49.2506 Y11.1738 
G01 X-49.2506 Y10.4162 
G01 X-49.7862 Y9.8806 
G01 X-50.5438 Y9.8806 
G01 X-51.0794 Y10.4162 
G00 Z2.5400 
G00 X-53.6194 Y7.8762 
G01 Z0.0000 F254.00 
G01 X-53.6194 Y8.6338 F508.00 
G01 X-53.0838 Y9.1694 
G01 X-52.3262 Y9.1694 
G01 X-51.7906 Y8.6338 
G01 X-51.7906 Y7.8762 
G01 X-52.3262 Y7.3406 
G01 X-53.0838 Y7.3406 
G01 X-53.6194 Y7.8762 
G00 Z2.5400 
G00 X-56.1594 Y7.8762 
G01 Z0.0000 F254.00 
G01 X-56.1594 Y8.6338 F508.00 
G01 X-55.6238 Y9.1694 
G01 X-54.8662 Y9.1694 
G01 X-54.3306 Y8.6338 
G01 X-54.3306 Y7.8762 
G01 X-54.8662 Y7.3406 
G01 X-55.6238 Y7.3406 
G01 X-56.1594 Y7.8762 
G00 Z2.5400 
G00 X-56.1594 Y10.4162 
G01 Z0.0000 F254.00 
G01 X-56.1594 Y11.1738 F508.00 
G01 X-55.6238 Y11.7094 
G01 X-54.8662 Y11.7094 
G01 X-54.3306 Y11.1738 
G01 X-54.3306 Y10.4162 
G01 X-54.8662 Y9.8806 
G01 X-55.6238 Y9.8806 
G01 X-56.1594 Y10.4162 
G00 Z2.5400 
G00 X-58.6994 Y7.8762 
G01 Z0.0000 F254.00 
G01 X-58.6994 Y8.6338 F508.00 
G01 X-58.1638 Y9.1694 
G01 X-57.4062 Y9.1694 
G01 X-56.8706 Y8.6338 
G01 X-56.8706 Y7.8762 
G01 X-57.4062 Y7.3406 
G01 X-58.1638 Y7.3406 
G01 X-58.6994 Y7.8762 
G00 Z2.5400 
G00 X-58.6994 Y10.4162 
G01 Z0.0000 F254.00 
G01 X-58.6994 Y11.1738 F508.00 
G01 X-58.1638 Y11.7094 
G01 X-57.4062 Y11.7094 
G01 X-56.8706 Y11.1738 
G01 X-56.8706 Y10.4162 
G01 X-57.4062 Y9.8806 
G01 X-58.1638 Y9.8806 
G01 X-58.6994 Y10.4162 
G00 Z2.5400 
G00 X-61.2394 Y7.8762 
G01 Z0.0000 F254.00 
G01 X-61.2394 Y8.6338 F508.00 
G01 X-60.7038 Y9.1694 
G01 X-59.9462 Y9.1694 
G01 X-59.4106 Y8.6338 
G01 X-59.4106 Y7.8762 
G01 X-59.9462 Y7.3406 
G01 X-60.7038 Y7.3406 
G01 X-61.2394 Y7.8762 
G00 Z2.5400 
G00 X-61.2394 Y10.4162 
G01 Z0.0000 F254.00 
G01 X-61.2394 Y11.1738 F508.00 
G01 X-60.7038 Y11.7094 
G01 X-59.9462 Y11.7094 
G01 X-59.4106 Y11.1738 
G01 X-59.4106 Y10.4162 
G01 X-59.9462 Y9.8806 
G01 X-60.7038 Y9.8806 
G01 X-61.2394 Y10.4162 
G00 Z2.5400 
G00 X-63.7794 Y10.4162 
G01 Z0.0000 F254.00 
G01 X-63.7794 Y11.1738 F508.00 
G01 X-63.2438 Y11.7094 
G01 X-62.4862 Y11.7094 
G01 X-61.9506 Y11.1738 
G01 X-61.9506 Y10.4162 
G01 X-62.4862 Y9.8806 
G01 X-63.2438 Y9.8806 
G01 X-63.7794 Y10.4162 
G00 Z2.5400 
G00 X-66.3194 Y7.8762 
G01 Z0.0000 F254.00 
G01 X-66.3194 Y8.6338 F508.00 
G01 X-65.7838 Y9.1694 
G01 X-65.0262 Y9.1694 
G01 X-64.4906 Y8.6338 
G01 X-64.4906 Y7.8762 
G01 X-65.0262 Y7.3406 
G01 X-65.7838 Y7.3406 
G01 X-66.3194 Y7.8762 
G00 Z2.5400 
G00 X-68.8594 Y7.8762 
G01 Z0.0000 F254.00 
G01 X-68.8594 Y8.6338 F508.00 
G01 X-68.3238 Y9.1694 
G01 X-67.5662 Y9.1694 
G01 X-67.0306 Y8.6338 
G01 X-67.0306 Y7.8762 
G01 X-67.5662 Y7.3406 
G01 X-68.3238 Y7.3406 
G01 X-68.8594 Y7.8762 
G00 Z2.5400 
G00 X-71.3994 Y7.8762 
G01 Z0.0000 F254.00 
G01 X-71.3994 Y8.6338 F508.00 
G01 X-70.8638 Y9.1694 
G01 X-70.1062 Y9.1694 
G01 X-69.5706 Y8.6338 
G01 X-69.5706 Y7.8762 
G01 X-70.1062 Y7.3406 
G01 X-70.8638 Y7.3406 
G01 X-71.3994 Y7.8762 
G00 Z2.5400 
G00 X-71.3994 Y10.4162 
G01 Z0.0000 F254.00 
G01 X-71.3994 Y11.1738 F508.00 
G01 X-70.8638 Y11.7094 
G01 X-70.1062 Y11.7094 
G01 X-69.5706 Y11.1738 
G01 X-69.5706 Y10.4162 
G01 X-70.1062 Y9.8806 
G01 X-70.8638 Y9.8806 
G01 X-71.3994 Y10.4162 
G00 Z2.5400 
G00 X-73.9394 Y7.8762 
G01 Z0.0000 F254.00 
G01 X-73.9394 Y8.6338 F508.00 
G01 X-73.4038 Y9.1694 
G01 X-72.6462 Y9.1694 
G01 X-72.1106 Y8.6338 
G01 X-72.1106 Y7.8762 
G01 X-72.6462 Y7.3406 
G01 X-73.4038 Y7.3406 
G01 X-73.9394 Y7.8762 
G00 Z2.5400 
G00 X-73.9394 Y10.4162 
G01 Z0.0000 F254.00 
G01 X-73.9394 Y11.1738 F508.00 
G01 X-73.4038 Y11.7094 
G01 X-72.6462 Y11.7094 
G01 X-72.1106 Y11.1738 
G01 X-72.1106 Y10.4162 
G01 X-72.6462 Y9.8806 
G01 X-73.4038 Y9.8806 
G01 X-73.9394 Y10.4162 
G00 Z2.5400 
G00 X-76.4794 Y10.4162 
G01 Z0.0000 F254.00 
G01 X-76.4794 Y11.1738 F508.00 
G01 X-75.9438 Y11.7094 
G01 X-75.1862 Y11.7094 
G01 X-74.6506 Y11.1738 
G01 X-74.6506 Y10.4162 
G01 X-75.1862 Y9.8806 
G01 X-75.9438 Y9.8806 
G01 X-76.4794 Y10.4162 
G00 Z2.5400 
G00 X-79.0194 Y10.4162 
G01 Z0.0000 F254.00 
G01 X-79.0194 Y11.1738 F508.00 
G01 X-78.4838 Y11.7094 
G01 X-77.7262 Y11.7094 
G01 X-77.1906 Y11.1738 
G01 X-77.1906 Y10.4162 
G01 X-77.7262 Y9.8806 
G01 X-78.4838 Y9.8806 
G01 X-78.4891 Y9.8859 
G01 X-78.4610 Y9.8439 
G01 X-76.8768 Y9.8426 
G01 X-76.8354 Y9.8426 
G01 X-76.7932 Y9.8426 
G01 X-76.7750 Y9.8377 
G01 X-76.7124 Y9.8210 
G01 X-76.6604 Y9.7909 
G01 X-76.6401 Y9.7792 
G01 X-76.6004 Y9.7395 
G01 X-76.5809 Y9.7200 
G01 X-75.9870 Y9.1261 
G01 X-75.9438 Y9.1694 
G01 X-75.1862 Y9.1694 
G01 X-74.6506 Y8.6338 
G01 X-74.6506 Y7.8762 
G01 X-75.1862 Y7.3406 
G01 X-75.9438 Y7.3406 
G01 X-76.4794 Y7.8762 
G01 X-76.4794 Y8.6338 
G01 X-76.4361 Y8.6771 
G01 X-76.9665 Y9.2076 
G01 X-78.4605 Y9.2076 
G01 X-78.4895 Y9.1637 
G01 X-78.4838 Y9.1694 
G01 X-77.7262 Y9.1694 
G01 X-77.1906 Y8.6338 
G01 X-77.1906 Y7.8762 
G01 X-77.7262 Y7.3406 
G01 X-78.4838 Y7.3406 
G01 X-79.0194 Y7.8762 
G01 X-79.0194 Y8.6338 
G01 X-78.6961 Y8.9571 
G01 X-78.7387 Y8.9286 
G01 X-78.8612 Y8.8779 
G01 X-78.9912 Y8.8520 
G01 X-79.1238 Y8.8520 
G01 X-79.2538 Y8.8779 
G01 X-79.3763 Y8.9286 
G01 X-79.4866 Y9.0023 
G01 X-79.5803 Y9.0960 
G01 X-79.6540 Y9.2063 
G01 X-79.7047 Y9.3288 
G01 X-79.7306 Y9.4588 
G01 X-79.7306 Y9.5914 
G01 X-79.7047 Y9.7214 
G01 X-79.6540 Y9.8439 
G01 X-79.5803 Y9.9542 
G01 X-79.4866 Y10.0479 
G01 X-79.3763 Y10.1216 
G01 X-79.2538 Y10.1723 
G01 X-79.1238 Y10.1982 
G01 X-78.9912 Y10.1982 
G01 X-78.8612 Y10.1723 
G01 X-78.7387 Y10.1216 
G01 X-78.6967 Y10.0935 
G01 X-79.0194 Y10.4162 
G00 Z2.5400 
G00 X-81.5594 Y7.8762 
G01 Z0.0000 F254.00 
G01 X-81.5594 Y8.6338 F508.00 
G01 X-81.0238 Y9.1694 
G01 X-80.2662 Y9.1694 
G01 X-79.7306 Y8.6338 
G01 X-79.7306 Y7.8762 
G01 X-80.2662 Y7.3406 
G01 X-81.0238 Y7.3406 
G01 X-81.5594 Y7.8762 
G00 Z2.5400 
G00 X-81.5594 Y10.4162 
G01 Z0.0000 F254.00 
G01 X-81.5594 Y11.1738 F508.00 
G01 X-81.0238 Y11.7094 
G01 X-80.2662 Y11.7094 
G01 X-79.7306 Y11.1738 
G01 X-79.7306 Y10.4162 
G01 X-80.2662 Y9.8806 
G01 X-81.0238 Y9.8806 
G01 X-81.5594 Y10.4162 
G00 Z2.5400 
G00 X-20.5994 Y56.1362 
G01 Z0.0000 F254.00 
G01 X-20.5994 Y56.8938 F508.00 
G01 X-20.0638 Y57.4294 
G01 X-19.3062 Y57.4294 
G01 X-18.7706 Y56.8938 
G01 X-18.7706 Y56.1362 
G01 X-19.3062 Y55.6006 
G01 X-20.0638 Y55.6006 
G01 X-20.5994 Y56.1362 
G00 Z2.5400 
G00 X-20.5994 Y53.5962 
G01 Z0.0000 F254.00 
G01 X-20.5994 Y54.3538 F508.00 
G01 X-20.0638 Y54.8894 
G01 X-19.3062 Y54.8894 
G01 X-18.7706 Y54.3538 
G01 X-18.7706 Y54.0305 
G01 X-18.2897 Y53.5496 
G01 X-13.1088 Y53.5496 
G01 X-12.9763 Y53.5232 
G01 X-12.8514 Y53.4715 
G01 X-12.7391 Y53.3965 
G01 X-12.6436 Y53.3010 
G01 X-12.5686 Y53.1886 
G01 X-12.5169 Y53.0638 
G01 X-12.4905 Y52.9313 
G01 X-12.4905 Y52.7963 
G01 X-12.5169 Y52.6638 
G01 X-12.5686 Y52.5389 
G01 X-12.6436 Y52.4266 
G01 X-12.7391 Y52.3311 
G01 X-12.8514 Y52.2561 
G01 X-12.9763 Y52.2044 
G01 X-13.1088 Y52.1780 
G01 X-18.6413 Y52.1780 
G01 X-18.7738 Y52.2044 
G01 X-18.8986 Y52.2561 
G01 X-19.0110 Y52.3311 
G01 X-19.7405 Y53.0606 
G01 X-20.0638 Y53.0606 
G01 X-20.5994 Y53.5962 
G00 Z2.5400 
G00 X-28.2194 Y53.5962 
G01 Z0.0000 F254.00 
G01 X-28.2194 Y54.3538 F508.00 
G01 X-27.6838 Y54.8894 
G01 X-26.9262 Y54.8894 
G01 X-26.3906 Y54.3538 
G01 X-26.3906 Y53.5962 
G01 X-26.9262 Y53.0606 
G01 X-27.6838 Y53.0606 
G01 X-28.2194 Y53.5962 
G00 Z2.5400 
G00 X-25.6794 Y53.5962 
G01 Z0.0000 F254.00 
G01 X-25.6794 Y54.3538 F508.00 
G01 X-25.1438 Y54.8894 
G01 X-24.3862 Y54.8894 
G01 X-23.8506 Y54.3538 
G01 X-23.8506 Y53.5962 
G01 X-24.3862 Y53.0606 
G01 X-25.1438 Y53.0606 
G01 X-25.6794 Y53.5962 
G00 Z2.5400 
G00 X-23.1394 Y53.5962 
G01 Z0.0000 F254.00 
G01 X-23.1394 Y54.3538 F508.00 
G01 X-22.6038 Y54.8894 
G01 X-21.8462 Y54.8894 
G01 X-21.3106 Y54.3538 
G01 X-21.3106 Y53.5962 
G01 X-21.8462 Y53.0606 
G01 X-22.6038 Y53.0606 
G01 X-23.1394 Y53.5962 
G00 Z2.5400 
G00 X-23.1394 Y56.1362 
G01 Z0.0000 F254.00 
G01 X-23.1394 Y56.8938 F508.00 
G01 X-22.6038 Y57.4294 
G01 X-21.8462 Y57.4294 
G01 X-21.3106 Y56.8938 
G01 X-21.3106 Y56.1362 
G01 X-21.8462 Y55.6006 
G01 X-22.6038 Y55.6006 
G01 X-23.1394 Y56.1362 
G00 Z2.5400 
G00 X-25.6794 Y56.1362 
G01 Z0.0000 F254.00 
G01 X-25.6794 Y56.8938 F508.00 
G01 X-25.1438 Y57.4294 
G01 X-24.3862 Y57.4294 
G01 X-23.8506 Y56.8938 
G01 X-23.8506 Y56.1362 
G01 X-24.3862 Y55.6006 
G01 X-25.1438 Y55.6006 
G01 X-25.6794 Y56.1362 
G00 Z2.5400 
G00 X-28.2194 Y56.1362 
G01 Z0.0000 F254.00 
G01 X-28.2194 Y56.8938 F508.00 
G01 X-27.6838 Y57.4294 
G01 X-26.9262 Y57.4294 
G01 X-26.3906 Y56.8938 
G01 X-26.3906 Y56.1362 
G01 X-26.9262 Y55.6006 
G01 X-27.6838 Y55.6006 
G01 X-28.2194 Y56.1362 
G00 Z2.5400 
G00 X-30.7594 Y56.1362 
G01 Z0.0000 F254.00 
G01 X-30.7594 Y56.8938 F508.00 
G01 X-30.2238 Y57.4294 
G01 X-29.4662 Y57.4294 
G01 X-28.9306 Y56.8938 
G01 X-28.9306 Y56.1362 
G01 X-29.4662 Y55.6006 
G01 X-30.2238 Y55.6006 
G01 X-30.7594 Y56.1362 
G00 Z2.5400 
G00 X-30.7594 Y53.5962 
G01 Z0.0000 F254.00 
G01 X-30.7594 Y54.3538 F508.00 
G01 X-30.2238 Y54.8894 
G01 X-29.4662 Y54.8894 
G01 X-28.9306 Y54.3538 
G01 X-28.9306 Y53.5962 
G01 X-29.4662 Y53.0606 
G01 X-30.2238 Y53.0606 
G01 X-30.7594 Y53.5962 
G00 Z2.5400 
G00 X-33.2994 Y53.5962 
G01 Z0.0000 F254.00 
G01 X-33.2994 Y54.3538 F508.00 
G01 X-32.7638 Y54.8894 
G01 X-32.0062 Y54.8894 
G01 X-31.4706 Y54.3538 
G01 X-31.4706 Y53.5962 
G01 X-32.0062 Y53.0606 
G01 X-32.7638 Y53.0606 
G01 X-33.2994 Y53.5962 
G00 Z2.5400 
G00 X-33.2994 Y56.1362 
G01 Z0.0000 F254.00 
G01 X-33.2994 Y56.8938 F508.00 
G01 X-32.7638 Y57.4294 
G01 X-32.0062 Y57.4294 
G01 X-31.4706 Y56.8938 
G01 X-31.4706 Y56.1362 
G01 X-32.0062 Y55.6006 
G01 X-32.7638 Y55.6006 
G01 X-33.2994 Y56.1362 
G00 Z2.5400 
G00 X-35.8394 Y53.5962 
