(Projekt rainbow-dash)
(Erstellt mit Estlcam Version 8 Build 8,066)
(Laufzeit ca. 00:01:39 Stunden)

(Benoetigte Werkzeuge:)
(Fraeser 3mm)

G90
M03 S24000
G00 Z5.0000


(Nr. 1: Teil 1)
G00 X22.0152 Y31.7572
G00 Z0.5000
G01 Z-1.0000 F600 S24000
G03 X23.7788 Y31.2445 I1.8984 J3.2403 F1200
G01 X24.2788 Y31.2339
G01 X24.8125 Y31.2554
G01 X25.3920 Y31.3064
G01 X26.0155 Y31.3858
G01 X27.3848 Y31.6262
G03 X32.2805 Y32.9455 I-9.9254 J46.5761
G03 X37.6261 Y34.9332 I-21.1930 J65.1749
G02 X36.1969 Y33.0026 I-6.7628 J3.5119
G01 X35.7677 Y32.5789
G01 X34.9209 Y31.7896
G01 X31.5378 Y28.7818
G01 X31.4900 Y28.7302
G01 X31.4293 Y28.6038
G03 X31.6610 Y28.1824 I0.3420 J-0.0864
G03 X33.5103 Y28.0461 I1.5515 J8.4364
G01 X34.0483 Y28.1262
G01 X34.6477 Y28.2798
G03 X36.6750 Y29.1034 I-4.3134 J13.5243
G03 X42.9681 Y33.2690 I-15.6078 J30.4160
G03 X45.8009 Y35.8945 I-19.7532 J24.1536
G01 X46.4050 Y36.5612
G01 X47.7865 Y38.2415
G01 X48.0930 Y38.5744
G01 X48.3239 Y38.7883
G01 X48.4263 Y38.8634
G01 X48.4711 Y38.8878
G01 X48.5124 Y38.8133
G01 X48.6886 Y38.2504
G01 X48.8083 Y37.9788
G01 X48.9246 Y37.8196
G01 X49.0611 Y37.7084
G03 X49.4899 Y37.6361 I0.3050 J0.5012
G03 X49.9480 Y37.8845 I-0.2458 J1.0002
G03 X50.8116 Y38.9000 I-4.4335 J4.6450
G01 X51.4945 Y39.8967
G01 X52.5541 Y41.5271
G01 X53.0674 Y42.2885
G01 X54.1059 Y43.7479
G02 X56.2323 Y46.4163 I36.0921 J-26.5807
G02 X61.2818 Y51.2295 I25.5862 J-21.7865
G02 X66.3046 Y54.1898 I13.1534 J-16.5765
G02 X68.7064 Y54.8234 I3.7083 J-9.1877
G02 X70.9005 Y54.7705 I0.9282 J-7.0188
G02 X73.7130 Y53.5289 I-1.0682 J-6.2264
G02 X75.1905 Y52.1476 I-5.7327 J-7.6125
G01 X75.4986 Y51.7572
G01 X75.7276 Y51.4035
G01 X75.8647 Y51.1101
G01 X75.9042 Y50.9157
G01 X75.7479 Y50.5171
G01 X75.5020 Y50.0350
G01 X75.0842 Y49.3139
G01 X74.4691 Y48.3533
G01 X74.1302 Y47.7889
G01 X73.7924 Y47.1854
G01 X73.3661 Y46.3634
G01 X73.0814 Y45.7667
G01 X72.8414 Y45.2144
G01 X72.2368 Y43.6525
G01 X72.0504 Y43.2591
G01 X71.8945 Y43.0083
G01 X71.8262 Y42.9306
G01 X71.7540 Y42.8833
G01 X71.6835 Y42.8962
G01 X71.5360 Y42.9753
G01 X71.2814 Y43.1721
G01 X70.6208 Y43.7705
G01 X70.2826 Y44.0448
G01 X69.9608 Y44.2744
G03 X68.9998 Y44.7571 I-2.1891 J-3.1602
G03 X67.1670 Y44.5663 I-0.7235 J-1.9482
G03 X66.2308 Y43.5763 I1.7471 J-2.5898
G01 X66.0491 Y43.2665
G01 X65.8577 Y42.8836
G01 X65.6837 Y42.4750
G01 X65.3991 Y41.7131
G01 X65.2375 Y41.3578
G02 X64.3212 Y39.8127 I-11.3129 J5.6645
G02 X62.1025 Y37.1169 I-16.4042 J11.2403
G01 X61.4510 Y36.4995
G01 X61.1406 Y36.2362
G01 X60.5691 Y35.8181
G01 X60.3009 Y35.6619
G01 X59.9110 Y35.5001
G01 X59.1097 Y35.2589
G01 X58.3265 Y35.0679
G01 X57.3820 Y34.8830
G01 X57.0686 Y34.7966
G03 X56.2319 Y34.3713 I0.8516 J-2.7115
G03 X55.1303 Y33.1544 I3.2808 J-4.0771
G01 X54.6214 Y32.3976
G01 X54.3043 Y31.8868
G01 X54.0410 Y31.3962
G01 X53.8250 Y30.8909
G03 X53.3812 Y28.9679 I9.5154 J-3.2085
G01 X53.2065 Y27.5546
G01 X53.0131 Y25.6608
G03 X52.9219 Y20.9085 I25.3813 J-2.8642
G03 X53.7066 Y17.3388 I11.3605 J0.6263
G03 X55.4139 Y14.9708 I5.2249 J1.9676
G03 X56.6985 Y14.2542 I2.8130 J3.5330
G03 X57.8060 Y14.0950 I0.9251 J2.5047
G03 X59.0541 Y14.4111 I-0.3686 J4.0782
G03 X60.7059 Y15.2500 I-5.1013 J12.0904
G03 X65.6835 Y18.5067 I-41.7735 J69.2787
G03 X69.5150 Y21.6812 I-22.4395 J30.9835
G03 X72.1646 Y24.5258 I-19.5898 J20.9027
G01 X72.8775 Y25.4612
G01 X73.1975 Y25.9224
G01 X73.4918 Y26.3781
G01 X74.4063 Y27.9167
G01 X74.6665 Y28.3047
G01 X74.9836 Y28.6971
G01 X75.1704 Y28.8631
G01 X75.3100 Y28.9419
G01 X75.5038 Y28.9788
G01 X75.6663 Y28.9617
G01 X76.1144 Y28.8613
G01 X76.3369 Y28.8503
G01 X76.8474 Y28.8847
G01 X77.4719 Y28.9863
G01 X78.5412 Y29.2408
G03 X81.1794 Y30.1597 I-5.3407 J19.5799
G01 X81.8420 Y30.4691
G01 X82.1409 Y30.6273
G01 X82.8950 Y31.0742
G01 X83.2725 Y31.2493
G01 X83.6089 Y31.3250
G01 X83.8995 Y31.3348
G01 X84.2729 Y31.3053
G01 X84.7457 Y31.2352
G01 X86.8465 Y30.8151
G01 X87.8782 Y30.6406
G01 X89.0038 Y30.4975
G01 X90.6588 Y30.3543
G01 X92.0216 Y30.2819
G01 X94.0096 Y30.2309
G01 X100.3637 Y30.2246
G03 X102.8337 Y28.5953 I12.6719 J16.5237
G03 X104.6573 Y28.0818 I2.0774 J3.8825
G03 X106.6362 Y28.2438 I0.2951 J8.5620
G01 X107.1147 Y28.3378
G01 X108.1867 Y28.5861
G01 X110.5925 Y29.2314
G01 X111.4664 Y29.4422
G02 X113.2556 Y29.7023 I1.9292 J-6.9857
G01 X113.3229 Y29.5698
G01 X113.3786 Y29.2685
G01 X113.4017 Y28.9426
G01 X113.4081 Y28.5173
G01 X113.3701 Y27.3502
G01 X113.2108 Y24.7491
G01 X113.1794 Y24.0098
G03 X113.2380 Y22.6236 I7.3686 J-0.3831
G03 X113.7885 Y21.0891 I4.6279 J0.7944
G03 X115.1282 Y18.9745 I13.2220 J6.8955
G03 X120.0701 Y15.0902 I10.4843 J8.2528
G03 X122.6723 Y14.3722 I3.4811 J7.5412
G03 X124.8691 Y14.7518 I0.4687 J3.8342
G01 X125.3110 Y15.0539
G01 X125.6657 Y15.4205
G01 X125.8935 Y15.7355
G01 X126.1339 Y16.1483
G01 X126.3711 Y16.6768
G01 X126.4968 Y17.0831
G01 X126.5438 Y17.3713
G01 X126.5780 Y17.9175
G01 X126.6271 Y18.1424
G01 X126.7093 Y18.3361
G01 X126.8628 Y18.5260
G02 X127.4220 Y18.8194 I1.0227 J-1.2697
G01 X127.9739 Y18.9657
G01 X128.5920 Y19.0819
G01 X129.0333 Y19.1868
G01 X129.4704 Y19.3231
G01 X130.0224 Y19.5427
G03 X131.2460 Y20.4674 I-0.9402 J2.5160
G03 X131.7347 Y21.7680 I-2.5270 J1.6916
G03 X131.7343 Y23.3580 I-5.8890 J0.7935
G03 X130.2080 Y27.7092 I-12.8952 J-2.0801
G03 X126.7858 Y32.2081 I-16.9127 J-9.3139
G03 X123.2086 Y35.1455 I-14.2995 J-13.7672
G01 X122.3261 Y35.6942
G01 X121.3357 Y36.2677
G01 X120.2140 Y36.8829
G01 X118.3806 Y37.8512
G01 X117.3588 Y38.4201
G02 X115.6840 Y39.5094 I5.5280 J10.3313
G01 X115.8366 Y39.8887
G01 X116.0683 Y40.3802
G01 X117.1394 Y42.4166
G01 X117.9521 Y44.1555
G01 X118.8321 Y46.1943
G01 X120.3490 Y49.9460
G01 X120.7397 Y50.8576
G01 X121.0745 Y51.5784
G02 X121.2682 Y51.6167 I0.1124 J-0.0594
G01 X121.9370 Y51.5591
G01 X122.8462 Y51.4201
G01 X124.2733 Y51.1390
G01 X124.8845 Y51.0382
G03 X127.4107 Y50.8052 I3.4004 J23.0567
G03 X131.7826 Y51.0252 I0.9864 J23.9517
G03 X135.4048 Y52.0103 I-1.6607 J13.2586
G03 X138.3709 Y53.9496 I-5.5199 J11.6802
G03 X140.3109 Y56.0735 I-7.0361 J8.3748
G03 X141.0448 Y57.7657 I-3.1431 J2.3685
G03 X140.7207 Y59.3602 I-2.0402 J0.4154
G03 X139.9673 Y60.1244 I-2.8741 J-2.0799
G01 X139.5584 Y60.4161
G01 X138.7358 Y60.9237
G01 X138.6757 Y61.0318
G01 X138.6473 Y61.2062
G02 X138.7807 Y62.6231 I7.5141 J0.0071
G01 X139.1415 Y64.6554
G01 X139.4644 Y66.2649
G01 X139.6601 Y67.0608
G01 X139.8471 Y67.6392
G01 X139.9467 Y67.8677
G01 X140.0350 Y68.0236
G01 X140.1126 Y68.1245
G01 X140.2292 Y68.2095
G02 X140.7453 Y68.0499 I0.0522 J-0.7453
G01 X140.9472 Y67.9205
G01 X141.6151 Y67.4328
G01 X141.8898 Y67.2635
G01 X142.6191 Y66.8572
G01 X144.0562 Y66.1226
G03 X149.0756 Y63.8656 I27.9786 J55.5100
G01 X149.6475 Y63.6816
G01 X149.8322 Y63.6536
G01 X150.0097 Y63.6634
G01 X150.2172 Y63.7119
G03 X150.7536 Y64.4277 I-0.2839 J0.7716
G03 X150.6764 Y65.2235 I-2.2185 J0.1862
G01 X150.5278 Y65.6992
G01 X150.3112 Y66.2353
G01 X149.8597 Y67.1593
G01 X149.2076 Y68.3310
G01 X148.6489 Y69.3772
G01 X147.7879 Y71.1014
G02 X145.7264 Y75.8277 I51.2780 J25.1782
G01 X146.6195 Y74.5027
G01 X147.1451 Y73.8328
G01 X147.4315 Y73.5251
G01 X147.6861 Y73.3035
G03 X148.0760 Y73.1351 I0.4763 J0.5673
G03 X148.4579 Y73.2948 I0.0372 J0.4474
G01 X148.5252 Y73.3759
G01 X148.5939 Y73.4975
G01 X148.6740 Y73.7111
G03 X148.8435 Y75.4756 I-7.6514 J1.6251
G03 X148.7002 Y77.7690 I-19.2634 J-0.0520
G03 X148.2673 Y79.8430 I-9.7120 J-0.9451
G03 X147.3276 Y81.8974 I-14.6297 J-5.4493
G01 X146.8878 Y82.6704
G01 X146.1530 Y83.8263
G01 X145.7681 Y84.4936
G01 X146.6788 Y83.8610
G01 X148.4498 Y82.5006
G01 X149.4934 Y81.7499
G01 X149.8938 Y81.5016
G01 X150.2251 Y81.3342
G01 X150.4124 Y81.2644
G01 X150.5621 Y81.2266
G01 X150.7106 Y81.2094
G03 X151.2698 Y81.4177 I0.0410 J0.7444
G01 X151.3451 Y81.5001
G01 X151.4609 Y81.6760
G01 X151.5642 Y81.9706
G01 X151.5836 Y82.0742
G01 X151.5826 Y82.4630
G01 X151.4798 Y82.9408
G03 X150.7184 Y84.5250 I-7.2311 J-2.5001
G03 X147.0698 Y88.9066 I-20.7377 J-13.5586
G03 X144.4358 Y91.1465 I-17.5412 J-17.9592
G03 X142.4904 Y92.3502 I-7.7750 J-10.3921
G03 X137.1902 Y94.1601 I-10.0413 J-20.7399
G03 X131.3835 Y94.7405 I-5.5940 J-26.6284
G03 X124.4810 Y93.8375 I0.1796 J-28.2051
G03 X119.5603 Y92.2494 I18.2635 J-65.0097
G03 X115.6227 Y90.5978 I14.3001 J-39.6120
G01 X114.7155 Y91.4729
G01 X114.2394 Y91.8601
G03 X113.0261 Y92.4371 I-1.7729 J-2.1634
G03 X111.4991 Y92.0889 I-0.0649 J-3.2374
G03 X110.0144 Y91.1062 I3.0446 J-6.2131
G03 X106.7989 Y87.1595 I10.7947 J-12.0780
G03 X105.4432 Y84.5349 I21.2583 J-12.6432
G03 X104.8230 Y82.7066 I8.5882 J-3.9324
G03 X104.5140 Y79.7722 I15.8944 J-3.1576
G03 X104.5231 Y76.3987 I28.1821 J-1.6106
G01 X104.6024 Y75.5672
G01 X104.6762 Y75.0429
G01 X104.7671 Y74.5385
G01 X104.9362 Y73.8115
G01 X105.3409 Y72.2983
G01 X105.4905 Y71.5796
G01 X104.6997 Y71.0142
G01 X103.2978 Y70.0501
G01 X100.8029 Y68.3817
G01 X100.6642 Y70.5644
G01 X100.4376 Y75.4900
G01 X100.3154 Y77.2011
G03 X99.5618 Y82.1391 I-31.7261 J-2.3149
G03 X97.8643 Y86.7372 I-20.7201 J-5.0371
G01 X97.3049 Y87.8015
G01 X96.7820 Y88.6841
G03 X95.7117 Y90.0017 I-5.5318 J-3.3998
G03 X93.5816 Y91.0053 I-2.7318 J-3.0358
G01 X93.1665 Y91.0622
G01 X92.7039 Y91.0968
G01 X92.2079 Y91.1089
G03 X89.6813 Y90.9451 I0.1006 J-21.1188
G03 X89.2394 Y90.6459 I0.3171 J-0.9443
G01 X89.0749 Y90.4404
G01 X88.8154 Y90.0103
G03 X87.7232 Y87.2994 I18.7394 J-9.1261
G01 X87.0716 Y87.8803
G01 X86.6617 Y88.2199
G01 X86.0509 Y88.6417
G03 X84.2608 Y89.2908 I-2.5485 J-4.2354
G03 X81.2471 Y89.3214 I-1.6202 J-11.1421
G03 X79.3300 Y88.5706 I0.4053 J-3.8579
G03 X78.3748 Y86.9470 I1.7886 J-2.1450
G01 X78.3366 Y86.6671
G01 X78.3314 Y86.3765
G01 X78.3472 Y86.0689
G01 X78.3849 Y85.7054
G01 X78.5186 Y84.8671
G03 X79.7134 Y80.3689 I38.8955 J7.9230
G01 X80.3788 Y78.4059
G01 X81.6212 Y75.0953
G01 X81.9103 Y74.1923
G01 X82.0475 Y73.6336
G01 X81.7130 Y73.5676
G01 X81.1974 Y73.5107
G01 X80.5755 Y73.4756
G01 X79.5185 Y73.4533
G01 X78.6605 Y73.3754
G01 X78.2044 Y73.3004
G01 X77.8095 Y73.2060
G01 X77.4937 Y73.0926
G01 X77.2861 Y72.9734
G01 X77.1308 Y72.8121
G01 X77.0373 Y72.6476
G01 X76.9505 Y72.4278
G01 X76.8215 Y71.9230
G03 X76.6659 Y69.7094 I9.8960 J-1.8081
G03 X77.1305 Y67.3174 I8.5178 J0.4134
G03 X78.1839 Y64.9714 I15.3285 J5.4731
G03 X79.9951 Y61.9490 I40.3140 J22.1051
G01 X80.9668 Y60.4725
G01 X83.7483 Y56.3702
G03 X82.6556 Y55.4431 I3.3430 J-5.0474
G01 X82.3580 Y55.0929
G01 X82.1531 Y54.8185
G01 X81.9726 Y54.5434
G01 X81.7171 Y54.0920
G01 X81.4730 Y53.8013
G02 X80.8904 Y53.4313 I-0.9808 J0.9007
G01 X80.6949 Y53.4054
G01 X80.6073 Y53.4120
G01 X80.5372 Y53.5647
G01 X80.4755 Y53.8378
G01 X80.3962 Y54.4928
G01 X80.2280 Y57.1363
G01 X80.1267 Y58.2105
G03 X79.7513 Y60.1087 I-12.0362 J-1.3937
G03 X78.8408 Y62.6069 I-21.8189 J-6.5381
G01 X78.0682 Y64.3868
G01 X77.5308 Y65.5174
G03 X75.1367 Y69.0029 I-12.9804 J-6.3509
G03 X70.9800 Y72.6924 I-17.1603 J-15.1469
G03 X66.5417 Y74.8268 I-9.5297 J-14.1343
G03 X61.4784 Y75.6735 I-5.7819 J-19.0137
G03 X55.5929 Y75.2225 I-1.1080 J-24.1689
G03 X50.8402 Y73.4477 I2.9855 J-15.2460
G03 X49.1336 Y72.2509 I7.6136 J-12.6719
G03 X47.1174 Y70.4756 I16.0199 J-20.2248
G01 X46.4360 Y69.7679
G01 X45.9159 Y69.1422
G03 X45.4973 Y68.2669 I1.1896 J-1.1066
G03 X45.6723 Y67.6926 I0.7188 J-0.0947
G03 X46.2236 Y67.5188 I0.4715 J0.5342
G01 X46.5632 Y67.5580
G01 X47.2247 Y67.7056
G01 X50.4434 Y68.6002
G01 X47.8298 Y65.8423
G01 X42.8094 Y60.6465
G01 X40.0048 Y57.6843
G01 X36.9255 Y54.3610
G01 X33.6885 Y50.7576
G01 X32.3287 Y49.3179
G01 X31.0049 Y47.9798
G01 X30.0988 Y47.1066
G01 X29.3176 Y46.3959
G01 X27.7741 Y45.0990
G01 X27.0387 Y44.4236
G01 X26.6272 Y43.9967
G01 X26.4228 Y43.7231
G03 X26.5925 Y42.9974 I0.4918 J-0.2677
G03 X27.4319 Y42.7923 I0.7592 J1.2871
G03 X29.1958 Y43.0417 I-0.3153 J8.5937
G01 X30.1805 Y43.2958
G01 X31.6123 Y43.7206
G01 X32.4406 Y43.9173
G01 X32.0886 Y43.5479
G02 X27.7969 Y40.1539 I-20.8853 J21.9987
G02 X24.1379 Y38.3468 I-9.4978 J14.6235
G02 X20.7080 Y37.5955 I-4.8323 J13.8550
G02 X18.6390 Y37.5294 I-1.5557 J16.2871
G01 X18.0967 Y37.5536
G01 X16.2198 Y37.6999
G01 X15.3587 Y37.7316
G01 X15.0773 Y37.7137
G01 X14.8405 Y37.6588
G01 X14.6925 Y37.5794
G01 X14.6012 Y37.4865
G03 X14.5727 Y36.9557 I0.3849 J-0.2868
G03 X15.1709 Y36.2726 I2.1963 J1.3198
G03 X17.4748 Y34.9487 I5.8205 J7.4627
G03 X20.4674 Y34.0085 I6.5303 J15.5524
G01 X21.3402 Y33.8504
G01 X21.7681 Y33.7946
G01 X23.3175 Y33.6483
G01 X23.9246 Y33.5543
G01 X22.9915 Y33.3680
G01 X22.5471 Y33.2528
G03 X21.8869 Y32.9236 I0.5476 J-1.9249
G03 X21.6195 Y32.2979 I0.4054 J-0.5432
G03 X22.0152 Y31.7572 I0.8379 J0.1981
G01 Z-2.0000 F600
G03 X23.7788 Y31.2445 I1.8984 J3.2403 F1200
G01 X24.2788 Y31.2339
G01 X24.8125 Y31.2554
G01 X25.3920 Y31.3064
G01 X26.0155 Y31.3858
G01 X27.3848 Y31.6262
G03 X32.2805 Y32.9455 I-9.9254 J46.5761
G03 X37.6261 Y34.9332 I-21.1930 J65.1749
G02 X36.1969 Y33.0026 I-6.7628 J3.5119
G01 X35.7677 Y32.5789
G01 X34.9209 Y31.7896
G01 X31.5378 Y28.7818
G01 X31.4900 Y28.7302
G01 X31.4293 Y28.6038
G03 X31.6610 Y28.1824 I0.3420 J-0.0864
G03 X33.5103 Y28.0461 I1.5515 J8.4364
G01 X34.0483 Y28.1262
G01 X34.6477 Y28.2798
G03 X36.6750 Y29.1034 I-4.3134 J13.5243
G03 X42.9681 Y33.2690 I-15.6078 J30.4160
G03 X45.8009 Y35.8945 I-19.7532 J24.1536
G01 X46.4050 Y36.5612
G01 X47.7865 Y38.2415
G01 X48.0930 Y38.5744
G01 X48.3239 Y38.7883
G01 X48.4263 Y38.8634
G01 X48.4711 Y38.8878
G01 X48.5124 Y38.8133
G01 X48.6886 Y38.2504
G01 X48.8083 Y37.9788
G01 X48.9246 Y37.8196
G01 X49.0611 Y37.7084
G03 X49.4899 Y37.6361 I0.3050 J0.5012
G03 X49.9480 Y37.8845 I-0.2458 J1.0002
G03 X50.8116 Y38.9000 I-4.4335 J4.6450
G01 X51.4945 Y39.8967
G01 X52.5541 Y41.5271
G01 X53.0674 Y42.2885
G01 X54.1059 Y43.7479
G02 X56.2323 Y46.4163 I36.0921 J-26.5807
G02 X61.2818 Y51.2295 I25.5862 J-21.7865
G02 X66.3046 Y54.1898 I13.1534 J-16.5765
G02 X68.7064 Y54.8234 I3.7083 J-9.1877
G02 X70.9005 Y54.7705 I0.9282 J-7.0188
G02 X73.7130 Y53.5289 I-1.0682 J-6.2264
G02 X75.1905 Y52.1476 I-5.7327 J-7.6125
G01 X75.4986 Y51.7572
G01 X75.7276 Y51.4035
G01 X75.8647 Y51.1101
G01 X75.9042 Y50.9157
G01 X75.7479 Y50.5171
G01 X75.5020 Y50.0350
G01 X75.0842 Y49.3139
G01 X74.4691 Y48.3533
G01 X74.1302 Y47.7889
G01 X73.7924 Y47.1854
G01 X73.3661 Y46.3634
G01 X73.0814 Y45.7667
G01 X72.8414 Y45.2144
G01 X72.2368 Y43.6525
G01 X72.0504 Y43.2591
G01 X71.8945 Y43.0083
G01 X71.8262 Y42.9306
G01 X71.7540 Y42.8833
G01 X71.6835 Y42.8962
G01 X71.5360 Y42.9753
G01 X71.2814 Y43.1721
G01 X70.6208 Y43.7705
G01 X70.2826 Y44.0448
G01 X69.9608 Y44.2744
G03 X68.9998 Y44.7571 I-2.1891 J-3.1602
G03 X67.1670 Y44.5663 I-0.7235 J-1.9482
G03 X66.2308 Y43.5763 I1.7471 J-2.5898
G01 X66.0491 Y43.2665
G01 X65.8577 Y42.8836
G01 X65.6837 Y42.4750
G01 X65.3991 Y41.7131
G01 X65.2375 Y41.3578
G02 X64.3212 Y39.8127 I-11.3129 J5.6645
G02 X62.1025 Y37.1169 I-16.4042 J11.2403
G01 X61.4510 Y36.4995
G01 X61.1406 Y36.2362
G01 X60.5691 Y35.8181
G01 X60.3009 Y35.6619
G01 X59.9110 Y35.5001
G01 X59.1097 Y35.2589
G01 X58.3265 Y35.0679
G01 X57.3820 Y34.8830
G01 X57.0686 Y34.7966
G03 X56.2319 Y34.3713 I0.8516 J-2.7115
G03 X55.1303 Y33.1544 I3.2808 J-4.0771
G01 X54.6214 Y32.3976
G01 X54.3043 Y31.8868
G01 X54.0410 Y31.3962
G01 X53.8250 Y30.8909
G03 X53.3812 Y28.9679 I9.5154 J-3.2085
G01 X53.2065 Y27.5546
G01 X53.0131 Y25.6608
G03 X52.9219 Y20.9085 I25.3813 J-2.8642
G03 X53.7066 Y17.3388 I11.3605 J0.6263
G03 X55.4139 Y14.9708 I5.2249 J1.9676
G03 X56.6985 Y14.2542 I2.8130 J3.5330
G03 X57.8060 Y14.0950 I0.9251 J2.5047
G03 X59.0541 Y14.4111 I-0.3686 J4.0782
G03 X60.7059 Y15.2500 I-5.1013 J12.0904
G03 X65.6835 Y18.5067 I-41.7735 J69.2787
G03 X69.5150 Y21.6812 I-22.4395 J30.9835
G03 X72.1646 Y24.5258 I-19.5898 J20.9027
G01 X72.8775 Y25.4612
G01 X73.1975 Y25.9224
G01 X73.4918 Y26.3781
G01 X74.4063 Y27.9167
G01 X74.6665 Y28.3047
G01 X74.9836 Y28.6971
G01 X75.1704 Y28.8631
G01 X75.3100 Y28.9419
G01 X75.5038 Y28.9788
G01 X75.6663 Y28.9617
G01 X76.1144 Y28.8613
G01 X76.3369 Y28.8503
G01 X76.8474 Y28.8847
G01 X77.4719 Y28.9863
G01 X78.5412 Y29.2408
G03 X81.1794 Y30.1597 I-5.3407 J19.5799
G01 X81.8420 Y30.4691
G01 X82.1409 Y30.6273
G01 X82.8950 Y31.0742
G01 X83.2725 Y31.2493
G01 X83.6089 Y31.3250
G01 X83.8995 Y31.3348
G01 X84.2729 Y31.3053
G01 X84.7457 Y31.2352
G01 X86.8465 Y30.8151
G01 X87.8782 Y30.6406
G01 X89.0038 Y30.4975
G01 X90.6588 Y30.3543
G01 X92.0216 Y30.2819
G01 X94.0096 Y30.2309
G01 X100.3637 Y30.2246
G03 X102.8337 Y28.5953 I12.6719 J16.5237
G03 X104.6573 Y28.0818 I2.0774 J3.8825
G03 X106.6362 Y28.2438 I0.2951 J8.5620
G01 X107.1147 Y28.3378
G01 X108.1867 Y28.5861
G01 X110.5925 Y29.2314
G01 X111.4664 Y29.4422
G02 X113.2556 Y29.7023 I1.9292 J-6.9857
G01 X113.3229 Y29.5698
G01 X113.3786 Y29.2685
G01 X113.4017 Y28.9426
G01 X113.4081 Y28.5173
G01 X113.3701 Y27.3502
G01 X113.2108 Y24.7491
G01 X113.1794 Y24.0098
G03 X113.2380 Y22.6236 I7.3686 J-0.3831
G03 X113.7885 Y21.0891 I4.6279 J0.7944
G03 X115.1282 Y18.9745 I13.2220 J6.8955
G03 X120.0701 Y15.0902 I10.4843 J8.2528
G03 X122.6723 Y14.3722 I3.4811 J7.5412
G03 X124.8691 Y14.7518 I0.4687 J3.8342
G01 X125.3110 Y15.0539
G01 X125.6657 Y15.4205
G01 X125.8935 Y15.7355
G01 X126.1339 Y16.1483
G01 X126.3711 Y16.6768
G01 X126.4968 Y17.0831
G01 X126.5438 Y17.3713
G01 X126.5780 Y17.9175
G01 X126.6271 Y18.1424
G01 X126.7093 Y18.3361
G01 X126.8628 Y18.5260
G02 X127.4220 Y18.8194 I1.0227 J-1.2697
G01 X127.9739 Y18.9657
G01 X128.5920 Y19.0819
G01 X129.0333 Y19.1868
G01 X129.4704 Y19.3231
G01 X130.0224 Y19.5427
G03 X131.2460 Y20.4674 I-0.9402 J2.5160
G03 X131.7347 Y21.7680 I-2.5270 J1.6916
G03 X131.7343 Y23.3580 I-5.8890 J0.7935
G03 X130.2080 Y27.7092 I-12.8952 J-2.0801
G03 X126.7858 Y32.2081 I-16.9127 J-9.3139
G03 X123.2086 Y35.1455 I-14.2995 J-13.7672
G01 X122.3261 Y35.6942
G01 X121.3357 Y36.2677
G01 X120.2140 Y36.8829
G01 X118.3806 Y37.8512
G01 X117.3588 Y38.4201
G02 X115.6840 Y39.5094 I5.5280 J10.3313
G01 X115.8366 Y39.8887
G01 X116.0683 Y40.3802
G01 X117.1394 Y42.4166
G01 X117.9521 Y44.1555
G01 X118.8321 Y46.1943
G01 X120.3490 Y49.9460
G01 X120.7397 Y50.8576
G01 X121.0745 Y51.5784
G02 X121.2682 Y51.6167 I0.1124 J-0.0594
G01 X121.9370 Y51.5591
G01 X122.8462 Y51.4201
G01 X124.2733 Y51.1390
G01 X124.8845 Y51.0382
G03 X127.4107 Y50.8052 I3.4004 J23.0567
G03 X131.7826 Y51.0252 I0.9864 J23.9517
G03 X135.4048 Y52.0103 I-1.6607 J13.2586
G03 X138.3709 Y53.9496 I-5.5199 J11.6802
G03 X140.3109 Y56.0735 I-7.0361 J8.3748
G03 X141.0448 Y57.7657 I-3.1431 J2.3685
G03 X140.7207 Y59.3602 I-2.0402 J0.4154
G03 X139.9673 Y60.1244 I-2.8741 J-2.0799
G01 X139.5584 Y60.4161
G01 X138.7358 Y60.9237
G01 X138.6757 Y61.0318
G01 X138.6473 Y61.2062
G02 X138.7807 Y62.6231 I7.5141 J0.0071
G01 X139.1415 Y64.6554
G01 X139.4644 Y66.2649
G01 X139.6601 Y67.0608
G01 X139.8471 Y67.6392
G01 X139.9467 Y67.8677
G01 X140.0350 Y68.0236
G01 X140.1126 Y68.1245
G01 X140.2292 Y68.2095
G02 X140.7453 Y68.0499 I0.0522 J-0.7453
G01 X140.9472 Y67.9205
G01 X141.6151 Y67.4328
G01 X141.8898 Y67.2635
G01 X142.6191 Y66.8572
G01 X144.0562 Y66.1226
G03 X149.0756 Y63.8656 I27.9786 J55.5100
G01 X149.6475 Y63.6816
G01 X149.8322 Y63.6536
G01 X150.0097 Y63.6634
G01 X150.2172 Y63.7119
G03 X150.7536 Y64.4277 I-0.2839 J0.7716
G03 X150.6764 Y65.2235 I-2.2185 J0.1862
G01 X150.5278 Y65.6992
G01 X150.3112 Y66.2353
G01 X149.8597 Y67.1593
G01 X149.2076 Y68.3310
G01 X148.6489 Y69.3772
G01 X147.7879 Y71.1014
G02 X145.7264 Y75.8277 I51.2780 J25.1782
G01 X146.6195 Y74.5027
G01 X147.1451 Y73.8328
G01 X147.4315 Y73.5251
G01 X147.6861 Y73.3035
G03 X148.0760 Y73.1351 I0.4763 J0.5673
G03 X148.4579 Y73.2948 I0.0372 J0.4474
G01 X148.5252 Y73.3759
G01 X148.5939 Y73.4975
G01 X148.6740 Y73.7111
G03 X148.8435 Y75.4756 I-7.6514 J1.6251
G03 X148.7002 Y77.7690 I-19.2634 J-0.0520
G03 X148.2673 Y79.8430 I-9.7120 J-0.9451
G03 X147.3276 Y81.8974 I-14.6297 J-5.4493
G01 X146.8878 Y82.6704
G01 X146.1530 Y83.8263
G01 X145.7681 Y84.4936
G01 X146.6788 Y83.8610
G01 X148.4498 Y82.5006
G01 X149.4934 Y81.7499
G01 X149.8938 Y81.5016
G01 X150.2251 Y81.3342
G01 X150.4124 Y81.2644
G01 X150.5621 Y81.2266
G01 X150.7106 Y81.2094
G03 X151.2698 Y81.4177 I0.0410 J0.7444
G01 X151.3451 Y81.5001
G01 X151.4609 Y81.6760
G01 X151.5642 Y81.9706
G01 X151.5836 Y82.0742
G01 X151.5826 Y82.4630
G01 X151.4798 Y82.9408
G03 X150.7184 Y84.5250 I-7.2311 J-2.5001
G03 X147.0698 Y88.9066 I-20.7377 J-13.5586
G03 X144.4358 Y91.1465 I-17.5412 J-17.9592
G03 X142.4904 Y92.3502 I-7.7750 J-10.3921
G03 X137.1902 Y94.1601 I-10.0413 J-20.7399
G03 X131.3835 Y94.7405 I-5.5940 J-26.6284
G03 X124.4810 Y93.8375 I0.1796 J-28.2051
G03 X119.5603 Y92.2494 I18.2635 J-65.0097
G03 X115.6227 Y90.5978 I14.3001 J-39.6120
G01 X114.7155 Y91.4729
G01 X114.2394 Y91.8601
G03 X113.0261 Y92.4371 I-1.7729 J-2.1634
G03 X111.4991 Y92.0889 I-0.0649 J-3.2374
G03 X110.0144 Y91.1062 I3.0446 J-6.2131
G03 X106.7989 Y87.1595 I10.7947 J-12.0780
G03 X105.4432 Y84.5349 I21.2583 J-12.6432
G03 X104.8230 Y82.7066 I8.5882 J-3.9324
G03 X104.5140 Y79.7722 I15.8944 J-3.1576
G03 X104.5231 Y76.3987 I28.1821 J-1.6106
G01 X104.6024 Y75.5672
G01 X104.6762 Y75.0429
G01 X104.7671 Y74.5385
G01 X104.9362 Y73.8115
G01 X105.3409 Y72.2983
G01 X105.4905 Y71.5796
G01 X104.6997 Y71.0142
G01 X103.2978 Y70.0501
G01 X100.8029 Y68.3817
G01 X100.6642 Y70.5644
G01 X100.4376 Y75.4900
G01 X100.3154 Y77.2011
G03 X99.5618 Y82.1391 I-31.7261 J-2.3149
G03 X97.8643 Y86.7372 I-20.7201 J-5.0371
G01 X97.3049 Y87.8015
G01 X96.7820 Y88.6841
G03 X95.7117 Y90.0017 I-5.5318 J-3.3998
G03 X93.5816 Y91.0053 I-2.7318 J-3.0358
G01 X93.1665 Y91.0622
G01 X92.7039 Y91.0968
G01 X92.2079 Y91.1089
G03 X89.6813 Y90.9451 I0.1006 J-21.1188
G03 X89.2394 Y90.6459 I0.3171 J-0.9443
G01 X89.0749 Y90.4404
G01 X88.8154 Y90.0103
G03 X87.7232 Y87.2994 I18.7394 J-9.1261
G01 X87.0716 Y87.8803
G01 X86.6617 Y88.2199
G01 X86.0509 Y88.6417
G03 X84.2608 Y89.2908 I-2.5485 J-4.2354
G03 X81.2471 Y89.3214 I-1.6202 J-11.1421
G03 X79.3300 Y88.5706 I0.4053 J-3.8579
G03 X78.3748 Y86.9470 I1.7886 J-2.1450
G01 X78.3366 Y86.6671
G01 X78.3314 Y86.3765
G01 X78.3472 Y86.0689
G01 X78.3849 Y85.7054
G01 X78.5186 Y84.8671
G03 X79.7134 Y80.3689 I38.8955 J7.9230
G01 X80.3788 Y78.4059
G01 X81.6212 Y75.0953
G01 X81.9103 Y74.1923
G01 X82.0475 Y73.6336
G01 X81.7130 Y73.5676
G01 X81.1974 Y73.5107
G01 X80.5755 Y73.4756
G01 X79.5185 Y73.4533
G01 X78.6605 Y73.3754
G01 X78.2044 Y73.3004
G01 X77.8095 Y73.2060
G01 X77.4937 Y73.0926
G01 X77.2861 Y72.9734
G01 X77.1308 Y72.8121
G01 X77.0373 Y72.6476
G01 X76.9505 Y72.4278
G01 X76.8215 Y71.9230
G03 X76.6659 Y69.7094 I9.8960 J-1.8081
G03 X77.1305 Y67.3174 I8.5178 J0.4134
G03 X78.1839 Y64.9714 I15.3285 J5.4731
G03 X79.9951 Y61.9490 I40.3140 J22.1051
G01 X80.9668 Y60.4725
G01 X83.7483 Y56.3702
G03 X82.6556 Y55.4431 I3.3430 J-5.0474
G01 X82.3580 Y55.0929
G01 X82.1531 Y54.8185
G01 X81.9726 Y54.5434
G01 X81.7171 Y54.0920
G01 X81.4730 Y53.8013
G02 X80.8904 Y53.4313 I-0.9808 J0.9007
G01 X80.6949 Y53.4054
G01 X80.6073 Y53.4120
G01 X80.5372 Y53.5647
G01 X80.4755 Y53.8378
G01 X80.3962 Y54.4928
G01 X80.2280 Y57.1363
G01 X80.1267 Y58.2105
G03 X79.7513 Y60.1087 I-12.0362 J-1.3937
G03 X78.8408 Y62.6069 I-21.8189 J-6.5381
G01 X78.0682 Y64.3868
G01 X77.5308 Y65.5174
G03 X75.1367 Y69.0029 I-12.9804 J-6.3509
G03 X70.9800 Y72.6924 I-17.1603 J-15.1469
G03 X66.5417 Y74.8268 I-9.5297 J-14.1343
G03 X61.4784 Y75.6735 I-5.7819 J-19.0137
G03 X55.5929 Y75.2225 I-1.1080 J-24.1689
G03 X50.8402 Y73.4477 I2.9855 J-15.2460
G03 X49.1336 Y72.2509 I7.6136 J-12.6719
G03 X47.1174 Y70.4756 I16.0199 J-20.2248
G01 X46.4360 Y69.7679
G01 X45.9159 Y69.1422
G03 X45.4973 Y68.2669 I1.1896 J-1.1066
G03 X45.6723 Y67.6926 I0.7188 J-0.0947
G03 X46.2236 Y67.5188 I0.4715 J0.5342
G01 X46.5632 Y67.5580
G01 X47.2247 Y67.7056
G01 X50.4434 Y68.6002
G01 X47.8298 Y65.8423
G01 X42.8094 Y60.6465
G01 X40.0048 Y57.6843
G01 X36.9255 Y54.3610
G01 X33.6885 Y50.7576
G01 X32.3287 Y49.3179
G01 X31.0049 Y47.9798
G01 X30.0988 Y47.1066
G01 X29.3176 Y46.3959
G01 X27.7741 Y45.0990
G01 X27.0387 Y44.4236
G01 X26.6272 Y43.9967
G01 X26.4228 Y43.7231
G03 X26.5925 Y42.9974 I0.4918 J-0.2677
G03 X27.4319 Y42.7923 I0.7592 J1.2871
G03 X29.1958 Y43.0417 I-0.3153 J8.5937
G01 X30.1805 Y43.2958
G01 X31.6123 Y43.7206
G01 X32.4406 Y43.9173
G01 X32.0886 Y43.5479
G02 X27.7969 Y40.1539 I-20.8853 J21.9987
G02 X24.1379 Y38.3468 I-9.4978 J14.6235
G02 X20.7080 Y37.5955 I-4.8323 J13.8550
G02 X18.6390 Y37.5294 I-1.5557 J16.2871
G01 X18.0967 Y37.5536
G01 X16.2198 Y37.6999
G01 X15.3587 Y37.7316
G01 X15.0773 Y37.7137
G01 X14.8405 Y37.6588
G01 X14.6925 Y37.5794
G01 X14.6012 Y37.4865
G03 X14.5727 Y36.9557 I0.3849 J-0.2868
G03 X15.1709 Y36.2726 I2.1963 J1.3198
G03 X17.4748 Y34.9487 I5.8205 J7.4627
G03 X20.4674 Y34.0085 I6.5303 J15.5524
G01 X21.3402 Y33.8504
G01 X21.7681 Y33.7946
G01 X23.3175 Y33.6483
G01 X23.9246 Y33.5543
G01 X22.9915 Y33.3680
G01 X22.5471 Y33.2528
G03 X21.8869 Y32.9236 I0.5476 J-1.9249
G03 X21.6195 Y32.2979 I0.4054 J-0.5432
G03 X22.0152 Y31.7572 I0.8379 J0.1981
G01 Z-3.0000 F600
G03 X23.7788 Y31.2445 I1.8984 J3.2403 F1200
G01 X24.2788 Y31.2339
G01 X24.8125 Y31.2554
G01 X25.3920 Y31.3064
G01 X26.0155 Y31.3858
G01 X27.3848 Y31.6262
G03 X32.2805 Y32.9455 I-9.9254 J46.5761
G03 X37.6261 Y34.9332 I-21.1930 J65.1749
G02 X36.1969 Y33.0026 I-6.7628 J3.5119
G01 X35.7677 Y32.5789
G01 X34.9209 Y31.7896
G01 X31.5378 Y28.7818
G01 X31.4900 Y28.7302
G01 X31.4293 Y28.6038
G03 X31.6610 Y28.1824 I0.3420 J-0.0864
G03 X33.5103 Y28.0461 I1.5515 J8.4364
G01 X34.0483 Y28.1262
G01 X34.6477 Y28.2798
G03 X36.6750 Y29.1034 I-4.3134 J13.5243
G03 X42.9681 Y33.2690 I-15.6078 J30.4160
G03 X45.8009 Y35.8945 I-19.7532 J24.1536
G01 X46.4050 Y36.5612
G01 X47.7865 Y38.2415
G01 X48.0930 Y38.5744
G01 X48.3239 Y38.7883
G01 X48.4263 Y38.8634
G01 X48.4711 Y38.8878
G01 X48.5124 Y38.8133
G01 X48.6886 Y38.2504
G01 X48.8083 Y37.9788
G01 X48.9246 Y37.8196
G01 X49.0611 Y37.7084
G03 X49.4899 Y37.6361 I0.3050 J0.5012
G03 X49.9480 Y37.8845 I-0.2458 J1.0002
G03 X50.8116 Y38.9000 I-4.4335 J4.6450
G01 X51.4945 Y39.8967
G01 X52.5541 Y41.5271
G01 X53.0674 Y42.2885
G01 X54.1059 Y43.7479
G02 X56.2323 Y46.4163 I36.0921 J-26.5807
G02 X61.2818 Y51.2295 I25.5862 J-21.7865
G02 X66.3046 Y54.1898 I13.1534 J-16.5765
G02 X68.7064 Y54.8234 I3.7083 J-9.1877
G02 X70.9005 Y54.7705 I0.9282 J-7.0188
G02 X73.7130 Y53.5289 I-1.0682 J-6.2264
G02 X75.1905 Y52.1476 I-5.7327 J-7.6125
G01 X75.4986 Y51.7572
G01 X75.7276 Y51.4035
G01 X75.8647 Y51.1101
G01 X75.9042 Y50.9157
G01 X75.7479 Y50.5171
G01 X75.5020 Y50.0350
G01 X75.0842 Y49.3139
G01 X74.4691 Y48.3533
G01 X74.1302 Y47.7889
G01 X73.7924 Y47.1854
G01 X73.3661 Y46.3634
G01 X73.0814 Y45.7667
G01 X72.8414 Y45.2144
G01 X72.2368 Y43.6525
G01 X72.0504 Y43.2591
G01 X71.8945 Y43.0083
G01 X71.8262 Y42.9306
G01 X71.7540 Y42.8833
G01 X71.6835 Y42.8962
G01 X71.5360 Y42.9753
G01 X71.2814 Y43.1721
G01 X70.6208 Y43.7705
G01 X70.2826 Y44.0448
G01 X69.9608 Y44.2744
G03 X68.9998 Y44.7571 I-2.1891 J-3.1602
G03 X67.1670 Y44.5663 I-0.7235 J-1.9482
G03 X66.2308 Y43.5763 I1.7471 J-2.5898
G01 X66.0491 Y43.2665
G01 X65.8577 Y42.8836
G01 X65.6837 Y42.4750
G01 X65.3991 Y41.7131
G01 X65.2375 Y41.3578
G02 X64.3212 Y39.8127 I-11.3129 J5.6645
G02 X62.1025 Y37.1169 I-16.4042 J11.2403
G01 X61.4510 Y36.4995
G01 X61.1406 Y36.2362
G01 X60.5691 Y35.8181
G01 X60.3009 Y35.6619
G01 X59.9110 Y35.5001
G01 X59.1097 Y35.2589
G01 X58.3265 Y35.0679
G01 X57.3820 Y34.8830
G01 X57.0686 Y34.7966
G03 X56.2319 Y34.3713 I0.8516 J-2.7115
G03 X55.1303 Y33.1544 I3.2808 J-4.0771
G01 X54.6214 Y32.3976
G01 X54.3043 Y31.8868
G01 X54.0410 Y31.3962
G01 X53.8250 Y30.8909
G03 X53.3812 Y28.9679 I9.5154 J-3.2085
G01 X53.2065 Y27.5546
G01 X53.0131 Y25.6608
G03 X52.9219 Y20.9085 I25.3813 J-2.8642
G03 X53.7066 Y17.3388 I11.3605 J0.6263
G03 X55.4139 Y14.9708 I5.2249 J1.9676
G03 X56.6985 Y14.2542 I2.8130 J3.5330
G03 X57.8060 Y14.0950 I0.9251 J2.5047
G03 X59.0541 Y14.4111 I-0.3686 J4.0782
G03 X60.7059 Y15.2500 I-5.1013 J12.0904
G03 X65.6835 Y18.5067 I-41.7735 J69.2787
G03 X69.5150 Y21.6812 I-22.4395 J30.9835
G03 X72.1646 Y24.5258 I-19.5898 J20.9027
G01 X72.8775 Y25.4612
G01 X73.1975 Y25.9224
G01 X73.4918 Y26.3781
G01 X74.4063 Y27.9167
G01 X74.6665 Y28.3047
G01 X74.9836 Y28.6971
G01 X75.1704 Y28.8631
G01 X75.3100 Y28.9419
G01 X75.5038 Y28.9788
G01 X75.6663 Y28.9617
G01 X76.1144 Y28.8613
G01 X76.3369 Y28.8503
G01 X76.8474 Y28.8847
G01 X77.4719 Y28.9863
G01 X78.5412 Y29.2408
G03 X81.1794 Y30.1597 I-5.3407 J19.5799
G01 X81.8420 Y30.4691
G01 X82.1409 Y30.6273
G01 X82.8950 Y31.0742
G01 X83.2725 Y31.2493
G01 X83.6089 Y31.3250
G01 X83.8995 Y31.3348
G01 X84.2729 Y31.3053
G01 X84.7457 Y31.2352
G01 X86.8465 Y30.8151
G01 X87.8782 Y30.6406
G01 X89.0038 Y30.4975
G01 X90.6588 Y30.3543
G01 X92.0216 Y30.2819
G01 X94.0096 Y30.2309
G01 X100.3637 Y30.2246
G03 X102.8337 Y28.5953 I12.6719 J16.5237
G03 X104.6573 Y28.0818 I2.0774 J3.8825
G03 X106.6362 Y28.2438 I0.2951 J8.5620
G01 X107.1147 Y28.3378
G01 X108.1867 Y28.5861
G01 X110.5925 Y29.2314
G01 X111.4664 Y29.4422
G02 X113.2556 Y29.7023 I1.9292 J-6.9857
G01 X113.3229 Y29.5698
G01 X113.3786 Y29.2685
G01 X113.4017 Y28.9426
G01 X113.4081 Y28.5173
G01 X113.3701 Y27.3502
G01 X113.2108 Y24.7491
G01 X113.1794 Y24.0098
G03 X113.2380 Y22.6236 I7.3686 J-0.3831
G03 X113.7885 Y21.0891 I4.6279 J0.7944
G03 X115.1282 Y18.9745 I13.2220 J6.8955
G03 X120.0701 Y15.0902 I10.4843 J8.2528
G03 X122.6723 Y14.3722 I3.4811 J7.5412
G03 X124.8691 Y14.7518 I0.4687 J3.8342
G01 X125.3110 Y15.0539
G01 X125.6657 Y15.4205
G01 X125.8935 Y15.7355
G01 X126.1339 Y16.1483
G01 X126.3711 Y16.6768
G01 X126.4968 Y17.0831
G01 X126.5438 Y17.3713
G01 X126.5780 Y17.9175
G01 X126.6271 Y18.1424
G01 X126.7093 Y18.3361
G01 X126.8628 Y18.5260
G02 X127.4220 Y18.8194 I1.0227 J-1.2697
G01 X127.9739 Y18.9657
G01 X128.5920 Y19.0819
G01 X129.0333 Y19.1868
G01 X129.4704 Y19.3231
G01 X130.0224 Y19.5427
G03 X131.2460 Y20.4674 I-0.9402 J2.5160
G03 X131.7347 Y21.7680 I-2.5270 J1.6916
G03 X131.7343 Y23.3580 I-5.8890 J0.7935
G03 X130.2080 Y27.7092 I-12.8952 J-2.0801
G03 X126.7858 Y32.2081 I-16.9127 J-9.3139
G03 X123.2086 Y35.1455 I-14.2995 J-13.7672
G01 X122.3261 Y35.6942
G01 X121.3357 Y36.2677
G01 X120.2140 Y36.8829
G01 X118.3806 Y37.8512
G01 X117.3588 Y38.4201
G02 X115.6840 Y39.5094 I5.5280 J10.3313
G01 X115.8366 Y39.8887
G01 X116.0683 Y40.3802
G01 X117.1394 Y42.4166
G01 X117.9521 Y44.1555
G01 X118.8321 Y46.1943
G01 X120.3490 Y49.9460
G01 X120.7397 Y50.8576
G01 X121.0745 Y51.5784
G02 X121.2682 Y51.6167 I0.1124 J-0.0594
G01 X121.9370 Y51.5591
G01 X122.8462 Y51.4201
G01 X124.2733 Y51.1390
G01 X124.8845 Y51.0382
G03 X127.4107 Y50.8052 I3.4004 J23.0567
G03 X131.7826 Y51.0252 I0.9864 J23.9517
G03 X135.4048 Y52.0103 I-1.6607 J13.2586
G03 X138.3709 Y53.9496 I-5.5199 J11.6802
G03 X140.3109 Y56.0735 I-7.0361 J8.3748
G03 X141.0448 Y57.7657 I-3.1431 J2.3685
G03 X140.7207 Y59.3602 I-2.0402 J0.4154
G03 X139.9673 Y60.1244 I-2.8741 J-2.0799
G01 X139.5584 Y60.4161
G01 X138.7358 Y60.9237
G01 X138.6757 Y61.0318
G01 X138.6473 Y61.2062
G02 X138.7807 Y62.6231 I7.5141 J0.0071
G01 X139.1415 Y64.6554
G01 X139.4644 Y66.2649
G01 X139.6601 Y67.0608
G01 X139.8471 Y67.6392
G01 X139.9467 Y67.8677
G01 X140.0350 Y68.0236
G01 X140.1126 Y68.1245
G01 X140.2292 Y68.2095
G02 X140.7453 Y68.0499 I0.0522 J-0.7453
G01 X140.9472 Y67.9205
G01 X141.6151 Y67.4328
G01 X141.8898 Y67.2635
G01 X142.6191 Y66.8572
G01 X144.0562 Y66.1226
G03 X149.0756 Y63.8656 I27.9786 J55.5100
G01 X149.6475 Y63.6816
G01 X149.8322 Y63.6536
G01 X150.0097 Y63.6634
G01 X150.2172 Y63.7119
G03 X150.7536 Y64.4277 I-0.2839 J0.7716
G03 X150.6764 Y65.2235 I-2.2185 J0.1862
G01 X150.5278 Y65.6992
G01 X150.3112 Y66.2353
G01 X149.8597 Y67.1593
G01 X149.2076 Y68.3310
G01 X148.6489 Y69.3772
G01 X147.7879 Y71.1014
G02 X145.7264 Y75.8277 I51.2780 J25.1782
G01 X146.6195 Y74.5027
G01 X147.1451 Y73.8328
G01 X147.4315 Y73.5251
G01 X147.6861 Y73.3035
G03 X148.0760 Y73.1351 I0.4763 J0.5673
G03 X148.4579 Y73.2948 I0.0372 J0.4474
G01 X148.5252 Y73.3759
G01 X148.5939 Y73.4975
G01 X148.6740 Y73.7111
G03 X148.8435 Y75.4756 I-7.6514 J1.6251
G03 X148.7002 Y77.7690 I-19.2634 J-0.0520
G03 X148.2673 Y79.8430 I-9.7120 J-0.9451
G03 X147.3276 Y81.8974 I-14.6297 J-5.4493
G01 X146.8878 Y82.6704
G01 X146.1530 Y83.8263
G01 X145.7681 Y84.4936
G01 X146.6788 Y83.8610
G01 X148.4498 Y82.5006
G01 X149.4934 Y81.7499
G01 X149.8938 Y81.5016
G01 X150.2251 Y81.3342
G01 X150.4124 Y81.2644
G01 X150.5621 Y81.2266
G01 X150.7106 Y81.2094
G03 X151.2698 Y81.4177 I0.0410 J0.7444
G01 X151.3451 Y81.5001
G01 X151.4609 Y81.6760
G01 X151.5642 Y81.9706
G01 X151.5836 Y82.0742
G01 X151.5826 Y82.4630
G01 X151.4798 Y82.9408
G03 X150.7184 Y84.5250 I-7.2311 J-2.5001
G03 X147.0698 Y88.9066 I-20.7377 J-13.5586
G03 X144.4358 Y91.1465 I-17.5412 J-17.9592
G03 X142.4904 Y92.3502 I-7.7750 J-10.3921
G03 X137.1902 Y94.1601 I-10.0413 J-20.7399
G03 X131.3835 Y94.7405 I-5.5940 J-26.6284
G03 X124.4810 Y93.8375 I0.1796 J-28.2051
G03 X119.5603 Y92.2494 I18.2635 J-65.0097
G03 X115.6227 Y90.5978 I14.3001 J-39.6120
G01 X114.7155 Y91.4729
G01 X114.2394 Y91.8601
G03 X113.0261 Y92.4371 I-1.7729 J-2.1634
G03 X111.4991 Y92.0889 I-0.0649 J-3.2374
G03 X110.0144 Y91.1062 I3.0446 J-6.2131
G03 X106.7989 Y87.1595 I10.7947 J-12.0780
G03 X105.4432 Y84.5349 I21.2583 J-12.6432
G03 X104.8230 Y82.7066 I8.5882 J-3.9324
G03 X104.5140 Y79.7722 I15.8944 J-3.1576
G03 X104.5231 Y76.3987 I28.1821 J-1.6106
G01 X104.6024 Y75.5672
G01 X104.6762 Y75.0429
G01 X104.7671 Y74.5385
G01 X104.9362 Y73.8115
G01 X105.3409 Y72.2983
G01 X105.4905 Y71.5796
G01 X104.6997 Y71.0142
G01 X103.2978 Y70.0501
G01 X100.8029 Y68.3817
G01 X100.6642 Y70.5644
G01 X100.4376 Y75.4900
G01 X100.3154 Y77.2011
G03 X99.5618 Y82.1391 I-31.7261 J-2.3149
G03 X97.8643 Y86.7372 I-20.7201 J-5.0371
G01 X97.3049 Y87.8015
G01 X96.7820 Y88.6841
G03 X95.7117 Y90.0017 I-5.5318 J-3.3998
G03 X93.5816 Y91.0053 I-2.7318 J-3.0358
G01 X93.1665 Y91.0622
G01 X92.7039 Y91.0968
G01 X92.2079 Y91.1089
G03 X89.6813 Y90.9451 I0.1006 J-21.1188
G03 X89.2394 Y90.6459 I0.3171 J-0.9443
G01 X89.0749 Y90.4404
G01 X88.8154 Y90.0103
G03 X87.7232 Y87.2994 I18.7394 J-9.1261
G01 X87.0716 Y87.8803
G01 X86.6617 Y88.2199
G01 X86.0509 Y88.6417
G03 X84.2608 Y89.2908 I-2.5485 J-4.2354
G03 X81.2471 Y89.3214 I-1.6202 J-11.1421
G03 X79.3300 Y88.5706 I0.4053 J-3.8579
G03 X78.3748 Y86.9470 I1.7886 J-2.1450
G01 X78.3366 Y86.6671
G01 X78.3314 Y86.3765
G01 X78.3472 Y86.0689
G01 X78.3849 Y85.7054
G01 X78.5186 Y84.8671
G03 X79.7134 Y80.3689 I38.8955 J7.9230
G01 X80.3788 Y78.4059
G01 X81.6212 Y75.0953
G01 X81.9103 Y74.1923
G01 X82.0475 Y73.6336
G01 X81.7130 Y73.5676
G01 X81.1974 Y73.5107
G01 X80.5755 Y73.4756
G01 X79.5185 Y73.4533
G01 X78.6605 Y73.3754
G01 X78.2044 Y73.3004
G01 X77.8095 Y73.2060
G01 X77.4937 Y73.0926
G01 X77.2861 Y72.9734
G01 X77.1308 Y72.8121
G01 X77.0373 Y72.6476
G01 X76.9505 Y72.4278
G01 X76.8215 Y71.9230
G03 X76.6659 Y69.7094 I9.8960 J-1.8081
G03 X77.1305 Y67.3174 I8.5178 J0.4134
G03 X78.1839 Y64.9714 I15.3285 J5.4731
G03 X79.9951 Y61.9490 I40.3140 J22.1051
G01 X80.9668 Y60.4725
G01 X83.7483 Y56.3702
G03 X82.6556 Y55.4431 I3.3430 J-5.0474
G01 X82.3580 Y55.0929
G01 X82.1531 Y54.8185
G01 X81.9726 Y54.5434
G01 X81.7171 Y54.0920
G01 X81.4730 Y53.8013
G02 X80.8904 Y53.4313 I-0.9808 J0.9007
G01 X80.6949 Y53.4054
G01 X80.6073 Y53.4120
G01 X80.5372 Y53.5647
G01 X80.4755 Y53.8378
G01 X80.3962 Y54.4928
G01 X80.2280 Y57.1363
G01 X80.1267 Y58.2105
G03 X79.7513 Y60.1087 I-12.0362 J-1.3937
G03 X78.8408 Y62.6069 I-21.8189 J-6.5381
G01 X78.0682 Y64.3868
G01 X77.5308 Y65.5174
G03 X75.1367 Y69.0029 I-12.9804 J-6.3509
G03 X70.9800 Y72.6924 I-17.1603 J-15.1469
G03 X66.5417 Y74.8268 I-9.5297 J-14.1343
G03 X61.4784 Y75.6735 I-5.7819 J-19.0137
G03 X55.5929 Y75.2225 I-1.1080 J-24.1689
G03 X50.8402 Y73.4477 I2.9855 J-15.2460
G03 X49.1336 Y72.2509 I7.6136 J-12.6719
G03 X47.1174 Y70.4756 I16.0199 J-20.2248
G01 X46.4360 Y69.7679
G01 X45.9159 Y69.1422
G03 X45.4973 Y68.2669 I1.1896 J-1.1066
G03 X45.6723 Y67.6926 I0.7188 J-0.0947
G03 X46.2236 Y67.5188 I0.4715 J0.5342
G01 X46.5632 Y67.5580
G01 X47.2247 Y67.7056
G01 X50.4434 Y68.6002
G01 X47.8298 Y65.8423
G01 X42.8094 Y60.6465
G01 X40.0048 Y57.6843
G01 X36.9255 Y54.3610
G01 X33.6885 Y50.7576
G01 X32.3287 Y49.3179
G01 X31.0049 Y47.9798
G01 X30.0988 Y47.1066
G01 X29.3176 Y46.3959
G01 X27.7741 Y45.0990
G01 X27.0387 Y44.4236
G01 X26.6272 Y43.9967
G01 X26.4228 Y43.7231
G03 X26.5925 Y42.9974 I0.4918 J-0.2677
G03 X27.4319 Y42.7923 I0.7592 J1.2871
G03 X29.1958 Y43.0417 I-0.3153 J8.5937
G01 X30.1805 Y43.2958
G01 X31.6123 Y43.7206
G01 X32.4406 Y43.9173
G01 X32.0886 Y43.5479
G02 X27.7969 Y40.1539 I-20.8853 J21.9987
G02 X24.1379 Y38.3468 I-9.4978 J14.6235
G02 X20.7080 Y37.5955 I-4.8323 J13.8550
G02 X18.6390 Y37.5294 I-1.5557 J16.2871
G01 X18.0967 Y37.5536
G01 X16.2198 Y37.6999
G01 X15.3587 Y37.7316
G01 X15.0773 Y37.7137
G01 X14.8405 Y37.6588
G01 X14.6925 Y37.5794
G01 X14.6012 Y37.4865
G03 X14.5727 Y36.9557 I0.3849 J-0.2868
G03 X15.1709 Y36.2726 I2.1963 J1.3198
G03 X17.4748 Y34.9487 I5.8205 J7.4627
G03 X20.4674 Y34.0085 I6.5303 J15.5524
G01 X21.3402 Y33.8504
G01 X21.7681 Y33.7946
G01 X23.3175 Y33.6483
G01 X23.9246 Y33.5543
G01 X22.9915 Y33.3680
G01 X22.5471 Y33.2528
G03 X21.8869 Y32.9236 I0.5476 J-1.9249
G03 X21.6195 Y32.2979 I0.4054 J-0.5432
G03 X22.0152 Y31.7572 I0.8379 J0.1981
G00 Z5.0000
G00 X0.0000 Y0.0000

M05
M30
