(/home/kira/.eagle/ulp/pcb-gcode.ulp)
(Copyright 2005 - 2009 by John Johnson)
(See readme.txt for licensing terms.)
(This file generated from the board:)
(.../projects/examples/hexapod/untitled.brd)
(Current profile is .../.eagle/ulp/profiles/turbocnc.pp  )
(This file generated 08.11.15 00:22)
(Beginning of every file)
(Beginning of every bottom file)
(Outline Begin)
(Bottom outline Begin)
G21
(Absolute Coordinates)
G90
G00 X0.0000 Y0.0000 
M03
G04 P3.000000
G00 Z2.5400 
G00 X-24.6253 Y23.5967 
G01 Z0.0000 F254.00 
G01 X-24.6253 Y22.1233 F508.00 
G01 X-24.6551 Y21.9736 
G01 X-24.7135 Y21.8326 
G01 X-24.7982 Y21.7058 
G01 X-24.9062 Y21.5979 
G01 X-25.0330 Y21.5131 
G01 X-25.1740 Y21.4547 
G01 X-25.3237 Y21.4249 
G01 X-25.4763 Y21.4249 
G01 X-25.6260 Y21.4547 
G01 X-25.7670 Y21.5131 
G01 X-25.8938 Y21.5979 
G01 X-26.0017 Y21.7058 
G01 X-26.0865 Y21.8326 
G01 X-26.1449 Y21.9736 
G01 X-26.1747 Y22.1233 
G01 X-26.1747 Y23.5967 
G01 X-26.1449 Y23.7464 
G01 X-26.0865 Y23.8874 
G01 X-26.0017 Y24.0142 
G01 X-25.8938 Y24.1221 
G01 X-25.7670 Y24.2069 
G01 X-25.6260 Y24.2653 
G01 X-25.6032 Y24.2699 
G01 X-25.6032 Y29.0701 
G01 X-25.6260 Y29.0747 
G01 X-25.7670 Y29.1331 
G01 X-25.8938 Y29.2179 
G01 X-26.0017 Y29.3258 
G01 X-26.0865 Y29.4526 
G01 X-26.1449 Y29.5936 
G01 X-26.1747 Y29.7433 
G01 X-26.1747 Y31.2167 
G01 X-26.1449 Y31.3664 
G01 X-26.0865 Y31.5074 
G01 X-26.0017 Y31.6342 
G01 X-25.8938 Y31.7421 
G01 X-25.7670 Y31.8269 
G01 X-25.6260 Y31.8853 
G01 X-25.4763 Y31.9151 
G01 X-25.3237 Y31.9151 
G01 X-25.1740 Y31.8853 
G01 X-25.0330 Y31.8269 
G01 X-24.9062 Y31.7421 
G01 X-24.7982 Y31.6342 
G01 X-24.7135 Y31.5074 
G01 X-24.6551 Y31.3664 
G01 X-24.6253 Y31.2167 
G01 X-24.6253 Y29.7433 
G01 X-24.6551 Y29.5936 
G01 X-24.7135 Y29.4526 
G01 X-24.7982 Y29.3258 
G01 X-24.9062 Y29.2179 
G01 X-25.0330 Y29.1331 
G01 X-25.1740 Y29.0747 
G01 X-25.1968 Y29.0701 
G01 X-25.1968 Y24.2699 
G01 X-25.1740 Y24.2653 
G01 X-25.0330 Y24.2069 
G01 X-24.9062 Y24.1221 
G01 X-24.7982 Y24.0142 
G01 X-24.7135 Y23.8874 
G01 X-24.6551 Y23.7464 
G01 X-24.6253 Y23.5967 
G00 Z2.5400 
G00 X-32.2453 Y23.5967 
G01 Z0.0000 F254.00 
G01 X-32.2453 Y22.1233 F508.00 
G01 X-32.2751 Y21.9736 
G01 X-32.3335 Y21.8326 
G01 X-32.4183 Y21.7058 
G01 X-32.5262 Y21.5979 
G01 X-32.6530 Y21.5131 
G01 X-32.7940 Y21.4547 
G01 X-32.9437 Y21.4249 
G01 X-33.0963 Y21.4249 
G01 X-33.2460 Y21.4547 
G01 X-33.3870 Y21.5131 
G01 X-33.5138 Y21.5979 
G01 X-33.6217 Y21.7058 
G01 X-33.7065 Y21.8326 
G01 X-33.7649 Y21.9736 
G01 X-33.7947 Y22.1233 
G01 X-33.7947 Y23.5967 
G01 X-33.7649 Y23.7464 
G01 X-33.7065 Y23.8874 
G01 X-33.6217 Y24.0142 
G01 X-33.5138 Y24.1221 
G01 X-33.3870 Y24.2069 
G01 X-33.2460 Y24.2653 
G01 X-33.0963 Y24.2951 
G01 X-32.9437 Y24.2951 
G01 X-32.7940 Y24.2653 
G01 X-32.6530 Y24.2069 
G01 X-32.5936 Y24.1672 
G01 X-31.9350 Y25.4844 
G01 X-31.9223 Y25.5151 
G01 X-31.9170 Y25.5204 
G01 X-31.9137 Y25.5270 
G01 X-31.8886 Y25.5488 
G01 X-30.7674 Y26.6700 
G01 X-31.8886 Y27.7912 
G01 X-31.9137 Y27.8130 
G01 X-31.9170 Y27.8196 
G01 X-31.9223 Y27.8249 
G01 X-31.9350 Y27.8556 
G01 X-32.5936 Y29.1728 
G01 X-32.6530 Y29.1331 
G01 X-32.7940 Y29.0747 
G01 X-32.9437 Y29.0449 
G01 X-33.0963 Y29.0449 
G01 X-33.2460 Y29.0747 
G01 X-33.3870 Y29.1331 
G01 X-33.5138 Y29.2179 
G01 X-33.6217 Y29.3258 
G01 X-33.7065 Y29.4526 
G01 X-33.7649 Y29.5936 
G01 X-33.7947 Y29.7433 
G01 X-33.7947 Y31.2167 
G01 X-33.7649 Y31.3664 
G01 X-33.7065 Y31.5074 
G01 X-33.6217 Y31.6342 
G01 X-33.5138 Y31.7421 
G01 X-33.3870 Y31.8269 
G01 X-33.2460 Y31.8853 
G01 X-33.0963 Y31.9151 
G01 X-32.9437 Y31.9151 
G01 X-32.7940 Y31.8853 
G01 X-32.6530 Y31.8269 
G01 X-32.5262 Y31.7421 
G01 X-32.4183 Y31.6342 
G01 X-32.3335 Y31.5074 
G01 X-32.2751 Y31.3664 
G01 X-32.2453 Y31.2167 
G01 X-32.2453 Y29.7433 
G01 X-32.2751 Y29.5936 
G01 X-32.3089 Y29.5121 
G01 X-31.5830 Y28.0604 
G01 X-30.4800 Y26.9574 
G01 X-29.4572 Y27.9801 
G01 X-30.0536 Y29.1728 
G01 X-30.1130 Y29.1331 
G01 X-30.2540 Y29.0747 
G01 X-30.4037 Y29.0449 
G01 X-30.5563 Y29.0449 
G01 X-30.7060 Y29.0747 
G01 X-30.8470 Y29.1331 
G01 X-30.9738 Y29.2179 
G01 X-31.0817 Y29.3258 
G01 X-31.1665 Y29.4526 
G01 X-31.2249 Y29.5936 
G01 X-31.2547 Y29.7433 
G01 X-31.2547 Y31.2167 
G01 X-31.2249 Y31.3664 
G01 X-31.1665 Y31.5074 
G01 X-31.0817 Y31.6342 
G01 X-30.9738 Y31.7421 
G01 X-30.8470 Y31.8269 
G01 X-30.7060 Y31.8853 
G01 X-30.5563 Y31.9151 
G01 X-30.4037 Y31.9151 
G01 X-30.2540 Y31.8853 
G01 X-30.1130 Y31.8269 
G01 X-29.9862 Y31.7421 
G01 X-29.8783 Y31.6342 
G01 X-29.7935 Y31.5074 
G01 X-29.7351 Y31.3664 
G01 X-29.7053 Y31.2167 
G01 X-29.7053 Y29.7433 
G01 X-29.7351 Y29.5936 
G01 X-29.7689 Y29.5121 
G01 X-29.0430 Y28.0604 
G01 X-29.0377 Y28.0551 
G01 X-29.0250 Y28.0244 
G01 X-29.0102 Y27.9947 
G01 X-29.0096 Y27.9873 
G01 X-29.0068 Y27.9804 
G01 X-29.0068 Y27.9472 
G01 X-29.0044 Y27.9141 
G01 X-29.0068 Y27.9070 
G01 X-29.0068 Y27.8996 
G01 X-29.0195 Y27.8689 
G01 X-29.0300 Y27.8374 
G01 X-29.0349 Y27.8318 
G01 X-29.0377 Y27.8249 
G01 X-29.0612 Y27.8014 
G01 X-29.0830 Y27.7763 
G01 X-29.0896 Y27.7730 
G01 X-30.1926 Y26.6700 
G01 X-29.0896 Y25.5670 
G01 X-29.0830 Y25.5637 
G01 X-29.0612 Y25.5386 
G01 X-29.0377 Y25.5151 
G01 X-29.0349 Y25.5082 
G01 X-29.0300 Y25.5026 
G01 X-29.0195 Y25.4711 
G01 X-29.0068 Y25.4404 
G01 X-29.0068 Y25.4330 
G01 X-29.0044 Y25.4259 
G01 X-29.0068 Y25.3928 
G01 X-29.0068 Y25.3596 
G01 X-29.0096 Y25.3527 
G01 X-29.0102 Y25.3453 
G01 X-29.0250 Y25.3156 
G01 X-29.0377 Y25.2849 
G01 X-29.0430 Y25.2796 
G01 X-29.7689 Y23.8279 
G01 X-29.7351 Y23.7464 
G01 X-29.7053 Y23.5967 
G01 X-29.7053 Y22.1233 
G01 X-29.7351 Y21.9736 
G01 X-29.7935 Y21.8326 
G01 X-29.8783 Y21.7058 
G01 X-29.9862 Y21.5979 
G01 X-30.1130 Y21.5131 
G01 X-30.2540 Y21.4547 
G01 X-30.4037 Y21.4249 
G01 X-30.5563 Y21.4249 
G01 X-30.7060 Y21.4547 
G01 X-30.8470 Y21.5131 
G01 X-30.9738 Y21.5979 
G01 X-31.0817 Y21.7058 
G01 X-31.1665 Y21.8326 
G01 X-31.2249 Y21.9736 
G01 X-31.2547 Y22.1233 
G01 X-31.2547 Y23.5967 
G01 X-31.2249 Y23.7464 
G01 X-31.1665 Y23.8874 
G01 X-31.0817 Y24.0142 
G01 X-30.9738 Y24.1221 
G01 X-30.8470 Y24.2069 
G01 X-30.7060 Y24.2653 
G01 X-30.5563 Y24.2951 
G01 X-30.4037 Y24.2951 
G01 X-30.2540 Y24.2653 
G01 X-30.1130 Y24.2069 
G01 X-30.0536 Y24.1672 
G01 X-29.4572 Y25.3599 
G01 X-30.4800 Y26.3826 
G01 X-31.5830 Y25.2796 
G01 X-32.3089 Y23.8279 
G01 X-32.2751 Y23.7464 
G01 X-32.2453 Y23.5967 
G00 Z2.5400 
G00 X-34.7853 Y23.5967 
G01 Z0.0000 F254.00 
G01 X-34.7853 Y22.1233 F508.00 
G01 X-34.8151 Y21.9736 
G01 X-34.8735 Y21.8326 
G01 X-34.9582 Y21.7058 
G01 X-35.0662 Y21.5979 
G01 X-35.1930 Y21.5131 
G01 X-35.3340 Y21.4547 
G01 X-35.4837 Y21.4249 
G01 X-35.6363 Y21.4249 
G01 X-35.7860 Y21.4547 
G01 X-35.9270 Y21.5131 
G01 X-36.0538 Y21.5979 
G01 X-36.1617 Y21.7058 
G01 X-36.2465 Y21.8326 
G01 X-36.3049 Y21.9736 
G01 X-36.3347 Y22.1233 
G01 X-36.3347 Y23.5967 
G01 X-36.3049 Y23.7464 
G01 X-36.2465 Y23.8874 
G01 X-36.1617 Y24.0142 
G01 X-36.0538 Y24.1221 
G01 X-35.9270 Y24.2069 
G01 X-35.7860 Y24.2653 
G01 X-35.7632 Y24.2699 
G01 X-35.7632 Y29.0701 
G01 X-35.7860 Y29.0747 
G01 X-35.9270 Y29.1331 
G01 X-36.0538 Y29.2179 
G01 X-36.1617 Y29.3258 
G01 X-36.2465 Y29.4526 
G01 X-36.3049 Y29.5936 
G01 X-36.3347 Y29.7433 
G01 X-36.3347 Y31.2167 
G01 X-36.3049 Y31.3664 
G01 X-36.2465 Y31.5074 
G01 X-36.1617 Y31.6342 
G01 X-36.0538 Y31.7421 
G01 X-35.9270 Y31.8269 
G01 X-35.7860 Y31.8853 
G01 X-35.6363 Y31.9151 
G01 X-35.4837 Y31.9151 
G01 X-35.3340 Y31.8853 
G01 X-35.1930 Y31.8269 
G01 X-35.0662 Y31.7421 
G01 X-34.9582 Y31.6342 
G01 X-34.8735 Y31.5074 
G01 X-34.8151 Y31.3664 
G01 X-34.7853 Y31.2167 
G01 X-34.7853 Y29.7433 
G01 X-34.8151 Y29.5936 
G01 X-34.8735 Y29.4526 
G01 X-34.9582 Y29.3258 
G01 X-35.0662 Y29.2179 
G01 X-35.1930 Y29.1331 
G01 X-35.3340 Y29.0747 
G01 X-35.3568 Y29.0701 
G01 X-35.3568 Y24.2699 
G01 X-35.3340 Y24.2653 
G01 X-35.1930 Y24.2069 
G01 X-35.0662 Y24.1221 
G01 X-34.9582 Y24.0142 
G01 X-34.8735 Y23.8874 
G01 X-34.8151 Y23.7464 
G01 X-34.7853 Y23.5967 
G00 Z2.5400 
G00 X-42.4053 Y23.5967 
G01 Z0.0000 F254.00 
G01 X-42.4053 Y23.0632 F508.00 
G01 X-41.4147 Y23.0632 
G01 X-41.4147 Y23.5967 
G01 X-41.3849 Y23.7464 
G01 X-41.3265 Y23.8874 
G01 X-41.2417 Y24.0142 
G01 X-41.1338 Y24.1221 
G01 X-41.0070 Y24.2069 
G01 X-40.8660 Y24.2653 
G01 X-40.8432 Y24.2699 
G01 X-40.8432 Y29.0701 
G01 X-40.8660 Y29.0747 
G01 X-41.0070 Y29.1331 
G01 X-41.1338 Y29.2179 
G01 X-41.2417 Y29.3258 
G01 X-41.3265 Y29.4526 
G01 X-41.3849 Y29.5936 
G01 X-41.4147 Y29.7433 
G01 X-41.4147 Y31.2167 
G01 X-41.3849 Y31.3664 
G01 X-41.3265 Y31.5074 
G01 X-41.2417 Y31.6342 
G01 X-41.1338 Y31.7421 
G01 X-41.0070 Y31.8269 
G01 X-40.8660 Y31.8853 
G01 X-40.7163 Y31.9151 
G01 X-40.5637 Y31.9151 
G01 X-40.4140 Y31.8853 
G01 X-40.2730 Y31.8269 
G01 X-40.1462 Y31.7421 
G01 X-40.0383 Y31.6342 
G01 X-39.9535 Y31.5074 
G01 X-39.8951 Y31.3664 
G01 X-39.8653 Y31.2167 
G01 X-39.8653 Y29.7433 
G01 X-39.8951 Y29.5936 
G01 X-39.9535 Y29.4526 
G01 X-40.0383 Y29.3258 
G01 X-40.1462 Y29.2179 
G01 X-40.2730 Y29.1331 
G01 X-40.4140 Y29.0747 
G01 X-40.4368 Y29.0701 
G01 X-40.4368 Y24.2699 
G01 X-40.4140 Y24.2653 
G01 X-40.2730 Y24.2069 
G01 X-40.1462 Y24.1221 
G01 X-40.0383 Y24.0142 
G01 X-39.9535 Y23.8874 
G01 X-39.8951 Y23.7464 
G01 X-39.8653 Y23.5967 
G01 X-39.8653 Y22.1233 
G01 X-39.8951 Y21.9736 
G01 X-39.9535 Y21.8326 
G01 X-40.0383 Y21.7058 
G01 X-40.1462 Y21.5979 
G01 X-40.2730 Y21.5131 
G01 X-40.4140 Y21.4547 
G01 X-40.5637 Y21.4249 
G01 X-40.7163 Y21.4249 
G01 X-40.8660 Y21.4547 
G01 X-41.0070 Y21.5131 
G01 X-41.1338 Y21.5979 
G01 X-41.2417 Y21.7058 
G01 X-41.3265 Y21.8326 
G01 X-41.3849 Y21.9736 
G01 X-41.4147 Y22.1233 
G01 X-41.4147 Y22.6568 
G01 X-42.4053 Y22.6568 
G01 X-42.4053 Y22.1233 
G01 X-42.4351 Y21.9736 
G01 X-42.4935 Y21.8326 
G01 X-42.5783 Y21.7058 
G01 X-42.6862 Y21.5979 
G01 X-42.8130 Y21.5131 
G01 X-42.9540 Y21.4547 
G01 X-43.1037 Y21.4249 
G01 X-43.2563 Y21.4249 
G01 X-43.4060 Y21.4547 
G01 X-43.5470 Y21.5131 
G01 X-43.6738 Y21.5979 
G01 X-43.7817 Y21.7058 
G01 X-43.8665 Y21.8326 
G01 X-43.9249 Y21.9736 
G01 X-43.9547 Y22.1233 
G01 X-43.9547 Y23.5967 
G01 X-43.9249 Y23.7464 
G01 X-43.8665 Y23.8874 
G01 X-43.7817 Y24.0142 
G01 X-43.6738 Y24.1221 
G01 X-43.5470 Y24.2069 
G01 X-43.4060 Y24.2653 
G01 X-43.3832 Y24.2699 
G01 X-43.3832 Y29.0701 
G01 X-43.4060 Y29.0747 
G01 X-43.5470 Y29.1331 
G01 X-43.6738 Y29.2179 
G01 X-43.7817 Y29.3258 
G01 X-43.8665 Y29.4526 
G01 X-43.9249 Y29.5936 
G01 X-43.9547 Y29.7433 
G01 X-43.9547 Y31.2167 
G01 X-43.9249 Y31.3664 
G01 X-43.8665 Y31.5074 
G01 X-43.7817 Y31.6342 
G01 X-43.6738 Y31.7421 
G01 X-43.5470 Y31.8269 
G01 X-43.4060 Y31.8853 
G01 X-43.2563 Y31.9151 
G01 X-43.1037 Y31.9151 
G01 X-42.9540 Y31.8853 
G01 X-42.8130 Y31.8269 
G01 X-42.6862 Y31.7421 
G01 X-42.5783 Y31.6342 
G01 X-42.4935 Y31.5074 
G01 X-42.4351 Y31.3664 
G01 X-42.4053 Y31.2167 
G01 X-42.4053 Y29.7433 
G01 X-42.4351 Y29.5936 
G01 X-42.4935 Y29.4526 
G01 X-42.5783 Y29.3258 
G01 X-42.6862 Y29.2179 
G01 X-42.8130 Y29.1331 
G01 X-42.9540 Y29.0747 
G01 X-42.9768 Y29.0701 
G01 X-42.9768 Y24.2699 
G01 X-42.9540 Y24.2653 
G01 X-42.8130 Y24.2069 
G01 X-42.6862 Y24.1221 
G01 X-42.5783 Y24.0142 
G01 X-42.4935 Y23.8874 
G01 X-42.4351 Y23.7464 
G01 X-42.4053 Y23.5967 
G00 Z2.5400 
G00 X-55.1053 Y23.5967 
G01 Z0.0000 F254.00 
G01 X-55.1053 Y22.1233 F508.00 
G01 X-55.1351 Y21.9736 
G01 X-55.1935 Y21.8326 
G01 X-55.2782 Y21.7058 
G01 X-55.3862 Y21.5979 
G01 X-55.5130 Y21.5131 
G01 X-55.6540 Y21.4547 
G01 X-55.8037 Y21.4249 
G01 X-55.9563 Y21.4249 
G01 X-56.1060 Y21.4547 
G01 X-56.2470 Y21.5131 
G01 X-56.3738 Y21.5979 
G01 X-56.4817 Y21.7058 
G01 X-56.5665 Y21.8326 
G01 X-56.6249 Y21.9736 
G01 X-56.6547 Y22.1233 
G01 X-56.6547 Y23.5967 
G01 X-56.6249 Y23.7464 
G01 X-56.5665 Y23.8874 
G01 X-56.4817 Y24.0142 
G01 X-56.3738 Y24.1221 
G01 X-56.2470 Y24.2069 
G01 X-56.1060 Y24.2653 
G01 X-56.0832 Y24.2699 
G01 X-56.0832 Y29.0701 
G01 X-56.1060 Y29.0747 
G01 X-56.2470 Y29.1331 
G01 X-56.3738 Y29.2179 
G01 X-56.4817 Y29.3258 
G01 X-56.5665 Y29.4526 
G01 X-56.6249 Y29.5936 
G01 X-56.6547 Y29.7433 
G01 X-56.6547 Y31.2167 
G01 X-56.6249 Y31.3664 
G01 X-56.5665 Y31.5074 
G01 X-56.4817 Y31.6342 
G01 X-56.3738 Y31.7421 
G01 X-56.2470 Y31.8269 
G01 X-56.1060 Y31.8853 
G01 X-55.9563 Y31.9151 
G01 X-55.8037 Y31.9151 
G01 X-55.6540 Y31.8853 
G01 X-55.5130 Y31.8269 
G01 X-55.3862 Y31.7421 
G01 X-55.2782 Y31.6342 
G01 X-55.1935 Y31.5074 
G01 X-55.1351 Y31.3664 
G01 X-55.1053 Y31.2167 
G01 X-55.1053 Y30.6832 
G01 X-54.1147 Y30.6832 
G01 X-54.1147 Y31.2167 
G01 X-54.0849 Y31.3664 
G01 X-54.0265 Y31.5074 
G01 X-53.9417 Y31.6342 
G01 X-53.8338 Y31.7421 
G01 X-53.7070 Y31.8269 
G01 X-53.5660 Y31.8853 
G01 X-53.4163 Y31.9151 
G01 X-53.2637 Y31.9151 
G01 X-53.1140 Y31.8853 
G01 X-52.9730 Y31.8269 
G01 X-52.8462 Y31.7421 
G01 X-52.7383 Y31.6342 
G01 X-52.6535 Y31.5074 
G01 X-52.5951 Y31.3664 
G01 X-52.5653 Y31.2167 
G01 X-52.5653 Y29.9927 
G01 X-51.8977 Y29.3251 
G01 X-51.8668 Y29.2504 
G01 X-51.8668 Y29.1696 
G01 X-51.8977 Y29.0949 
G01 X-51.9549 Y29.0377 
G01 X-54.4068 Y26.5858 
G01 X-54.4068 Y25.4480 
G01 X-53.7664 Y24.1672 
G01 X-53.7070 Y24.2069 
G01 X-53.5660 Y24.2653 
G01 X-53.4163 Y24.2951 
G01 X-53.2637 Y24.2951 
G01 X-53.1140 Y24.2653 
G01 X-52.9730 Y24.2069 
G01 X-52.8462 Y24.1221 
G01 X-52.7383 Y24.0142 
G01 X-52.6535 Y23.8874 
G01 X-52.5951 Y23.7464 
G01 X-52.5653 Y23.5967 
G01 X-52.5653 Y23.0632 
G01 X-51.5747 Y23.0632 
G01 X-51.5747 Y23.5967 
G01 X-51.5449 Y23.7464 
G01 X-51.4865 Y23.8874 
G01 X-51.4017 Y24.0142 
G01 X-51.2938 Y24.1221 
G01 X-51.1670 Y24.2069 
G01 X-51.0260 Y24.2653 
G01 X-50.8763 Y24.2951 
G01 X-50.7237 Y24.2951 
G01 X-50.5740 Y24.2653 
G01 X-50.4330 Y24.2069 
G01 X-50.3062 Y24.1221 
G01 X-50.1983 Y24.0142 
G01 X-50.1135 Y23.8874 
G01 X-50.0978 Y23.8496 
G01 X-49.8174 Y24.1300 
G01 X-52.2423 Y26.5549 
G01 X-52.2732 Y26.6296 
G01 X-52.2732 Y26.7104 
G01 X-52.2423 Y26.7851 
G01 X-52.1851 Y26.8423 
G01 X-49.8174 Y29.2100 
G01 X-50.0978 Y29.4904 
G01 X-50.1135 Y29.4526 
G01 X-50.1983 Y29.3258 
G01 X-50.3062 Y29.2179 
G01 X-50.4330 Y29.1331 
G01 X-50.5740 Y29.0747 
G01 X-50.7237 Y29.0449 
G01 X-50.8763 Y29.0449 
G01 X-51.0260 Y29.0747 
G01 X-51.1670 Y29.1331 
G01 X-51.2938 Y29.2179 
G01 X-51.4017 Y29.3258 
G01 X-51.4865 Y29.4526 
G01 X-51.5449 Y29.5936 
G01 X-51.5747 Y29.7433 
G01 X-51.5747 Y31.2167 
G01 X-51.5449 Y31.3664 
G01 X-51.4865 Y31.5074 
G01 X-51.4017 Y31.6342 
G01 X-51.2938 Y31.7421 
G01 X-51.1670 Y31.8269 
G01 X-51.0260 Y31.8853 
G01 X-50.8763 Y31.9151 
G01 X-50.7237 Y31.9151 
G01 X-50.5740 Y31.8853 
G01 X-50.4330 Y31.8269 
G01 X-50.3062 Y31.7421 
G01 X-50.1983 Y31.6342 
G01 X-50.1135 Y31.5074 
G01 X-50.0551 Y31.3664 
G01 X-50.0253 Y31.2167 
G01 X-50.0253 Y29.9927 
G01 X-49.4149 Y29.3823 
G01 X-49.3577 Y29.3251 
G01 X-49.3268 Y29.2504 
G01 X-49.3268 Y29.1696 
G01 X-49.3577 Y29.0949 
G01 X-51.7826 Y26.6700 
G01 X-49.4149 Y24.3023 
G01 X-49.3577 Y24.2451 
G01 X-49.3268 Y24.1704 
G01 X-49.3268 Y24.0896 
G01 X-49.3577 Y24.0149 
G01 X-50.0253 Y23.3473 
G01 X-50.0253 Y22.1233 
G01 X-50.0551 Y21.9736 
G01 X-50.1135 Y21.8326 
G01 X-50.1983 Y21.7058 
G01 X-50.3062 Y21.5979 
G01 X-50.4330 Y21.5131 
G01 X-50.5740 Y21.4547 
G01 X-50.7237 Y21.4249 
G01 X-50.8763 Y21.4249 
G01 X-51.0260 Y21.4547 
G01 X-51.1670 Y21.5131 
G01 X-51.2938 Y21.5979 
G01 X-51.4017 Y21.7058 
G01 X-51.4865 Y21.8326 
G01 X-51.5449 Y21.9736 
G01 X-51.5747 Y22.1233 
G01 X-51.5747 Y22.6568 
G01 X-52.5653 Y22.6568 
G01 X-52.5653 Y22.1233 
G01 X-52.5951 Y21.9736 
G01 X-52.6535 Y21.8326 
G01 X-52.7383 Y21.7058 
G01 X-52.8462 Y21.5979 
G01 X-52.9730 Y21.5131 
G01 X-53.1140 Y21.4547 
G01 X-53.2637 Y21.4249 
G01 X-53.4163 Y21.4249 
G01 X-53.5660 Y21.4547 
G01 X-53.7070 Y21.5131 
G01 X-53.8338 Y21.5979 
G01 X-53.9417 Y21.7058 
G01 X-54.0265 Y21.8326 
G01 X-54.0849 Y21.9736 
G01 X-54.1147 Y22.1233 
G01 X-54.1147 Y23.5967 
G01 X-54.0849 Y23.7464 
G01 X-54.0511 Y23.8279 
G01 X-54.7770 Y25.2796 
G01 X-54.7823 Y25.2849 
G01 X-54.7950 Y25.3156 
G01 X-54.8098 Y25.3453 
G01 X-54.8103 Y25.3527 
G01 X-54.8132 Y25.3596 
G01 X-54.8132 Y25.3928 
G01 X-54.8156 Y25.4259 
G01 X-54.8132 Y25.4330 
G01 X-54.8132 Y26.7104 
G01 X-54.7823 Y26.7851 
G01 X-52.3574 Y29.2100 
G01 X-52.6378 Y29.4904 
G01 X-52.6535 Y29.4526 
G01 X-52.7383 Y29.3258 
G01 X-52.8462 Y29.2179 
G01 X-52.9730 Y29.1331 
G01 X-53.1140 Y29.0747 
G01 X-53.2637 Y29.0449 
G01 X-53.4163 Y29.0449 
G01 X-53.5660 Y29.0747 
G01 X-53.7070 Y29.1331 
G01 X-53.8338 Y29.2179 
G01 X-53.9417 Y29.3258 
G01 X-54.0265 Y29.4526 
G01 X-54.0849 Y29.5936 
G01 X-54.1147 Y29.7433 
G01 X-54.1147 Y30.2768 
G01 X-55.1053 Y30.2768 
G01 X-55.1053 Y29.7433 
G01 X-55.1351 Y29.5936 
G01 X-55.1935 Y29.4526 
G01 X-55.2782 Y29.3258 
G01 X-55.3862 Y29.2179 
G01 X-55.5130 Y29.1331 
G01 X-55.6540 Y29.0747 
G01 X-55.6768 Y29.0701 
G01 X-55.6768 Y24.2699 
G01 X-55.6540 Y24.2653 
G01 X-55.5130 Y24.2069 
G01 X-55.3862 Y24.1221 
G01 X-55.2782 Y24.0142 
G01 X-55.1935 Y23.8874 
G01 X-55.1351 Y23.7464 
G01 X-55.1053 Y23.5967 
G00 Z2.5400 
G00 X-47.4853 Y31.2167 
G01 Z0.0000 F254.00 
G01 X-47.4853 Y29.7433 F508.00 
G01 X-47.5151 Y29.5936 
G01 X-47.5489 Y29.5121 
G01 X-46.8230 Y28.0604 
G01 X-45.0850 Y26.3224 
G01 X-44.6825 Y26.7249 
G01 X-45.4692 Y29.0850 
G01 X-45.4940 Y29.0747 
G01 X-45.6437 Y29.0449 
G01 X-45.7963 Y29.0449 
G01 X-45.9460 Y29.0747 
G01 X-46.0870 Y29.1331 
G01 X-46.2138 Y29.2179 
G01 X-46.3217 Y29.3258 
G01 X-46.4065 Y29.4526 
G01 X-46.4649 Y29.5936 
G01 X-46.4947 Y29.7433 
G01 X-46.4947 Y31.2167 
G01 X-46.4649 Y31.3664 
G01 X-46.4065 Y31.5074 
G01 X-46.3217 Y31.6342 
G01 X-46.2138 Y31.7421 
G01 X-46.0870 Y31.8269 
G01 X-45.9460 Y31.8853 
G01 X-45.7963 Y31.9151 
G01 X-45.6437 Y31.9151 
G01 X-45.4940 Y31.8853 
G01 X-45.3530 Y31.8269 
G01 X-45.2262 Y31.7421 
G01 X-45.1183 Y31.6342 
G01 X-45.0335 Y31.5074 
G01 X-44.9751 Y31.3664 
G01 X-44.9453 Y31.2167 
G01 X-44.9453 Y29.7433 
G01 X-44.9751 Y29.5936 
G01 X-45.0335 Y29.4526 
G01 X-45.1183 Y29.3258 
G01 X-44.2595 Y26.7411 
G01 X-44.2468 Y26.7104 
G01 X-44.2468 Y26.7030 
G01 X-44.2444 Y26.6959 
G01 X-44.2468 Y26.6628 
G01 X-44.2468 Y26.6296 
G01 X-44.2497 Y26.6227 
G01 X-44.2502 Y26.6153 
G01 X-44.2650 Y26.5856 
G01 X-44.2777 Y26.5549 
G01 X-44.2830 Y26.5496 
G01 X-44.2863 Y26.5430 
G01 X-44.3114 Y26.5212 
G01 X-44.7976 Y26.0350 
G01 X-44.3296 Y25.5670 
G01 X-44.3230 Y25.5637 
G01 X-44.3012 Y25.5386 
G01 X-44.2777 Y25.5151 
G01 X-44.2749 Y25.5082 
G01 X-44.2700 Y25.5026 
G01 X-44.2595 Y25.4711 
G01 X-44.2468 Y25.4404 
G01 X-44.2468 Y25.4330 
G01 X-44.2444 Y25.4259 
G01 X-44.2468 Y25.3928 
G01 X-44.2468 Y25.3596 
G01 X-44.2497 Y25.3527 
G01 X-44.2502 Y25.3453 
G01 X-44.2650 Y25.3156 
G01 X-44.2777 Y25.2849 
G01 X-44.2830 Y25.2796 
G01 X-45.0089 Y23.8279 
G01 X-44.9751 Y23.7464 
G01 X-44.9453 Y23.5967 
G01 X-44.9453 Y22.1233 
G01 X-44.9751 Y21.9736 
G01 X-45.0335 Y21.8326 
G01 X-45.1183 Y21.7058 
G01 X-45.2262 Y21.5979 
G01 X-45.3530 Y21.5131 
G01 X-45.4940 Y21.4547 
G01 X-45.6437 Y21.4249 
G01 X-45.7963 Y21.4249 
G01 X-45.9460 Y21.4547 
G01 X-46.0870 Y21.5131 
G01 X-46.2138 Y21.5979 
G01 X-46.3217 Y21.7058 
G01 X-46.4065 Y21.8326 
G01 X-46.4649 Y21.9736 
G01 X-46.4947 Y22.1233 
G01 X-46.4947 Y23.5967 
G01 X-46.4649 Y23.7464 
G01 X-46.4065 Y23.8874 
G01 X-46.3217 Y24.0142 
G01 X-46.2138 Y24.1221 
G01 X-46.0870 Y24.2069 
G01 X-45.9460 Y24.2653 
G01 X-45.7963 Y24.2951 
G01 X-45.6437 Y24.2951 
G01 X-45.4940 Y24.2653 
G01 X-45.3530 Y24.2069 
G01 X-45.2936 Y24.1672 
G01 X-44.6972 Y25.3599 
G01 X-45.0850 Y25.7476 
G01 X-47.4853 Y23.3473 
G01 X-47.4853 Y22.1233 
G01 X-47.5151 Y21.9736 
G01 X-47.5735 Y21.8326 
G01 X-47.6583 Y21.7058 
G01 X-47.7662 Y21.5979 
G01 X-47.8930 Y21.5131 
G01 X-48.0340 Y21.4547 
G01 X-48.1837 Y21.4249 
G01 X-48.3363 Y21.4249 
G01 X-48.4860 Y21.4547 
G01 X-48.6270 Y21.5131 
G01 X-48.7538 Y21.5979 
G01 X-48.8617 Y21.7058 
G01 X-48.9465 Y21.8326 
G01 X-49.0049 Y21.9736 
G01 X-49.0347 Y22.1233 
G01 X-49.0347 Y23.5967 
G01 X-49.0049 Y23.7464 
G01 X-48.9465 Y23.8874 
G01 X-48.8617 Y24.0142 
G01 X-48.7538 Y24.1221 
G01 X-48.6270 Y24.2069 
G01 X-48.4860 Y24.2653 
G01 X-48.3363 Y24.2951 
G01 X-48.1837 Y24.2951 
G01 X-48.0340 Y24.2653 
G01 X-47.8930 Y24.2069 
G01 X-47.7662 Y24.1221 
G01 X-47.6583 Y24.0142 
G01 X-47.5735 Y23.8874 
G01 X-47.5578 Y23.8496 
G01 X-45.3724 Y26.0350 
G01 X-47.1286 Y27.7912 
G01 X-47.1537 Y27.8130 
G01 X-47.1570 Y27.8196 
G01 X-47.1623 Y27.8249 
G01 X-47.1750 Y27.8556 
G01 X-47.8336 Y29.1728 
G01 X-47.8930 Y29.1331 
G01 X-48.0340 Y29.0747 
G01 X-48.1837 Y29.0449 
G01 X-48.3363 Y29.0449 
G01 X-48.4860 Y29.0747 
G01 X-48.6270 Y29.1331 
G01 X-48.7538 Y29.2179 
G01 X-48.8617 Y29.3258 
G01 X-48.9465 Y29.4526 
G01 X-49.0049 Y29.5936 
G01 X-49.0347 Y29.7433 
G01 X-49.0347 Y31.2167 
G01 X-49.0049 Y31.3664 
G01 X-48.9465 Y31.5074 
G01 X-48.8617 Y31.6342 
G01 X-48.7538 Y31.7421 
G01 X-48.6270 Y31.8269 
G01 X-48.4860 Y31.8853 
G01 X-48.3363 Y31.9151 
G01 X-48.1837 Y31.9151 
G01 X-48.0340 Y31.8853 
G01 X-47.8930 Y31.8269 
G01 X-47.7662 Y31.7421 
G01 X-47.6583 Y31.6342 
G01 X-47.5735 Y31.5074 
G01 X-47.5151 Y31.3664 
G01 X-47.4853 Y31.2167 
G00 Z2.5400 
G00 X-37.3253 Y31.2167 
G01 Z0.0000 F254.00 
G01 X-37.3253 Y29.7433 F508.00 
G01 X-37.3551 Y29.5936 
G01 X-37.4135 Y29.4526 
G01 X-37.4982 Y29.3258 
G01 X-37.6062 Y29.2179 
G01 X-37.7330 Y29.1331 
G01 X-37.8740 Y29.0747 
G01 X-37.8968 Y29.0701 
G01 X-37.8968 Y24.2699 
G01 X-37.8740 Y24.2653 
G01 X-37.7330 Y24.2069 
G01 X-37.6062 Y24.1221 
G01 X-37.4982 Y24.0142 
G01 X-37.4135 Y23.8874 
G01 X-37.3551 Y23.7464 
G01 X-37.3253 Y23.5967 
G01 X-37.3253 Y22.1233 
G01 X-37.3551 Y21.9736 
G01 X-37.4135 Y21.8326 
G01 X-37.4982 Y21.7058 
G01 X-37.6062 Y21.5979 
G01 X-37.7330 Y21.5131 
G01 X-37.8740 Y21.4547 
G01 X-38.0237 Y21.4249 
G01 X-38.1763 Y21.4249 
G01 X-38.3260 Y21.4547 
G01 X-38.4670 Y21.5131 
G01 X-38.5938 Y21.5979 
G01 X-38.7017 Y21.7058 
G01 X-38.7865 Y21.8326 
G01 X-38.8449 Y21.9736 
G01 X-38.8747 Y22.1233 
G01 X-38.8747 Y23.5967 
G01 X-38.8449 Y23.7464 
G01 X-38.7865 Y23.8874 
G01 X-38.7017 Y24.0142 
G01 X-38.5938 Y24.1221 
G01 X-38.4670 Y24.2069 
G01 X-38.3260 Y24.2653 
G01 X-38.3032 Y24.2699 
G01 X-38.3032 Y29.0701 
G01 X-38.3260 Y29.0747 
G01 X-38.4670 Y29.1331 
G01 X-38.5938 Y29.2179 
G01 X-38.7017 Y29.3258 
G01 X-38.7865 Y29.4526 
G01 X-38.8449 Y29.5936 
G01 X-38.8747 Y29.7433 
G01 X-38.8747 Y31.2167 
G01 X-38.8449 Y31.3664 
G01 X-38.7865 Y31.5074 
G01 X-38.7017 Y31.6342 
G01 X-38.5938 Y31.7421 
G01 X-38.4670 Y31.8269 
G01 X-38.3260 Y31.8853 
G01 X-38.1763 Y31.9151 
G01 X-38.0237 Y31.9151 
G01 X-37.8740 Y31.8853 
G01 X-37.7330 Y31.8269 
G01 X-37.6062 Y31.7421 
G01 X-37.4982 Y31.6342 
G01 X-37.4135 Y31.5074 
G01 X-37.3551 Y31.3664 
G01 X-37.3253 Y31.2167 
G00 Z2.5400 
G00 X-27.1653 Y31.2167 
G01 Z0.0000 F254.00 
G01 X-27.1653 Y29.7433 F508.00 
G01 X-27.1951 Y29.5936 
G01 X-27.2535 Y29.4526 
G01 X-27.3383 Y29.3258 
G01 X-27.4462 Y29.2179 
G01 X-27.5730 Y29.1331 
G01 X-27.7140 Y29.0747 
G01 X-27.7368 Y29.0701 
G01 X-27.7368 Y24.2699 
G01 X-27.7140 Y24.2653 
G01 X-27.5730 Y24.2069 
G01 X-27.4462 Y24.1221 
G01 X-27.3383 Y24.0142 
G01 X-27.2535 Y23.8874 
G01 X-27.1951 Y23.7464 
G01 X-27.1653 Y23.5967 
G01 X-27.1653 Y22.1233 
G01 X-27.1951 Y21.9736 
G01 X-27.2535 Y21.8326 
G01 X-27.3383 Y21.7058 
G01 X-27.4462 Y21.5979 
G01 X-27.5730 Y21.5131 
G01 X-27.7140 Y21.4547 
G01 X-27.8637 Y21.4249 
G01 X-28.0163 Y21.4249 
G01 X-28.1660 Y21.4547 
G01 X-28.3070 Y21.5131 
G01 X-28.4338 Y21.5979 
G01 X-28.5417 Y21.7058 
G01 X-28.6265 Y21.8326 
G01 X-28.6849 Y21.9736 
G01 X-28.7147 Y22.1233 
G01 X-28.7147 Y23.5967 
G01 X-28.6849 Y23.7464 
G01 X-28.6265 Y23.8874 
G01 X-28.5417 Y24.0142 
G01 X-28.4338 Y24.1221 
G01 X-28.3070 Y24.2069 
G01 X-28.1660 Y24.2653 
G01 X-28.1432 Y24.2699 
G01 X-28.1432 Y29.0701 
G01 X-28.1660 Y29.0747 
G01 X-28.3070 Y29.1331 
G01 X-28.4338 Y29.2179 
G01 X-28.5417 Y29.3258 
G01 X-28.6265 Y29.4526 
G01 X-28.6849 Y29.5936 
G01 X-28.7147 Y29.7433 
G01 X-28.7147 Y31.2167 
G01 X-28.6849 Y31.3664 
G01 X-28.6265 Y31.5074 
G01 X-28.5417 Y31.6342 
G01 X-28.4338 Y31.7421 
G01 X-28.3070 Y31.8269 
G01 X-28.1660 Y31.8853 
G01 X-28.0163 Y31.9151 
G01 X-27.8637 Y31.9151 
G01 X-27.7140 Y31.8853 
G01 X-27.5730 Y31.8269 
G01 X-27.4462 Y31.7421 
G01 X-27.3383 Y31.6342 
G01 X-27.2535 Y31.5074 
G01 X-27.1951 Y31.3664 
G01 X-27.1653 Y31.2167 
G00 Z2.5400 
G00 X-22.0853 Y31.2167 
G01 Z0.0000 F254.00 
G01 X-22.0853 Y29.7433 F508.00 
G01 X-22.1151 Y29.5936 
G01 X-22.1735 Y29.4526 
G01 X-22.2583 Y29.3258 
G01 X-22.3662 Y29.2179 
G01 X-22.4930 Y29.1331 
G01 X-22.6340 Y29.0747 
G01 X-22.6568 Y29.0701 
G01 X-22.6568 Y24.2699 
G01 X-22.6340 Y24.2653 
G01 X-22.4930 Y24.2069 
G01 X-22.3662 Y24.1221 
G01 X-22.2583 Y24.0142 
G01 X-22.1735 Y23.8874 
G01 X-22.1151 Y23.7464 
G01 X-22.0853 Y23.5967 
G01 X-22.0853 Y22.1233 
G01 X-22.1151 Y21.9736 
G01 X-22.1735 Y21.8326 
G01 X-22.2583 Y21.7058 
G01 X-22.3662 Y21.5979 
G01 X-22.4930 Y21.5131 
G01 X-22.6340 Y21.4547 
G01 X-22.7837 Y21.4249 
G01 X-22.9363 Y21.4249 
G01 X-23.0860 Y21.4547 
G01 X-23.2270 Y21.5131 
G01 X-23.3538 Y21.5979 
G01 X-23.4617 Y21.7058 
G01 X-23.5465 Y21.8326 
G01 X-23.6049 Y21.9736 
G01 X-23.6347 Y22.1233 
G01 X-23.6347 Y23.5967 
G01 X-23.6049 Y23.7464 
G01 X-23.5465 Y23.8874 
G01 X-23.4617 Y24.0142 
G01 X-23.3538 Y24.1221 
G01 X-23.2270 Y24.2069 
G01 X-23.0860 Y24.2653 
G01 X-23.0632 Y24.2699 
G01 X-23.0632 Y29.0701 
G01 X-23.0860 Y29.0747 
G01 X-23.2270 Y29.1331 
G01 X-23.3538 Y29.2179 
G01 X-23.4617 Y29.3258 
G01 X-23.5465 Y29.4526 
G01 X-23.6049 Y29.5936 
G01 X-23.6347 Y29.7433 
G01 X-23.6347 Y31.2167 
G01 X-23.6049 Y31.3664 
G01 X-23.5465 Y31.5074 
G01 X-23.4617 Y31.6342 
G01 X-23.3538 Y31.7421 
G01 X-23.2270 Y31.8269 
G01 X-23.0860 Y31.8853 
G01 X-22.9363 Y31.9151 
G01 X-22.7837 Y31.9151 
G01 X-22.6340 Y31.8853 
G01 X-22.4930 Y31.8269 
G01 X-22.3662 Y31.7421 
G01 X-22.2583 Y31.6342 
G01 X-22.1735 Y31.5074 
G01 X-22.1151 Y31.3664 
G01 X-22.0853 Y31.2167 
(Between Passes)
(Bottom between passes)
G00 Z2.5400 
G00 X-24.4983 Y23.6092 
G01 Z0.0000 F254.00 
G01 X-24.4983 Y22.1108 F508.00 
G01 X-24.5330 Y21.9366 
G01 X-24.6009 Y21.7725 
G01 X-24.6996 Y21.6248 
G01 X-24.8252 Y21.4992 
G01 X-24.9729 Y21.4005 
G01 X-25.1370 Y21.3326 
G01 X-25.3112 Y21.2979 
G01 X-25.4888 Y21.2979 
G01 X-25.6630 Y21.3326 
G01 X-25.8271 Y21.4005 
G01 X-25.9748 Y21.4992 
G01 X-26.1004 Y21.6248 
G01 X-26.1991 Y21.7725 
G01 X-26.2670 Y21.9366 
G01 X-26.3017 Y22.1108 
G01 X-26.3017 Y23.6092 
G01 X-26.2670 Y23.7834 
G01 X-26.1991 Y23.9475 
G01 X-26.1004 Y24.0952 
G01 X-25.9748 Y24.2208 
G01 X-25.8271 Y24.3195 
G01 X-25.7302 Y24.3596 
G01 X-25.7302 Y28.9804 
G01 X-25.8271 Y29.0205 
G01 X-25.9748 Y29.1192 
G01 X-26.1004 Y29.2448 
G01 X-26.1991 Y29.3925 
G01 X-26.2670 Y29.5566 
G01 X-26.3017 Y29.7308 
G01 X-26.3017 Y31.2292 
G01 X-26.2670 Y31.4034 
G01 X-26.1991 Y31.5675 
G01 X-26.1004 Y31.7152 
G01 X-25.9748 Y31.8408 
G01 X-25.8271 Y31.9395 
G01 X-25.6630 Y32.0074 
G01 X-25.4888 Y32.0421 
G01 X-25.3112 Y32.0421 
G01 X-25.1370 Y32.0074 
G01 X-24.9729 Y31.9395 
G01 X-24.8252 Y31.8408 
G01 X-24.6996 Y31.7152 
G01 X-24.6009 Y31.5675 
G01 X-24.5330 Y31.4034 
G01 X-24.4983 Y31.2292 
G01 X-24.4983 Y29.7308 
G01 X-24.5330 Y29.5566 
G01 X-24.6009 Y29.3925 
G01 X-24.6996 Y29.2448 
G01 X-24.8252 Y29.1192 
G01 X-24.9729 Y29.0205 
G01 X-25.0698 Y28.9804 
G01 X-25.0698 Y24.3596 
G01 X-24.9729 Y24.3195 
G01 X-24.8252 Y24.2208 
G01 X-24.6996 Y24.0952 
G01 X-24.6009 Y23.9475 
G01 X-24.5330 Y23.7834 
G01 X-24.4983 Y23.6092 
G00 Z2.5400 
G00 X-32.1183 Y23.6092 
G01 Z0.0000 F254.00 
G01 X-32.1183 Y22.1108 F508.00 
G01 X-32.1530 Y21.9366 
G01 X-32.2209 Y21.7725 
G01 X-32.3196 Y21.6248 
G01 X-32.4452 Y21.4992 
G01 X-32.5929 Y21.4005 
G01 X-32.7570 Y21.3326 
G01 X-32.9312 Y21.2979 
G01 X-33.1088 Y21.2979 
G01 X-33.2830 Y21.3326 
G01 X-33.4471 Y21.4005 
G01 X-33.5948 Y21.4992 
G01 X-33.7204 Y21.6248 
G01 X-33.8191 Y21.7725 
G01 X-33.8870 Y21.9366 
G01 X-33.9217 Y22.1108 
G01 X-33.9217 Y23.6092 
G01 X-33.8870 Y23.7834 
G01 X-33.8191 Y23.9475 
G01 X-33.7204 Y24.0952 
G01 X-33.5948 Y24.2208 
G01 X-33.4471 Y24.3195 
G01 X-33.2830 Y24.3874 
G01 X-33.1088 Y24.4221 
G01 X-32.9312 Y24.4221 
G01 X-32.7570 Y24.3874 
G01 X-32.6480 Y24.3423 
G01 X-32.0603 Y25.5178 
G01 X-32.0577 Y25.5275 
G01 X-32.0409 Y25.5565 
G01 X-32.0259 Y25.5866 
G01 X-32.0192 Y25.5941 
G01 X-32.0142 Y25.6027 
G01 X-31.9905 Y25.6265 
G01 X-31.9682 Y25.6516 
G01 X-31.9598 Y25.6571 
G01 X-30.9470 Y26.6700 
G01 X-31.9598 Y27.6829 
G01 X-31.9682 Y27.6884 
G01 X-31.9905 Y27.7135 
G01 X-32.0142 Y27.7373 
G01 X-32.0192 Y27.7459 
G01 X-32.0259 Y27.7534 
G01 X-32.0409 Y27.7835 
G01 X-32.0577 Y27.8125 
G01 X-32.0603 Y27.8222 
G01 X-32.6480 Y28.9977 
G01 X-32.7570 Y28.9526 
G01 X-32.9312 Y28.9179 
G01 X-33.1088 Y28.9179 
G01 X-33.2830 Y28.9526 
G01 X-33.4471 Y29.0205 
G01 X-33.5948 Y29.1192 
G01 X-33.7204 Y29.2448 
G01 X-33.8191 Y29.3925 
G01 X-33.8870 Y29.5566 
G01 X-33.9217 Y29.7308 
G01 X-33.9217 Y31.2292 
G01 X-33.8870 Y31.4034 
G01 X-33.8191 Y31.5675 
G01 X-33.7204 Y31.7152 
G01 X-33.5948 Y31.8408 
G01 X-33.4471 Y31.9395 
G01 X-33.2830 Y32.0074 
G01 X-33.1088 Y32.0421 
G01 X-32.9312 Y32.0421 
G01 X-32.7570 Y32.0074 
G01 X-32.5929 Y31.9395 
G01 X-32.4452 Y31.8408 
G01 X-32.3196 Y31.7152 
G01 X-32.2209 Y31.5675 
G01 X-32.1530 Y31.4034 
G01 X-32.1183 Y31.2292 
G01 X-32.1183 Y29.7308 
G01 X-32.1530 Y29.5566 
G01 X-32.1693 Y29.5170 
G01 X-31.4786 Y28.1356 
G01 X-30.4800 Y27.1370 
G01 X-29.6118 Y28.0052 
G01 X-30.1080 Y28.9977 
G01 X-30.2170 Y28.9526 
G01 X-30.3912 Y28.9179 
G01 X-30.5688 Y28.9179 
G01 X-30.7430 Y28.9526 
G01 X-30.9071 Y29.0205 
G01 X-31.0548 Y29.1192 
G01 X-31.1804 Y29.2448 
G01 X-31.2791 Y29.3925 
G01 X-31.3470 Y29.5566 
G01 X-31.3817 Y29.7308 
G01 X-31.3817 Y31.2292 
G01 X-31.3470 Y31.4034 
G01 X-31.2791 Y31.5675 
G01 X-31.1804 Y31.7152 
G01 X-31.0548 Y31.8408 
G01 X-30.9071 Y31.9395 
G01 X-30.7430 Y32.0074 
G01 X-30.5688 Y32.0421 
G01 X-30.3912 Y32.0421 
G01 X-30.2170 Y32.0074 
G01 X-30.0529 Y31.9395 
G01 X-29.9052 Y31.8408 
G01 X-29.7796 Y31.7152 
G01 X-29.6809 Y31.5675 
G01 X-29.6130 Y31.4034 
G01 X-29.5783 Y31.2292 
G01 X-29.5783 Y29.7308 
G01 X-29.6130 Y29.5566 
G01 X-29.6293 Y29.5170 
G01 X-28.9191 Y28.0965 
G01 X-28.9023 Y28.0675 
G01 X-28.8997 Y28.0578 
G01 X-28.8952 Y28.0488 
G01 X-28.8885 Y28.0159 
G01 X-28.8798 Y27.9835 
G01 X-28.8798 Y27.9734 
G01 X-28.8778 Y27.9636 
G01 X-28.8798 Y27.9301 
G01 X-28.8798 Y27.8965 
G01 X-28.8824 Y27.8868 
G01 X-28.8830 Y27.8768 
G01 X-28.8936 Y27.8449 
G01 X-28.9023 Y27.8125 
G01 X-28.9073 Y27.8039 
G01 X-28.9105 Y27.7943 
G01 X-28.9290 Y27.7663 
G01 X-28.9458 Y27.7373 
G01 X-28.9529 Y27.7302 
G01 X-28.9584 Y27.7218 
G01 X-28.9835 Y27.6995 
G01 X-30.0130 Y26.6700 
G01 X-28.9835 Y25.6405 
G01 X-28.9584 Y25.6182 
G01 X-28.9529 Y25.6098 
G01 X-28.9458 Y25.6027 
G01 X-28.9290 Y25.5737 
G01 X-28.9105 Y25.5457 
G01 X-28.9073 Y25.5361 
G01 X-28.9023 Y25.5275 
G01 X-28.8936 Y25.4951 
G01 X-28.8830 Y25.4632 
G01 X-28.8824 Y25.4532 
G01 X-28.8798 Y25.4435 
G01 X-28.8798 Y25.4099 
G01 X-28.8778 Y25.3764 
G01 X-28.8798 Y25.3666 
G01 X-28.8798 Y25.3565 
G01 X-28.8885 Y25.3241 
G01 X-28.8952 Y25.2912 
G01 X-28.8997 Y25.2822 
G01 X-28.9023 Y25.2725 
G01 X-28.9191 Y25.2435 
G01 X-29.6293 Y23.8230 
G01 X-29.6130 Y23.7834 
G01 X-29.5783 Y23.6092 
G01 X-29.5783 Y22.1108 
G01 X-29.6130 Y21.9366 
G01 X-29.6809 Y21.7725 
G01 X-29.7796 Y21.6248 
G01 X-29.9052 Y21.4992 
G01 X-30.0529 Y21.4005 
G01 X-30.2170 Y21.3326 
G01 X-30.3912 Y21.2979 
G01 X-30.5688 Y21.2979 
G01 X-30.7430 Y21.3326 
G01 X-30.9071 Y21.4005 
G01 X-31.0548 Y21.4992 
G01 X-31.1804 Y21.6248 
G01 X-31.2791 Y21.7725 
G01 X-31.3470 Y21.9366 
G01 X-31.3817 Y22.1108 
G01 X-31.3817 Y23.6092 
G01 X-31.3470 Y23.7834 
G01 X-31.2791 Y23.9475 
G01 X-31.1804 Y24.0952 
G01 X-31.0548 Y24.2208 
G01 X-30.9071 Y24.3195 
G01 X-30.7430 Y24.3874 
G01 X-30.5688 Y24.4221 
G01 X-30.3912 Y24.4221 
G01 X-30.2170 Y24.3874 
G01 X-30.1080 Y24.3423 
G01 X-29.6118 Y25.3348 
G01 X-30.4800 Y26.2030 
G01 X-31.4786 Y25.2044 
G01 X-32.1693 Y23.8230 
G01 X-32.1530 Y23.7834 
G01 X-32.1183 Y23.6092 
G00 Z2.5400 
G00 X-34.6583 Y23.6092 
G01 Z0.0000 F254.00 
G01 X-34.6583 Y22.1108 F508.00 
G01 X-34.6930 Y21.9366 
G01 X-34.7609 Y21.7725 
G01 X-34.8596 Y21.6248 
G01 X-34.9852 Y21.4992 
G01 X-35.1329 Y21.4005 
G01 X-35.2970 Y21.3326 
G01 X-35.4712 Y21.2979 
G01 X-35.6488 Y21.2979 
G01 X-35.8230 Y21.3326 
G01 X-35.9871 Y21.4005 
G01 X-36.1348 Y21.4992 
G01 X-36.2604 Y21.6248 
G01 X-36.3591 Y21.7725 
G01 X-36.4270 Y21.9366 
G01 X-36.4617 Y22.1108 
G01 X-36.4617 Y23.6092 
G01 X-36.4270 Y23.7834 
G01 X-36.3591 Y23.9475 
G01 X-36.2604 Y24.0952 
G01 X-36.1348 Y24.2208 
G01 X-35.9871 Y24.3195 
G01 X-35.8902 Y24.3596 
G01 X-35.8902 Y28.9804 
G01 X-35.9871 Y29.0205 
G01 X-36.1348 Y29.1192 
G01 X-36.2604 Y29.2448 
G01 X-36.3591 Y29.3925 
G01 X-36.4270 Y29.5566 
G01 X-36.4617 Y29.7308 
G01 X-36.4617 Y31.2292 
G01 X-36.4270 Y31.4034 
G01 X-36.3591 Y31.5675 
G01 X-36.2604 Y31.7152 
G01 X-36.1348 Y31.8408 
G01 X-35.9871 Y31.9395 
G01 X-35.8230 Y32.0074 
G01 X-35.6488 Y32.0421 
G01 X-35.4712 Y32.0421 
G01 X-35.2970 Y32.0074 
G01 X-35.1329 Y31.9395 
G01 X-34.9852 Y31.8408 
G01 X-34.8596 Y31.7152 
G01 X-34.7609 Y31.5675 
G01 X-34.6930 Y31.4034 
G01 X-34.6583 Y31.2292 
G01 X-34.6583 Y29.7308 
G01 X-34.6930 Y29.5566 
G01 X-34.7609 Y29.3925 
G01 X-34.8596 Y29.2448 
G01 X-34.9852 Y29.1192 
G01 X-35.1329 Y29.0205 
G01 X-35.2298 Y28.9804 
G01 X-35.2298 Y24.3596 
G01 X-35.1329 Y24.3195 
G01 X-34.9852 Y24.2208 
G01 X-34.8596 Y24.0952 
G01 X-34.7609 Y23.9475 
G01 X-34.6930 Y23.7834 
G01 X-34.6583 Y23.6092 
G00 Z2.5400 
G00 X-42.2783 Y23.6092 
G01 Z0.0000 F254.00 
G01 X-42.2783 Y23.1902 F508.00 
G01 X-41.5417 Y23.1902 
G01 X-41.5417 Y23.6092 
G01 X-41.5070 Y23.7834 
G01 X-41.4391 Y23.9475 
G01 X-41.3404 Y24.0952 
G01 X-41.2148 Y24.2208 
G01 X-41.0671 Y24.3195 
G01 X-40.9702 Y24.3596 
G01 X-40.9702 Y28.9804 
G01 X-41.0671 Y29.0205 
G01 X-41.2148 Y29.1192 
G01 X-41.3404 Y29.2448 
G01 X-41.4391 Y29.3925 
G01 X-41.5070 Y29.5566 
G01 X-41.5417 Y29.7308 
G01 X-41.5417 Y31.2292 
G01 X-41.5070 Y31.4034 
G01 X-41.4391 Y31.5675 
G01 X-41.3404 Y31.7152 
G01 X-41.2148 Y31.8408 
G01 X-41.0671 Y31.9395 
G01 X-40.9030 Y32.0074 
G01 X-40.7288 Y32.0421 
G01 X-40.5512 Y32.0421 
G01 X-40.3770 Y32.0074 
G01 X-40.2129 Y31.9395 
G01 X-40.0652 Y31.8408 
G01 X-39.9396 Y31.7152 
G01 X-39.8409 Y31.5675 
G01 X-39.7730 Y31.4034 
G01 X-39.7383 Y31.2292 
G01 X-39.7383 Y29.7308 
G01 X-39.7730 Y29.5566 
G01 X-39.8409 Y29.3925 
G01 X-39.9396 Y29.2448 
G01 X-40.0652 Y29.1192 
G01 X-40.2129 Y29.0205 
G01 X-40.3098 Y28.9804 
G01 X-40.3098 Y24.3596 
G01 X-40.2129 Y24.3195 
G01 X-40.0652 Y24.2208 
G01 X-39.9396 Y24.0952 
G01 X-39.8409 Y23.9475 
G01 X-39.7730 Y23.7834 
G01 X-39.7383 Y23.6092 
G01 X-39.7383 Y22.1108 
G01 X-39.7730 Y21.9366 
G01 X-39.8409 Y21.7725 
G01 X-39.9396 Y21.6248 
G01 X-40.0652 Y21.4992 
G01 X-40.2129 Y21.4005 
G01 X-40.3770 Y21.3326 
G01 X-40.5512 Y21.2979 
G01 X-40.7288 Y21.2979 
G01 X-40.9030 Y21.3326 
G01 X-41.0671 Y21.4005 
G01 X-41.2148 Y21.4992 
G01 X-41.3404 Y21.6248 
G01 X-41.4391 Y21.7725 
G01 X-41.5070 Y21.9366 
G01 X-41.5417 Y22.1108 
G01 X-41.5417 Y22.5298 
G01 X-42.2783 Y22.5298 
G01 X-42.2783 Y22.1108 
G01 X-42.3130 Y21.9366 
G01 X-42.3809 Y21.7725 
G01 X-42.4796 Y21.6248 
G01 X-42.6052 Y21.4992 
G01 X-42.7529 Y21.4005 
G01 X-42.9170 Y21.3326 
G01 X-43.0912 Y21.2979 
G01 X-43.2688 Y21.2979 
G01 X-43.4430 Y21.3326 
G01 X-43.6071 Y21.4005 
G01 X-43.7548 Y21.4992 
G01 X-43.8804 Y21.6248 
G01 X-43.9791 Y21.7725 
G01 X-44.0470 Y21.9366 
G01 X-44.0817 Y22.1108 
G01 X-44.0817 Y23.6092 
G01 X-44.0470 Y23.7834 
G01 X-43.9791 Y23.9475 
G01 X-43.8804 Y24.0952 
G01 X-43.7548 Y24.2208 
G01 X-43.6071 Y24.3195 
G01 X-43.5102 Y24.3596 
G01 X-43.5102 Y28.9804 
G01 X-43.6071 Y29.0205 
G01 X-43.7548 Y29.1192 
G01 X-43.8804 Y29.2448 
G01 X-43.9791 Y29.3925 
G01 X-44.0470 Y29.5566 
G01 X-44.0817 Y29.7308 
G01 X-44.0817 Y31.2292 
G01 X-44.0470 Y31.4034 
G01 X-43.9791 Y31.5675 
G01 X-43.8804 Y31.7152 
G01 X-43.7548 Y31.8408 
G01 X-43.6071 Y31.9395 
G01 X-43.4430 Y32.0074 
G01 X-43.2688 Y32.0421 
G01 X-43.0912 Y32.0421 
G01 X-42.9170 Y32.0074 
G01 X-42.7529 Y31.9395 
G01 X-42.6052 Y31.8408 
G01 X-42.4796 Y31.7152 
G01 X-42.3809 Y31.5675 
G01 X-42.3130 Y31.4034 
G01 X-42.2783 Y31.2292 
G01 X-42.2783 Y29.7308 
G01 X-42.3130 Y29.5566 
G01 X-42.3809 Y29.3925 
G01 X-42.4796 Y29.2448 
G01 X-42.6052 Y29.1192 
G01 X-42.7529 Y29.0205 
G01 X-42.8498 Y28.9804 
G01 X-42.8498 Y24.3596 
G01 X-42.7529 Y24.3195 
G01 X-42.6052 Y24.2208 
G01 X-42.4796 Y24.0952 
G01 X-42.3809 Y23.9475 
G01 X-42.3130 Y23.7834 
G01 X-42.2783 Y23.6092 
G00 Z2.5400 
G00 X-54.9783 Y23.6092 
G01 Z0.0000 F254.00 
G01 X-54.9783 Y22.1108 F508.00 
G01 X-55.0130 Y21.9366 
G01 X-55.0809 Y21.7725 
G01 X-55.1796 Y21.6248 
G01 X-55.3052 Y21.4992 
G01 X-55.4529 Y21.4005 
G01 X-55.6170 Y21.3326 
G01 X-55.7912 Y21.2979 
G01 X-55.9688 Y21.2979 
G01 X-56.1430 Y21.3326 
G01 X-56.3071 Y21.4005 
G01 X-56.4548 Y21.4992 
G01 X-56.5804 Y21.6248 
G01 X-56.6791 Y21.7725 
G01 X-56.7470 Y21.9366 
G01 X-56.7817 Y22.1108 
G01 X-56.7817 Y23.6092 
G01 X-56.7470 Y23.7834 
G01 X-56.6791 Y23.9475 
G01 X-56.5804 Y24.0952 
G01 X-56.4548 Y24.2208 
G01 X-56.3071 Y24.3195 
G01 X-56.2102 Y24.3596 
G01 X-56.2102 Y28.9804 
G01 X-56.3071 Y29.0205 
G01 X-56.4548 Y29.1192 
G01 X-56.5804 Y29.2448 
G01 X-56.6791 Y29.3925 
G01 X-56.7470 Y29.5566 
G01 X-56.7817 Y29.7308 
G01 X-56.7817 Y31.2292 
G01 X-56.7470 Y31.4034 
G01 X-56.6791 Y31.5675 
G01 X-56.5804 Y31.7152 
G01 X-56.4548 Y31.8408 
G01 X-56.3071 Y31.9395 
G01 X-56.1430 Y32.0074 
G01 X-55.9688 Y32.0421 
G01 X-55.7912 Y32.0421 
G01 X-55.6170 Y32.0074 
G01 X-55.4529 Y31.9395 
G01 X-55.3052 Y31.8408 
G01 X-55.1796 Y31.7152 
G01 X-55.0809 Y31.5675 
G01 X-55.0130 Y31.4034 
G01 X-54.9783 Y31.2292 
G01 X-54.9783 Y30.8102 
G01 X-54.2417 Y30.8102 
G01 X-54.2417 Y31.2292 
G01 X-54.2070 Y31.4034 
G01 X-54.1391 Y31.5675 
G01 X-54.0404 Y31.7152 
G01 X-53.9148 Y31.8408 
G01 X-53.7671 Y31.9395 
G01 X-53.6030 Y32.0074 
G01 X-53.4288 Y32.0421 
G01 X-53.2512 Y32.0421 
G01 X-53.0770 Y32.0074 
G01 X-52.9129 Y31.9395 
G01 X-52.7652 Y31.8408 
G01 X-52.6396 Y31.7152 
G01 X-52.5409 Y31.5675 
G01 X-52.4730 Y31.4034 
G01 X-52.4383 Y31.2292 
G01 X-52.4383 Y30.0453 
G01 X-51.8058 Y29.4127 
G01 X-51.7623 Y29.3375 
G01 X-51.7398 Y29.2535 
G01 X-51.7398 Y29.1665 
G01 X-51.7623 Y29.0825 
G01 X-51.8058 Y29.0073 
G01 X-51.8673 Y28.9458 
G01 X-54.2798 Y26.5332 
G01 X-54.2798 Y25.4779 
G01 X-53.7120 Y24.3423 
G01 X-53.6030 Y24.3874 
G01 X-53.4288 Y24.4221 
G01 X-53.2512 Y24.4221 
G01 X-53.0770 Y24.3874 
G01 X-52.9129 Y24.3195 
G01 X-52.7652 Y24.2208 
G01 X-52.6396 Y24.0952 
G01 X-52.5409 Y23.9475 
G01 X-52.4730 Y23.7834 
G01 X-52.4383 Y23.6092 
G01 X-52.4383 Y23.1902 
G01 X-51.7017 Y23.1902 
G01 X-51.7017 Y23.6092 
G01 X-51.6670 Y23.7834 
G01 X-51.5991 Y23.9475 
G01 X-51.5004 Y24.0952 
G01 X-51.3748 Y24.2208 
G01 X-51.2271 Y24.3195 
G01 X-51.0630 Y24.3874 
G01 X-50.8888 Y24.4221 
G01 X-50.7112 Y24.4221 
G01 X-50.5370 Y24.3874 
G01 X-50.3729 Y24.3195 
G01 X-50.2252 Y24.2208 
G01 X-50.0996 Y24.0952 
G01 X-50.0724 Y24.0545 
G01 X-49.9970 Y24.1300 
G01 X-52.3342 Y26.4672 
G01 X-52.3777 Y26.5425 
G01 X-52.4002 Y26.6265 
G01 X-52.4002 Y26.7135 
G01 X-52.3777 Y26.7975 
G01 X-52.3342 Y26.8727 
G01 X-52.2727 Y26.9342 
G01 X-49.9970 Y29.2100 
G01 X-50.0724 Y29.2855 
G01 X-50.0996 Y29.2448 
G01 X-50.2252 Y29.1192 
G01 X-50.3729 Y29.0205 
G01 X-50.5370 Y28.9526 
G01 X-50.7112 Y28.9179 
G01 X-50.8888 Y28.9179 
G01 X-51.0630 Y28.9526 
G01 X-51.2271 Y29.0205 
G01 X-51.3748 Y29.1192 
G01 X-51.5004 Y29.2448 
G01 X-51.5991 Y29.3925 
G01 X-51.6670 Y29.5566 
G01 X-51.7017 Y29.7308 
G01 X-51.7017 Y31.2292 
G01 X-51.6670 Y31.4034 
G01 X-51.5991 Y31.5675 
G01 X-51.5004 Y31.7152 
G01 X-51.3748 Y31.8408 
G01 X-51.2271 Y31.9395 
G01 X-51.0630 Y32.0074 
G01 X-50.8888 Y32.0421 
G01 X-50.7112 Y32.0421 
G01 X-50.5370 Y32.0074 
G01 X-50.3729 Y31.9395 
G01 X-50.2252 Y31.8408 
G01 X-50.0996 Y31.7152 
G01 X-50.0009 Y31.5675 
G01 X-49.9330 Y31.4034 
G01 X-49.8983 Y31.2292 
G01 X-49.8983 Y30.0453 
G01 X-49.3272 Y29.4742 
G01 X-49.2658 Y29.4127 
G01 X-49.2223 Y29.3375 
G01 X-49.1998 Y29.2535 
G01 X-49.1998 Y29.1665 
G01 X-49.2223 Y29.0825 
G01 X-49.2658 Y29.0073 
G01 X-51.6030 Y26.6700 
G01 X-49.3272 Y24.3942 
G01 X-49.2658 Y24.3327 
G01 X-49.2223 Y24.2575 
G01 X-49.1998 Y24.1735 
G01 X-49.1998 Y24.0865 
G01 X-49.2223 Y24.0025 
G01 X-49.2658 Y23.9273 
G01 X-49.8983 Y23.2947 
G01 X-49.8983 Y22.1108 
G01 X-49.9330 Y21.9366 
G01 X-50.0009 Y21.7725 
G01 X-50.0996 Y21.6248 
G01 X-50.2252 Y21.4992 
G01 X-50.3729 Y21.4005 
G01 X-50.5370 Y21.3326 
G01 X-50.7112 Y21.2979 
G01 X-50.8888 Y21.2979 
G01 X-51.0630 Y21.3326 
G01 X-51.2271 Y21.4005 
G01 X-51.3748 Y21.4992 
G01 X-51.5004 Y21.6248 
G01 X-51.5991 Y21.7725 
G01 X-51.6670 Y21.9366 
G01 X-51.7017 Y22.1108 
G01 X-51.7017 Y22.5298 
G01 X-52.4383 Y22.5298 
G01 X-52.4383 Y22.1108 
G01 X-52.4730 Y21.9366 
G01 X-52.5409 Y21.7725 
G01 X-52.6396 Y21.6248 
G01 X-52.7652 Y21.4992 
G01 X-52.9129 Y21.4005 
G01 X-53.0770 Y21.3326 
G01 X-53.2512 Y21.2979 
G01 X-53.4288 Y21.2979 
G01 X-53.6030 Y21.3326 
G01 X-53.7671 Y21.4005 
G01 X-53.9148 Y21.4992 
G01 X-54.0404 Y21.6248 
G01 X-54.1391 Y21.7725 
G01 X-54.2070 Y21.9366 
G01 X-54.2417 Y22.1108 
G01 X-54.2417 Y23.6092 
G01 X-54.2070 Y23.7834 
G01 X-54.1907 Y23.8230 
G01 X-54.9009 Y25.2435 
G01 X-54.9177 Y25.2725 
G01 X-54.9203 Y25.2822 
G01 X-54.9248 Y25.2912 
G01 X-54.9315 Y25.3241 
G01 X-54.9402 Y25.3565 
G01 X-54.9402 Y25.3666 
G01 X-54.9422 Y25.3764 
G01 X-54.9402 Y25.4099 
G01 X-54.9402 Y26.7135 
G01 X-54.9177 Y26.7975 
G01 X-54.8742 Y26.8727 
G01 X-52.5370 Y29.2100 
G01 X-52.6124 Y29.2855 
G01 X-52.6396 Y29.2448 
G01 X-52.7652 Y29.1192 
G01 X-52.9129 Y29.0205 
G01 X-53.0770 Y28.9526 
G01 X-53.2512 Y28.9179 
G01 X-53.4288 Y28.9179 
G01 X-53.6030 Y28.9526 
G01 X-53.7671 Y29.0205 
G01 X-53.9148 Y29.1192 
G01 X-54.0404 Y29.2448 
G01 X-54.1391 Y29.3925 
G01 X-54.2070 Y29.5566 
G01 X-54.2417 Y29.7308 
G01 X-54.2417 Y30.1498 
G01 X-54.9783 Y30.1498 
G01 X-54.9783 Y29.7308 
G01 X-55.0130 Y29.5566 
G01 X-55.0809 Y29.3925 
G01 X-55.1796 Y29.2448 
G01 X-55.3052 Y29.1192 
G01 X-55.4529 Y29.0205 
G01 X-55.5498 Y28.9804 
G01 X-55.5498 Y24.3596 
G01 X-55.4529 Y24.3195 
G01 X-55.3052 Y24.2208 
G01 X-55.1796 Y24.0952 
G01 X-55.0809 Y23.9475 
G01 X-55.0130 Y23.7834 
G01 X-54.9783 Y23.6092 
G00 Z2.5400 
G00 X-47.3583 Y31.2292 
G01 Z0.0000 F254.00 
G01 X-47.3583 Y29.7308 F508.00 
G01 X-47.3930 Y29.5566 
G01 X-47.4093 Y29.5170 
G01 X-46.7186 Y28.1356 
G01 X-45.0850 Y26.5020 
G01 X-44.8278 Y26.7592 
G01 X-45.5526 Y28.9335 
G01 X-45.6312 Y28.9179 
G01 X-45.8088 Y28.9179 
G01 X-45.9830 Y28.9526 
G01 X-46.1471 Y29.0205 
G01 X-46.2948 Y29.1192 
G01 X-46.4204 Y29.2448 
G01 X-46.5191 Y29.3925 
G01 X-46.5870 Y29.5566 
G01 X-46.6217 Y29.7308 
G01 X-46.6217 Y31.2292 
G01 X-46.5870 Y31.4034 
G01 X-46.5191 Y31.5675 
G01 X-46.4204 Y31.7152 
G01 X-46.2948 Y31.8408 
G01 X-46.1471 Y31.9395 
G01 X-45.9830 Y32.0074 
G01 X-45.8088 Y32.0421 
G01 X-45.6312 Y32.0421 
G01 X-45.4570 Y32.0074 
G01 X-45.2929 Y31.9395 
G01 X-45.1452 Y31.8408 
G01 X-45.0196 Y31.7152 
G01 X-44.9209 Y31.5675 
G01 X-44.8530 Y31.4034 
G01 X-44.8183 Y31.2292 
G01 X-44.8183 Y29.7308 
G01 X-44.8530 Y29.5566 
G01 X-44.9209 Y29.3925 
G01 X-44.9800 Y29.3041 
G01 X-44.1473 Y26.8061 
G01 X-44.1423 Y26.7975 
G01 X-44.1336 Y26.7651 
G01 X-44.1230 Y26.7332 
G01 X-44.1224 Y26.7232 
G01 X-44.1198 Y26.7135 
G01 X-44.1198 Y26.6799 
G01 X-44.1178 Y26.6464 
G01 X-44.1198 Y26.6366 
G01 X-44.1198 Y26.6265 
G01 X-44.1285 Y26.5941 
G01 X-44.1352 Y26.5612 
G01 X-44.1397 Y26.5522 
G01 X-44.1423 Y26.5425 
G01 X-44.1591 Y26.5135 
G01 X-44.1741 Y26.4834 
G01 X-44.1808 Y26.4759 
G01 X-44.1858 Y26.4672 
G01 X-44.2095 Y26.4435 
G01 X-44.2318 Y26.4184 
G01 X-44.2402 Y26.4129 
G01 X-44.6180 Y26.0350 
G01 X-44.2235 Y25.6405 
G01 X-44.1984 Y25.6182 
G01 X-44.1929 Y25.6098 
G01 X-44.1858 Y25.6027 
G01 X-44.1690 Y25.5737 
G01 X-44.1505 Y25.5457 
G01 X-44.1473 Y25.5361 
G01 X-44.1423 Y25.5275 
G01 X-44.1336 Y25.4951 
G01 X-44.1230 Y25.4632 
G01 X-44.1224 Y25.4532 
G01 X-44.1198 Y25.4435 
G01 X-44.1198 Y25.4099 
G01 X-44.1178 Y25.3764 
G01 X-44.1198 Y25.3666 
G01 X-44.1198 Y25.3565 
G01 X-44.1285 Y25.3241 
G01 X-44.1352 Y25.2912 
G01 X-44.1397 Y25.2822 
G01 X-44.1423 Y25.2725 
G01 X-44.1591 Y25.2435 
G01 X-44.8693 Y23.8230 
G01 X-44.8530 Y23.7834 
G01 X-44.8183 Y23.6092 
G01 X-44.8183 Y22.1108 
G01 X-44.8530 Y21.9366 
G01 X-44.9209 Y21.7725 
G01 X-45.0196 Y21.6248 
G01 X-45.1452 Y21.4992 
G01 X-45.2929 Y21.4005 
G01 X-45.4570 Y21.3326 
G01 X-45.6312 Y21.2979 
G01 X-45.8088 Y21.2979 
G01 X-45.9830 Y21.3326 
G01 X-46.1471 Y21.4005 
G01 X-46.2948 Y21.4992 
G01 X-46.4204 Y21.6248 
G01 X-46.5191 Y21.7725 
G01 X-46.5870 Y21.9366 
G01 X-46.6217 Y22.1108 
G01 X-46.6217 Y23.6092 
G01 X-46.5870 Y23.7834 
G01 X-46.5191 Y23.9475 
G01 X-46.4204 Y24.0952 
G01 X-46.2948 Y24.2208 
G01 X-46.1471 Y24.3195 
G01 X-45.9830 Y24.3874 
G01 X-45.8088 Y24.4221 
G01 X-45.6312 Y24.4221 
G01 X-45.4570 Y24.3874 
G01 X-45.3480 Y24.3423 
G01 X-44.8518 Y25.3348 
G01 X-45.0850 Y25.5680 
G01 X-47.3583 Y23.2947 
G01 X-47.3583 Y22.1108 
G01 X-47.3930 Y21.9366 
G01 X-47.4609 Y21.7725 
G01 X-47.5596 Y21.6248 
G01 X-47.6852 Y21.4992 
G01 X-47.8329 Y21.4005 
G01 X-47.9970 Y21.3326 
G01 X-48.1712 Y21.2979 
G01 X-48.3488 Y21.2979 
G01 X-48.5230 Y21.3326 
G01 X-48.6871 Y21.4005 
G01 X-48.8348 Y21.4992 
G01 X-48.9604 Y21.6248 
G01 X-49.0591 Y21.7725 
G01 X-49.1270 Y21.9366 
G01 X-49.1617 Y22.1108 
G01 X-49.1617 Y23.6092 
G01 X-49.1270 Y23.7834 
G01 X-49.0591 Y23.9475 
G01 X-48.9604 Y24.0952 
G01 X-48.8348 Y24.2208 
G01 X-48.6871 Y24.3195 
G01 X-48.5230 Y24.3874 
G01 X-48.3488 Y24.4221 
G01 X-48.1712 Y24.4221 
G01 X-47.9970 Y24.3874 
G01 X-47.8329 Y24.3195 
G01 X-47.6852 Y24.2208 
G01 X-47.5596 Y24.0952 
G01 X-47.5324 Y24.0545 
G01 X-45.5520 Y26.0350 
G01 X-47.1998 Y27.6829 
G01 X-47.2082 Y27.6884 
G01 X-47.2305 Y27.7135 
G01 X-47.2542 Y27.7373 
G01 X-47.2592 Y27.7459 
G01 X-47.2659 Y27.7534 
G01 X-47.2809 Y27.7835 
G01 X-47.2977 Y27.8125 
G01 X-47.3003 Y27.8222 
G01 X-47.8880 Y28.9977 
G01 X-47.9970 Y28.9526 
G01 X-48.1712 Y28.9179 
G01 X-48.3488 Y28.9179 
G01 X-48.5230 Y28.9526 
G01 X-48.6871 Y29.0205 
G01 X-48.8348 Y29.1192 
G01 X-48.9604 Y29.2448 
G01 X-49.0591 Y29.3925 
G01 X-49.1270 Y29.5566 
G01 X-49.1617 Y29.7308 
G01 X-49.1617 Y31.2292 
G01 X-49.1270 Y31.4034 
G01 X-49.0591 Y31.5675 
G01 X-48.9604 Y31.7152 
G01 X-48.8348 Y31.8408 
G01 X-48.6871 Y31.9395 
G01 X-48.5230 Y32.0074 
G01 X-48.3488 Y32.0421 
G01 X-48.1712 Y32.0421 
G01 X-47.9970 Y32.0074 
G01 X-47.8329 Y31.9395 
G01 X-47.6852 Y31.8408 
G01 X-47.5596 Y31.7152 
G01 X-47.4609 Y31.5675 
G01 X-47.3930 Y31.4034 
G01 X-47.3583 Y31.2292 
G00 Z2.5400 
G00 X-37.1983 Y31.2292 
G01 Z0.0000 F254.00 
G01 X-37.1983 Y29.7308 F508.00 
G01 X-37.2330 Y29.5566 
G01 X-37.3009 Y29.3925 
G01 X-37.3996 Y29.2448 
G01 X-37.5252 Y29.1192 
G01 X-37.6729 Y29.0205 
G01 X-37.7698 Y28.9804 
G01 X-37.7698 Y24.3596 
G01 X-37.6729 Y24.3195 
G01 X-37.5252 Y24.2208 
G01 X-37.3996 Y24.0952 
G01 X-37.3009 Y23.9475 
G01 X-37.2330 Y23.7834 
G01 X-37.1983 Y23.6092 
G01 X-37.1983 Y22.1108 
G01 X-37.2330 Y21.9366 
G01 X-37.3009 Y21.7725 
G01 X-37.3996 Y21.6248 
G01 X-37.5252 Y21.4992 
G01 X-37.6729 Y21.4005 
G01 X-37.8370 Y21.3326 
G01 X-38.0112 Y21.2979 
G01 X-38.1888 Y21.2979 
G01 X-38.3630 Y21.3326 
G01 X-38.5271 Y21.4005 
G01 X-38.6748 Y21.4992 
G01 X-38.8004 Y21.6248 
G01 X-38.8991 Y21.7725 
G01 X-38.9670 Y21.9366 
G01 X-39.0017 Y22.1108 
G01 X-39.0017 Y23.6092 
G01 X-38.9670 Y23.7834 
G01 X-38.8991 Y23.9475 
G01 X-38.8004 Y24.0952 
G01 X-38.6748 Y24.2208 
G01 X-38.5271 Y24.3195 
G01 X-38.4302 Y24.3596 
G01 X-38.4302 Y28.9804 
G01 X-38.5271 Y29.0205 
G01 X-38.6748 Y29.1192 
G01 X-38.8004 Y29.2448 
G01 X-38.8991 Y29.3925 
G01 X-38.9670 Y29.5566 
G01 X-39.0017 Y29.7308 
G01 X-39.0017 Y31.2292 
G01 X-38.9670 Y31.4034 
G01 X-38.8991 Y31.5675 
G01 X-38.8004 Y31.7152 
G01 X-38.6748 Y31.8408 
G01 X-38.5271 Y31.9395 
G01 X-38.3630 Y32.0074 
G01 X-38.1888 Y32.0421 
G01 X-38.0112 Y32.0421 
G01 X-37.8370 Y32.0074 
G01 X-37.6729 Y31.9395 
G01 X-37.5252 Y31.8408 
G01 X-37.3996 Y31.7152 
G01 X-37.3009 Y31.5675 
G01 X-37.2330 Y31.4034 
G01 X-37.1983 Y31.2292 
G00 Z2.5400 
G00 X-27.0383 Y31.2292 
G01 Z0.0000 F254.00 
G01 X-27.0383 Y29.7308 F508.00 
G01 X-27.0730 Y29.5566 
G01 X-27.1409 Y29.3925 
G01 X-27.2396 Y29.2448 
G01 X-27.3652 Y29.1192 
G01 X-27.5129 Y29.0205 
G01 X-27.6098 Y28.9804 
G01 X-27.6098 Y24.3596 
G01 X-27.5129 Y24.3195 
G01 X-27.3652 Y24.2208 
G01 X-27.2396 Y24.0952 
G01 X-27.1409 Y23.9475 
G01 X-27.0730 Y23.7834 
G01 X-27.0383 Y23.6092 
G01 X-27.0383 Y22.1108 
G01 X-27.0730 Y21.9366 
G01 X-27.1409 Y21.7725 
G01 X-27.2396 Y21.6248 
G01 X-27.3652 Y21.4992 
G01 X-27.5129 Y21.4005 
G01 X-27.6770 Y21.3326 
G01 X-27.8512 Y21.2979 
G01 X-28.0288 Y21.2979 
G01 X-28.2030 Y21.3326 
G01 X-28.3671 Y21.4005 
G01 X-28.5148 Y21.4992 
G01 X-28.6404 Y21.6248 
G01 X-28.7391 Y21.7725 
G01 X-28.8070 Y21.9366 
G01 X-28.8417 Y22.1108 
G01 X-28.8417 Y23.6092 
G01 X-28.8070 Y23.7834 
G01 X-28.7391 Y23.9475 
G01 X-28.6404 Y24.0952 
G01 X-28.5148 Y24.2208 
G01 X-28.3671 Y24.3195 
G01 X-28.2702 Y24.3596 
G01 X-28.2702 Y28.9804 
G01 X-28.3671 Y29.0205 
G01 X-28.5148 Y29.1192 
G01 X-28.6404 Y29.2448 
G01 X-28.7391 Y29.3925 
G01 X-28.8070 Y29.5566 
G01 X-28.8417 Y29.7308 
G01 X-28.8417 Y31.2292 
G01 X-28.8070 Y31.4034 
G01 X-28.7391 Y31.5675 
G01 X-28.6404 Y31.7152 
G01 X-28.5148 Y31.8408 
G01 X-28.3671 Y31.9395 
G01 X-28.2030 Y32.0074 
G01 X-28.0288 Y32.0421 
G01 X-27.8512 Y32.0421 
G01 X-27.6770 Y32.0074 
G01 X-27.5129 Y31.9395 
G01 X-27.3652 Y31.8408 
G01 X-27.2396 Y31.7152 
G01 X-27.1409 Y31.5675 
G01 X-27.0730 Y31.4034 
G01 X-27.0383 Y31.2292 
G00 Z2.5400 
G00 X-21.9583 Y31.2292 
G01 Z0.0000 F254.00 
G01 X-21.9583 Y29.7308 F508.00 
G01 X-21.9930 Y29.5566 
G01 X-22.0609 Y29.3925 
G01 X-22.1596 Y29.2448 
G01 X-22.2852 Y29.1192 
G01 X-22.4329 Y29.0205 
G01 X-22.5298 Y28.9804 
G01 X-22.5298 Y24.3596 
G01 X-22.4329 Y24.3195 
G01 X-22.2852 Y24.2208 
G01 X-22.1596 Y24.0952 
G01 X-22.0609 Y23.9475 
G01 X-21.9930 Y23.7834 
G01 X-21.9583 Y23.6092 
G01 X-21.9583 Y22.1108 
G01 X-21.9930 Y21.9366 
G01 X-22.0609 Y21.7725 
G01 X-22.1596 Y21.6248 
G01 X-22.2852 Y21.4992 
G01 X-22.4329 Y21.4005 
G01 X-22.5970 Y21.3326 
G01 X-22.7712 Y21.2979 
G01 X-22.9488 Y21.2979 
G01 X-23.1230 Y21.3326 
G01 X-23.2871 Y21.4005 
G01 X-23.4348 Y21.4992 
G01 X-23.5604 Y21.6248 
G01 X-23.6591 Y21.7725 
G01 X-23.7270 Y21.9366 
G01 X-23.7617 Y22.1108 
G01 X-23.7617 Y23.6092 
G01 X-23.7270 Y23.7834 
G01 X-23.6591 Y23.9475 
G01 X-23.5604 Y24.0952 
G01 X-23.4348 Y24.2208 
G01 X-23.2871 Y24.3195 
G01 X-23.1902 Y24.3596 
G01 X-23.1902 Y28.9804 
G01 X-23.2871 Y29.0205 
G01 X-23.4348 Y29.1192 
G01 X-23.5604 Y29.2448 
G01 X-23.6591 Y29.3925 
G01 X-23.7270 Y29.5566 
G01 X-23.7617 Y29.7308 
G01 X-23.7617 Y31.2292 
G01 X-23.7270 Y31.4034 
G01 X-23.6591 Y31.5675 
G01 X-23.5604 Y31.7152 
G01 X-23.4348 Y31.8408 
G01 X-23.2871 Y31.9395 
G01 X-23.1230 Y32.0074 
G01 X-22.9488 Y32.0421 
G01 X-22.7712 Y32.0421 
G01 X-22.5970 Y32.0074 
G01 X-22.4329 Y31.9395 
G01 X-22.2852 Y31.8408 
G01 X-22.1596 Y31.7152 
G01 X-22.0609 Y31.5675 
G01 X-21.9930 Y31.4034 
G01 X-21.9583 Y31.2292 
(Between Passes)
(Bottom between passes)
G00 Z2.5400 
G00 X-54.1528 Y25.5079 
G01 Z0.0000 F254.00 
G01 X-53.6513 Y24.5049 F508.00 
G01 X-53.6401 Y24.5096 
G01 X-53.4413 Y24.5491 
G01 X-53.2387 Y24.5491 
G01 X-53.0399 Y24.5096 
G01 X-52.8527 Y24.4320 
G01 X-52.6842 Y24.3194 
G01 X-52.5410 Y24.1762 
G01 X-52.4284 Y24.0077 
G01 X-52.3508 Y23.8205 
G01 X-52.3113 Y23.6217 
G01 X-52.3113 Y23.3172 
G01 X-51.8287 Y23.3172 
G01 X-51.8287 Y23.6217 
G01 X-51.7892 Y23.8205 
G01 X-51.7116 Y24.0077 
G01 X-51.5990 Y24.1762 
G01 X-51.4558 Y24.3194 
G01 X-51.2873 Y24.4320 
G01 X-51.1001 Y24.5096 
G01 X-50.9013 Y24.5491 
G01 X-50.6987 Y24.5491 
G01 X-50.5701 Y24.5235 
G01 X-52.4359 Y26.3893 
G01 X-52.4960 Y26.4935 
G01 X-52.5272 Y26.6098 
G01 X-52.5272 Y26.7302 
G01 X-52.4960 Y26.8465 
G01 X-52.4359 Y26.9507 
G01 X-52.3507 Y27.0358 
G01 X-50.5701 Y28.8165 
G01 X-50.6987 Y28.7909 
G01 X-50.9013 Y28.7909 
G01 X-51.1001 Y28.8304 
G01 X-51.2873 Y28.9080 
G01 X-51.4558 Y29.0206 
G01 X-51.5990 Y29.1638 
G01 X-51.6128 Y29.1844 
G01 X-51.6128 Y29.1498 
G01 X-51.6440 Y29.0335 
G01 X-51.7041 Y28.9293 
G01 X-51.7893 Y28.8441 
G01 X-54.1528 Y26.4806 
G01 X-54.1528 Y25.5079 
G00 Z2.5400 
G00 X-49.0590 Y24.1762 
G01 Z0.0000 F254.00 
G01 X-48.9158 Y24.3194 F508.00 
G01 X-48.7473 Y24.4320 
G01 X-48.5601 Y24.5096 
G01 X-48.3613 Y24.5491 
G01 X-48.1587 Y24.5491 
G01 X-47.9599 Y24.5096 
G01 X-47.7727 Y24.4320 
G01 X-47.6042 Y24.3194 
G01 X-47.5257 Y24.2409 
G01 X-45.7316 Y26.0350 
G01 X-47.2806 Y27.5840 
G01 X-47.2921 Y27.5916 
G01 X-47.3230 Y27.6264 
G01 X-47.3559 Y27.6593 
G01 X-47.3628 Y27.6713 
G01 X-47.3720 Y27.6817 
G01 X-47.3928 Y27.7233 
G01 X-47.4160 Y27.7635 
G01 X-47.4196 Y27.7769 
G01 X-47.9487 Y28.8351 
G01 X-47.9599 Y28.8304 
G01 X-48.1587 Y28.7909 
G01 X-48.3613 Y28.7909 
G01 X-48.5601 Y28.8304 
G01 X-48.7473 Y28.9080 
G01 X-48.9158 Y29.0206 
G01 X-49.0590 Y29.1638 
G01 X-49.0728 Y29.1844 
G01 X-49.0728 Y29.1498 
G01 X-49.1040 Y29.0335 
G01 X-49.1641 Y28.9293 
G01 X-51.4234 Y26.6700 
G01 X-49.2493 Y24.4959 
G01 X-49.1641 Y24.4107 
G01 X-49.1040 Y24.3065 
G01 X-49.0728 Y24.1902 
G01 X-49.0728 Y24.1556 
G01 X-49.0590 Y24.1762 
G00 Z2.5400 
G00 X-45.9499 Y24.5235 
G01 Z0.0000 F254.00 
G01 X-45.8213 Y24.5491 F508.00 
G01 X-45.6187 Y24.5491 
G01 X-45.4199 Y24.5096 
G01 X-45.4087 Y24.5049 
G01 X-45.0063 Y25.3097 
G01 X-45.0850 Y25.3884 
G01 X-45.9499 Y24.5235 
G00 Z2.5400 
G00 X-24.3713 Y23.6217 
G01 Z0.0000 F254.00 
G01 X-24.3713 Y22.0983 F508.00 
G01 X-24.4108 Y21.8995 
G01 X-24.4884 Y21.7123 
G01 X-24.6010 Y21.5438 
G01 X-24.7442 Y21.4006 
G01 X-24.9127 Y21.2880 
G01 X-25.0999 Y21.2104 
G01 X-25.2987 Y21.1709 
G01 X-25.5013 Y21.1709 
G01 X-25.7001 Y21.2104 
G01 X-25.8873 Y21.2880 
G01 X-26.0558 Y21.4006 
G01 X-26.1990 Y21.5438 
G01 X-26.3116 Y21.7123 
G01 X-26.3892 Y21.8995 
G01 X-26.4287 Y22.0983 
G01 X-26.4287 Y23.6217 
G01 X-26.3892 Y23.8205 
G01 X-26.3116 Y24.0077 
G01 X-26.1990 Y24.1762 
G01 X-26.0558 Y24.3194 
G01 X-25.8873 Y24.4320 
G01 X-25.8572 Y24.4445 
G01 X-25.8572 Y28.8955 
G01 X-25.8873 Y28.9080 
G01 X-26.0558 Y29.0206 
G01 X-26.1990 Y29.1638 
G01 X-26.3116 Y29.3323 
G01 X-26.3892 Y29.5195 
G01 X-26.4287 Y29.7183 
G01 X-26.4287 Y31.2417 
G01 X-26.3892 Y31.4405 
G01 X-26.3116 Y31.6277 
G01 X-26.1990 Y31.7962 
G01 X-26.0558 Y31.9394 
G01 X-25.8873 Y32.0520 
G01 X-25.7001 Y32.1296 
G01 X-25.5013 Y32.1691 
G01 X-25.2987 Y32.1691 
G01 X-25.0999 Y32.1296 
G01 X-24.9127 Y32.0520 
G01 X-24.7442 Y31.9394 
G01 X-24.6010 Y31.7962 
G01 X-24.4884 Y31.6277 
G01 X-24.4108 Y31.4405 
G01 X-24.3713 Y31.2417 
G01 X-24.3713 Y29.7183 
G01 X-24.4108 Y29.5195 
G01 X-24.4884 Y29.3323 
G01 X-24.6010 Y29.1638 
G01 X-24.7442 Y29.0206 
G01 X-24.9127 Y28.9080 
G01 X-24.9428 Y28.8955 
G01 X-24.9428 Y24.4445 
G01 X-24.9127 Y24.4320 
G01 X-24.7442 Y24.3194 
G01 X-24.6010 Y24.1762 
G01 X-24.4884 Y24.0077 
G01 X-24.4108 Y23.8205 
G01 X-24.3713 Y23.6217 
G00 Z2.5400 
G00 X-31.9913 Y23.6217 
G01 Z0.0000 F254.00 
G01 X-31.9913 Y22.0983 F508.00 
G01 X-32.0308 Y21.8995 
G01 X-32.1084 Y21.7123 
G01 X-32.2210 Y21.5438 
G01 X-32.3642 Y21.4006 
G01 X-32.5327 Y21.2880 
G01 X-32.7199 Y21.2104 
G01 X-32.9187 Y21.1709 
G01 X-33.1213 Y21.1709 
G01 X-33.3201 Y21.2104 
G01 X-33.5073 Y21.2880 
G01 X-33.6758 Y21.4006 
G01 X-33.8190 Y21.5438 
G01 X-33.9316 Y21.7123 
G01 X-34.0092 Y21.8995 
G01 X-34.0487 Y22.0983 
G01 X-34.0487 Y23.6217 
G01 X-34.0092 Y23.8205 
G01 X-33.9316 Y24.0077 
G01 X-33.8190 Y24.1762 
G01 X-33.6758 Y24.3194 
G01 X-33.5073 Y24.4320 
G01 X-33.3201 Y24.5096 
G01 X-33.1213 Y24.5491 
G01 X-32.9187 Y24.5491 
G01 X-32.7199 Y24.5096 
G01 X-32.7087 Y24.5049 
G01 X-32.1796 Y25.5631 
G01 X-32.1760 Y25.5765 
G01 X-32.1528 Y25.6167 
G01 X-32.1320 Y25.6583 
G01 X-32.1228 Y25.6687 
G01 X-32.1159 Y25.6807 
G01 X-32.0830 Y25.7136 
G01 X-32.0521 Y25.7484 
G01 X-32.0406 Y25.7560 
G01 X-31.1266 Y26.6700 
G01 X-32.0406 Y27.5840 
G01 X-32.0521 Y27.5916 
G01 X-32.0830 Y27.6264 
G01 X-32.1159 Y27.6593 
G01 X-32.1228 Y27.6713 
G01 X-32.1320 Y27.6817 
G01 X-32.1528 Y27.7233 
G01 X-32.1760 Y27.7635 
G01 X-32.1796 Y27.7769 
G01 X-32.7087 Y28.8351 
G01 X-32.7199 Y28.8304 
G01 X-32.9187 Y28.7909 
G01 X-33.1213 Y28.7909 
G01 X-33.3201 Y28.8304 
G01 X-33.5073 Y28.9080 
G01 X-33.6758 Y29.0206 
G01 X-33.8190 Y29.1638 
G01 X-33.9316 Y29.3323 
G01 X-34.0092 Y29.5195 
G01 X-34.0487 Y29.7183 
G01 X-34.0487 Y31.2417 
G01 X-34.0092 Y31.4405 
G01 X-33.9316 Y31.6277 
G01 X-33.8190 Y31.7962 
G01 X-33.6758 Y31.9394 
G01 X-33.5073 Y32.0520 
G01 X-33.3201 Y32.1296 
G01 X-33.1213 Y32.1691 
G01 X-32.9187 Y32.1691 
G01 X-32.7199 Y32.1296 
G01 X-32.5327 Y32.0520 
G01 X-32.3642 Y31.9394 
G01 X-32.2210 Y31.7962 
G01 X-32.1084 Y31.6277 
G01 X-32.0308 Y31.4405 
G01 X-31.9913 Y31.2417 
G01 X-31.9913 Y29.7183 
G01 X-32.0302 Y29.5227 
G01 X-31.3742 Y28.2108 
G01 X-30.4800 Y27.3166 
G01 X-29.7663 Y28.0303 
G01 X-30.1687 Y28.8351 
G01 X-30.1799 Y28.8304 
G01 X-30.3787 Y28.7909 
G01 X-30.5813 Y28.7909 
G01 X-30.7801 Y28.8304 
G01 X-30.9673 Y28.9080 
G01 X-31.1358 Y29.0206 
G01 X-31.2790 Y29.1638 
G01 X-31.3916 Y29.3323 
G01 X-31.4692 Y29.5195 
G01 X-31.5087 Y29.7183 
G01 X-31.5087 Y31.2417 
G01 X-31.4692 Y31.4405 
G01 X-31.3916 Y31.6277 
G01 X-31.2790 Y31.7962 
G01 X-31.1358 Y31.9394 
G01 X-30.9673 Y32.0520 
G01 X-30.7801 Y32.1296 
G01 X-30.5813 Y32.1691 
G01 X-30.3787 Y32.1691 
G01 X-30.1799 Y32.1296 
G01 X-29.9927 Y32.0520 
G01 X-29.8242 Y31.9394 
G01 X-29.6810 Y31.7962 
G01 X-29.5684 Y31.6277 
G01 X-29.4908 Y31.4405 
G01 X-29.4513 Y31.2417 
G01 X-29.4513 Y29.7183 
G01 X-29.4902 Y29.5227 
G01 X-28.8072 Y28.1568 
G01 X-28.7840 Y28.1165 
G01 X-28.7804 Y28.1030 
G01 X-28.7742 Y28.0906 
G01 X-28.7648 Y28.0451 
G01 X-28.7528 Y28.0002 
G01 X-28.7528 Y27.9863 
G01 X-28.7500 Y27.9727 
G01 X-28.7528 Y27.9263 
G01 X-28.7528 Y27.8798 
G01 X-28.7564 Y27.8664 
G01 X-28.7572 Y27.8525 
G01 X-28.7719 Y27.8084 
G01 X-28.7840 Y27.7635 
G01 X-28.7909 Y27.7515 
G01 X-28.7953 Y27.7383 
G01 X-28.8209 Y27.6995 
G01 X-28.8441 Y27.6593 
G01 X-28.8540 Y27.6494 
G01 X-28.8616 Y27.6379 
G01 X-28.8964 Y27.6070 
G01 X-29.8334 Y26.6700 
G01 X-28.8964 Y25.7330 
G01 X-28.8616 Y25.7021 
G01 X-28.8540 Y25.6906 
G01 X-28.8441 Y25.6807 
G01 X-28.8209 Y25.6405 
G01 X-28.7953 Y25.6017 
G01 X-28.7909 Y25.5885 
G01 X-28.7840 Y25.5765 
G01 X-28.7719 Y25.5316 
G01 X-28.7572 Y25.4875 
G01 X-28.7564 Y25.4736 
G01 X-28.7528 Y25.4602 
G01 X-28.7528 Y25.4137 
G01 X-28.7500 Y25.3673 
G01 X-28.7528 Y25.3537 
G01 X-28.7528 Y25.3398 
G01 X-28.7648 Y25.2949 
G01 X-28.7742 Y25.2494 
G01 X-28.7804 Y25.2370 
G01 X-28.7840 Y25.2235 
G01 X-28.8072 Y25.1832 
G01 X-29.4902 Y23.8173 
G01 X-29.4513 Y23.6217 
G01 X-29.4513 Y22.0983 
G01 X-29.4908 Y21.8995 
G01 X-29.5684 Y21.7123 
G01 X-29.6810 Y21.5438 
G01 X-29.8242 Y21.4006 
G01 X-29.9927 Y21.2880 
G01 X-30.1799 Y21.2104 
G01 X-30.3787 Y21.1709 
G01 X-30.5813 Y21.1709 
G01 X-30.7801 Y21.2104 
G01 X-30.9673 Y21.2880 
G01 X-31.1358 Y21.4006 
G01 X-31.2790 Y21.5438 
G01 X-31.3916 Y21.7123 
G01 X-31.4692 Y21.8995 
G01 X-31.5087 Y22.0983 
G01 X-31.5087 Y23.6217 
G01 X-31.4692 Y23.8205 
G01 X-31.3916 Y24.0077 
G01 X-31.2790 Y24.1762 
G01 X-31.1358 Y24.3194 
G01 X-30.9673 Y24.4320 
G01 X-30.7801 Y24.5096 
G01 X-30.5813 Y24.5491 
G01 X-30.3787 Y24.5491 
G01 X-30.1799 Y24.5096 
G01 X-30.1687 Y24.5049 
G01 X-29.7663 Y25.3097 
G01 X-30.4800 Y26.0234 
G01 X-31.3742 Y25.1292 
G01 X-32.0302 Y23.8173 
G01 X-31.9913 Y23.6217 
G00 Z2.5400 
G00 X-34.5313 Y23.6217 
G01 Z0.0000 F254.00 
G01 X-34.5313 Y22.0983 F508.00 
G01 X-34.5708 Y21.8995 
G01 X-34.6484 Y21.7123 
G01 X-34.7610 Y21.5438 
G01 X-34.9042 Y21.4006 
G01 X-35.0727 Y21.2880 
G01 X-35.2599 Y21.2104 
G01 X-35.4587 Y21.1709 
G01 X-35.6613 Y21.1709 
G01 X-35.8601 Y21.2104 
G01 X-36.0473 Y21.2880 
G01 X-36.2158 Y21.4006 
G01 X-36.3590 Y21.5438 
G01 X-36.4716 Y21.7123 
G01 X-36.5492 Y21.8995 
G01 X-36.5887 Y22.0983 
G01 X-36.5887 Y23.6217 
G01 X-36.5492 Y23.8205 
G01 X-36.4716 Y24.0077 
G01 X-36.3590 Y24.1762 
G01 X-36.2158 Y24.3194 
G01 X-36.0473 Y24.4320 
G01 X-36.0172 Y24.4445 
G01 X-36.0172 Y28.8955 
G01 X-36.0473 Y28.9080 
G01 X-36.2158 Y29.0206 
G01 X-36.3590 Y29.1638 
G01 X-36.4716 Y29.3323 
G01 X-36.5492 Y29.5195 
G01 X-36.5887 Y29.7183 
G01 X-36.5887 Y31.2417 
G01 X-36.5492 Y31.4405 
G01 X-36.4716 Y31.6277 
G01 X-36.3590 Y31.7962 
G01 X-36.2158 Y31.9394 
G01 X-36.0473 Y32.0520 
G01 X-35.8601 Y32.1296 
G01 X-35.6613 Y32.1691 
G01 X-35.4587 Y32.1691 
G01 X-35.2599 Y32.1296 
G01 X-35.0727 Y32.0520 
G01 X-34.9042 Y31.9394 
G01 X-34.7610 Y31.7962 
G01 X-34.6484 Y31.6277 
G01 X-34.5708 Y31.4405 
G01 X-34.5313 Y31.2417 
G01 X-34.5313 Y29.7183 
G01 X-34.5708 Y29.5195 
G01 X-34.6484 Y29.3323 
G01 X-34.7610 Y29.1638 
G01 X-34.9042 Y29.0206 
G01 X-35.0727 Y28.9080 
G01 X-35.1028 Y28.8955 
G01 X-35.1028 Y24.4445 
G01 X-35.0727 Y24.4320 
G01 X-34.9042 Y24.3194 
G01 X-34.7610 Y24.1762 
G01 X-34.6484 Y24.0077 
G01 X-34.5708 Y23.8205 
G01 X-34.5313 Y23.6217 
G00 Z2.5400 
G00 X-42.1513 Y23.6217 
G01 Z0.0000 F254.00 
G01 X-42.1513 Y23.3172 F508.00 
G01 X-41.6687 Y23.3172 
G01 X-41.6687 Y23.6217 
G01 X-41.6292 Y23.8205 
G01 X-41.5516 Y24.0077 
G01 X-41.4390 Y24.1762 
G01 X-41.2958 Y24.3194 
G01 X-41.1273 Y24.4320 
G01 X-41.0972 Y24.4445 
G01 X-41.0972 Y28.8955 
G01 X-41.1273 Y28.9080 
G01 X-41.2958 Y29.0206 
G01 X-41.4390 Y29.1638 
G01 X-41.5516 Y29.3323 
G01 X-41.6292 Y29.5195 
G01 X-41.6687 Y29.7183 
G01 X-41.6687 Y31.2417 
G01 X-41.6292 Y31.4405 
G01 X-41.5516 Y31.6277 
G01 X-41.4390 Y31.7962 
G01 X-41.2958 Y31.9394 
G01 X-41.1273 Y32.0520 
G01 X-40.9401 Y32.1296 
G01 X-40.7413 Y32.1691 
G01 X-40.5387 Y32.1691 
G01 X-40.3399 Y32.1296 
G01 X-40.1527 Y32.0520 
G01 X-39.9842 Y31.9394 
G01 X-39.8410 Y31.7962 
G01 X-39.7284 Y31.6277 
G01 X-39.6508 Y31.4405 
G01 X-39.6113 Y31.2417 
G01 X-39.6113 Y29.7183 
G01 X-39.6508 Y29.5195 
G01 X-39.7284 Y29.3323 
G01 X-39.8410 Y29.1638 
G01 X-39.9842 Y29.0206 
G01 X-40.1527 Y28.9080 
G01 X-40.1828 Y28.8955 
G01 X-40.1828 Y24.4445 
G01 X-40.1527 Y24.4320 
G01 X-39.9842 Y24.3194 
G01 X-39.8410 Y24.1762 
G01 X-39.7284 Y24.0077 
G01 X-39.6508 Y23.8205 
G01 X-39.6113 Y23.6217 
G01 X-39.6113 Y22.0983 
G01 X-39.6508 Y21.8995 
G01 X-39.7284 Y21.7123 
G01 X-39.8410 Y21.5438 
G01 X-39.9842 Y21.4006 
G01 X-40.1527 Y21.2880 
G01 X-40.3399 Y21.2104 
G01 X-40.5387 Y21.1709 
G01 X-40.7413 Y21.1709 
G01 X-40.9401 Y21.2104 
G01 X-41.1273 Y21.2880 
G01 X-41.2958 Y21.4006 
G01 X-41.4390 Y21.5438 
G01 X-41.5516 Y21.7123 
G01 X-41.6292 Y21.8995 
G01 X-41.6687 Y22.0983 
G01 X-41.6687 Y22.4028 
G01 X-42.1513 Y22.4028 
G01 X-42.1513 Y22.0983 
G01 X-42.1908 Y21.8995 
G01 X-42.2684 Y21.7123 
G01 X-42.3810 Y21.5438 
G01 X-42.5242 Y21.4006 
G01 X-42.6927 Y21.2880 
G01 X-42.8799 Y21.2104 
G01 X-43.0787 Y21.1709 
G01 X-43.2813 Y21.1709 
G01 X-43.4801 Y21.2104 
G01 X-43.6673 Y21.2880 
G01 X-43.8358 Y21.4006 
G01 X-43.9790 Y21.5438 
G01 X-44.0916 Y21.7123 
G01 X-44.1692 Y21.8995 
G01 X-44.2087 Y22.0983 
G01 X-44.2087 Y23.6217 
G01 X-44.1692 Y23.8205 
G01 X-44.0916 Y24.0077 
G01 X-43.9790 Y24.1762 
G01 X-43.8358 Y24.3194 
G01 X-43.6673 Y24.4320 
G01 X-43.6372 Y24.4445 
G01 X-43.6372 Y28.8955 
G01 X-43.6673 Y28.9080 
G01 X-43.8358 Y29.0206 
G01 X-43.9790 Y29.1638 
G01 X-44.0916 Y29.3323 
G01 X-44.1692 Y29.5195 
G01 X-44.2087 Y29.7183 
G01 X-44.2087 Y31.2417 
G01 X-44.1692 Y31.4405 
G01 X-44.0916 Y31.6277 
G01 X-43.9790 Y31.7962 
G01 X-43.8358 Y31.9394 
G01 X-43.6673 Y32.0520 
G01 X-43.4801 Y32.1296 
G01 X-43.2813 Y32.1691 
G01 X-43.0787 Y32.1691 
G01 X-42.8799 Y32.1296 
G01 X-42.6927 Y32.0520 
G01 X-42.5242 Y31.9394 
G01 X-42.3810 Y31.7962 
G01 X-42.2684 Y31.6277 
G01 X-42.1908 Y31.4405 
G01 X-42.1513 Y31.2417 
G01 X-42.1513 Y29.7183 
G01 X-42.1908 Y29.5195 
G01 X-42.2684 Y29.3323 
G01 X-42.3810 Y29.1638 
G01 X-42.5242 Y29.0206 
G01 X-42.6927 Y28.9080 
G01 X-42.7228 Y28.8955 
G01 X-42.7228 Y24.4445 
G01 X-42.6927 Y24.4320 
G01 X-42.5242 Y24.3194 
G01 X-42.3810 Y24.1762 
G01 X-42.2684 Y24.0077 
G01 X-42.1908 Y23.8205 
G01 X-42.1513 Y23.6217 
G00 Z2.5400 
G00 X-54.8513 Y23.6217 
G01 Z0.0000 F254.00 
G01 X-54.8513 Y22.0983 F508.00 
G01 X-54.8908 Y21.8995 
G01 X-54.9684 Y21.7123 
G01 X-55.0810 Y21.5438 
G01 X-55.2242 Y21.4006 
G01 X-55.3927 Y21.2880 
G01 X-55.5799 Y21.2104 
G01 X-55.7787 Y21.1709 
G01 X-55.9813 Y21.1709 
G01 X-56.1801 Y21.2104 
G01 X-56.3673 Y21.2880 
G01 X-56.5358 Y21.4006 
G01 X-56.6790 Y21.5438 
G01 X-56.7916 Y21.7123 
G01 X-56.8692 Y21.8995 
G01 X-56.9087 Y22.0983 
G01 X-56.9087 Y23.6217 
G01 X-56.8692 Y23.8205 
G01 X-56.7916 Y24.0077 
G01 X-56.6790 Y24.1762 
G01 X-56.5358 Y24.3194 
G01 X-56.3673 Y24.4320 
G01 X-56.3372 Y24.4445 
G01 X-56.3372 Y28.8955 
G01 X-56.3673 Y28.9080 
G01 X-56.5358 Y29.0206 
G01 X-56.6790 Y29.1638 
G01 X-56.7916 Y29.3323 
G01 X-56.8692 Y29.5195 
G01 X-56.9087 Y29.7183 
G01 X-56.9087 Y31.2417 
G01 X-56.8692 Y31.4405 
G01 X-56.7916 Y31.6277 
G01 X-56.6790 Y31.7962 
G01 X-56.5358 Y31.9394 
G01 X-56.3673 Y32.0520 
G01 X-56.1801 Y32.1296 
G01 X-55.9813 Y32.1691 
G01 X-55.7787 Y32.1691 
G01 X-55.5799 Y32.1296 
G01 X-55.3927 Y32.0520 
G01 X-55.2242 Y31.9394 
G01 X-55.0810 Y31.7962 
G01 X-54.9684 Y31.6277 
G01 X-54.8908 Y31.4405 
G01 X-54.8513 Y31.2417 
G01 X-54.8513 Y30.9372 
G01 X-54.3687 Y30.9372 
G01 X-54.3687 Y31.2417 
G01 X-54.3292 Y31.4405 
G01 X-54.2516 Y31.6277 
G01 X-54.1390 Y31.7962 
G01 X-53.9958 Y31.9394 
G01 X-53.8273 Y32.0520 
G01 X-53.6401 Y32.1296 
G01 X-53.4413 Y32.1691 
G01 X-53.2387 Y32.1691 
G01 X-53.0399 Y32.1296 
G01 X-52.8527 Y32.0520 
G01 X-52.6842 Y31.9394 
G01 X-52.5410 Y31.7962 
G01 X-52.4284 Y31.6277 
G01 X-52.3508 Y31.4405 
G01 X-52.3113 Y31.2417 
G01 X-52.3113 Y30.0979 
G01 X-51.8031 Y29.5897 
G01 X-51.8287 Y29.7183 
G01 X-51.8287 Y31.2417 
G01 X-51.7892 Y31.4405 
G01 X-51.7116 Y31.6277 
G01 X-51.5990 Y31.7962 
G01 X-51.4558 Y31.9394 
G01 X-51.2873 Y32.0520 
G01 X-51.1001 Y32.1296 
G01 X-50.9013 Y32.1691 
G01 X-50.6987 Y32.1691 
G01 X-50.4999 Y32.1296 
G01 X-50.3127 Y32.0520 
G01 X-50.1442 Y31.9394 
G01 X-50.0010 Y31.7962 
G01 X-49.8884 Y31.6277 
G01 X-49.8108 Y31.4405 
G01 X-49.7713 Y31.2417 
G01 X-49.7713 Y30.0979 
G01 X-49.2631 Y29.5897 
G01 X-49.2887 Y29.7183 
G01 X-49.2887 Y31.2417 
G01 X-49.2492 Y31.4405 
G01 X-49.1716 Y31.6277 
G01 X-49.0590 Y31.7962 
G01 X-48.9158 Y31.9394 
G01 X-48.7473 Y32.0520 
G01 X-48.5601 Y32.1296 
G01 X-48.3613 Y32.1691 
G01 X-48.1587 Y32.1691 
G01 X-47.9599 Y32.1296 
G01 X-47.7727 Y32.0520 
G01 X-47.6042 Y31.9394 
G01 X-47.4610 Y31.7962 
G01 X-47.3484 Y31.6277 
G01 X-47.2708 Y31.4405 
G01 X-47.2313 Y31.2417 
G01 X-47.2313 Y29.7183 
G01 X-47.2702 Y29.5227 
G01 X-46.6143 Y28.2108 
G01 X-45.0850 Y26.6816 
G01 X-44.9731 Y26.7935 
G01 X-45.6389 Y28.7909 
G01 X-45.8213 Y28.7909 
G01 X-46.0201 Y28.8304 
G01 X-46.2073 Y28.9080 
G01 X-46.3758 Y29.0206 
G01 X-46.5190 Y29.1638 
G01 X-46.6316 Y29.3323 
G01 X-46.7092 Y29.5195 
G01 X-46.7487 Y29.7183 
G01 X-46.7487 Y31.2417 
G01 X-46.7092 Y31.4405 
G01 X-46.6316 Y31.6277 
G01 X-46.5190 Y31.7962 
G01 X-46.3758 Y31.9394 
G01 X-46.2073 Y32.0520 
G01 X-46.0201 Y32.1296 
G01 X-45.8213 Y32.1691 
G01 X-45.6187 Y32.1691 
G01 X-45.4199 Y32.1296 
G01 X-45.2327 Y32.0520 
G01 X-45.0642 Y31.9394 
G01 X-44.9210 Y31.7962 
G01 X-44.8084 Y31.6277 
G01 X-44.7308 Y31.4405 
G01 X-44.6913 Y31.2417 
G01 X-44.6913 Y29.7183 
G01 X-44.7308 Y29.5195 
G01 X-44.8084 Y29.3323 
G01 X-44.8398 Y29.2853 
G01 X-44.0309 Y26.8585 
G01 X-44.0240 Y26.8465 
G01 X-44.0119 Y26.8016 
G01 X-43.9972 Y26.7575 
G01 X-43.9964 Y26.7436 
G01 X-43.9928 Y26.7302 
G01 X-43.9928 Y26.6837 
G01 X-43.9900 Y26.6373 
G01 X-43.9928 Y26.6237 
G01 X-43.9928 Y26.6098 
G01 X-44.0048 Y26.5649 
G01 X-44.0142 Y26.5194 
G01 X-44.0204 Y26.5070 
G01 X-44.0240 Y26.4935 
G01 X-44.0472 Y26.4533 
G01 X-44.0680 Y26.4117 
G01 X-44.0772 Y26.4013 
G01 X-44.0841 Y26.3893 
G01 X-44.1170 Y26.3564 
G01 X-44.1479 Y26.3216 
G01 X-44.1594 Y26.3140 
G01 X-44.4384 Y26.0350 
G01 X-44.1364 Y25.7330 
G01 X-44.1016 Y25.7021 
G01 X-44.0940 Y25.6906 
G01 X-44.0841 Y25.6807 
G01 X-44.0609 Y25.6405 
G01 X-44.0353 Y25.6017 
G01 X-44.0309 Y25.5885 
G01 X-44.0240 Y25.5765 
G01 X-44.0119 Y25.5316 
G01 X-43.9972 Y25.4875 
G01 X-43.9964 Y25.4736 
G01 X-43.9928 Y25.4602 
G01 X-43.9928 Y25.4137 
G01 X-43.9900 Y25.3673 
G01 X-43.9928 Y25.3537 
G01 X-43.9928 Y25.3398 
G01 X-44.0048 Y25.2949 
G01 X-44.0142 Y25.2494 
G01 X-44.0204 Y25.2370 
G01 X-44.0240 Y25.2235 
G01 X-44.0472 Y25.1832 
G01 X-44.7302 Y23.8173 
G01 X-44.6913 Y23.6217 
G01 X-44.6913 Y22.0983 
G01 X-44.7308 Y21.8995 
G01 X-44.8084 Y21.7123 
G01 X-44.9210 Y21.5438 
G01 X-45.0642 Y21.4006 
G01 X-45.2327 Y21.2880 
G01 X-45.4199 Y21.2104 
G01 X-45.6187 Y21.1709 
G01 X-45.8213 Y21.1709 
G01 X-46.0201 Y21.2104 
G01 X-46.2073 Y21.2880 
G01 X-46.3758 Y21.4006 
G01 X-46.5190 Y21.5438 
G01 X-46.6316 Y21.7123 
G01 X-46.7092 Y21.8995 
G01 X-46.7487 Y22.0983 
G01 X-46.7487 Y23.6217 
G01 X-46.7231 Y23.7503 
G01 X-47.2313 Y23.2421 
G01 X-47.2313 Y22.0983 
G01 X-47.2708 Y21.8995 
G01 X-47.3484 Y21.7123 
G01 X-47.4610 Y21.5438 
G01 X-47.6042 Y21.4006 
G01 X-47.7727 Y21.2880 
G01 X-47.9599 Y21.2104 
G01 X-48.1587 Y21.1709 
G01 X-48.3613 Y21.1709 
G01 X-48.5601 Y21.2104 
G01 X-48.7473 Y21.2880 
G01 X-48.9158 Y21.4006 
G01 X-49.0590 Y21.5438 
G01 X-49.1716 Y21.7123 
G01 X-49.2492 Y21.8995 
G01 X-49.2887 Y22.0983 
G01 X-49.2887 Y23.6217 
G01 X-49.2631 Y23.7503 
G01 X-49.7713 Y23.2421 
G01 X-49.7713 Y22.0983 
G01 X-49.8108 Y21.8995 
G01 X-49.8884 Y21.7123 
G01 X-50.0010 Y21.5438 
G01 X-50.1442 Y21.4006 
G01 X-50.3127 Y21.2880 
G01 X-50.4999 Y21.2104 
G01 X-50.6987 Y21.1709 
G01 X-50.9013 Y21.1709 
G01 X-51.1001 Y21.2104 
G01 X-51.2873 Y21.2880 
G01 X-51.4558 Y21.4006 
G01 X-51.5990 Y21.5438 
G01 X-51.7116 Y21.7123 
G01 X-51.7892 Y21.8995 
G01 X-51.8287 Y22.0983 
G01 X-51.8287 Y22.4028 
G01 X-52.3113 Y22.4028 
G01 X-52.3113 Y22.0983 
G01 X-52.3508 Y21.8995 
G01 X-52.4284 Y21.7123 
G01 X-52.5410 Y21.5438 
G01 X-52.6842 Y21.4006 
G01 X-52.8527 Y21.2880 
G01 X-53.0399 Y21.2104 
G01 X-53.2387 Y21.1709 
G01 X-53.4413 Y21.1709 
G01 X-53.6401 Y21.2104 
G01 X-53.8273 Y21.2880 
G01 X-53.9958 Y21.4006 
G01 X-54.1390 Y21.5438 
G01 X-54.2516 Y21.7123 
G01 X-54.3292 Y21.8995 
G01 X-54.3687 Y22.0983 
G01 X-54.3687 Y23.6217 
G01 X-54.3298 Y23.8173 
G01 X-55.0128 Y25.1832 
G01 X-55.0360 Y25.2235 
G01 X-55.0396 Y25.2370 
G01 X-55.0458 Y25.2494 
G01 X-55.0552 Y25.2949 
G01 X-55.0672 Y25.3398 
G01 X-55.0672 Y25.3537 
G01 X-55.0700 Y25.3673 
G01 X-55.0672 Y25.4137 
G01 X-55.0672 Y26.7302 
G01 X-55.0360 Y26.8465 
G01 X-54.9759 Y26.9507 
G01 X-53.1101 Y28.8165 
G01 X-53.2387 Y28.7909 
G01 X-53.4413 Y28.7909 
G01 X-53.6401 Y28.8304 
G01 X-53.8273 Y28.9080 
G01 X-53.9958 Y29.0206 
G01 X-54.1390 Y29.1638 
G01 X-54.2516 Y29.3323 
G01 X-54.3292 Y29.5195 
G01 X-54.3687 Y29.7183 
G01 X-54.3687 Y30.0228 
G01 X-54.8513 Y30.0228 
G01 X-54.8513 Y29.7183 
G01 X-54.8908 Y29.5195 
G01 X-54.9684 Y29.3323 
G01 X-55.0810 Y29.1638 
G01 X-55.2242 Y29.0206 
G01 X-55.3927 Y28.9080 
G01 X-55.4228 Y28.8955 
G01 X-55.4228 Y24.4445 
G01 X-55.3927 Y24.4320 
G01 X-55.2242 Y24.3194 
G01 X-55.0810 Y24.1762 
G01 X-54.9684 Y24.0077 
G01 X-54.8908 Y23.8205 
G01 X-54.8513 Y23.6217 
G00 Z2.5400 
G00 X-37.0713 Y31.2417 
G01 Z0.0000 F254.00 
G01 X-37.0713 Y29.7183 F508.00 
G01 X-37.1108 Y29.5195 
G01 X-37.1884 Y29.3323 
G01 X-37.3010 Y29.1638 
G01 X-37.4442 Y29.0206 
G01 X-37.6127 Y28.9080 
G01 X-37.6428 Y28.8955 
G01 X-37.6428 Y24.4445 
G01 X-37.6127 Y24.4320 
G01 X-37.4442 Y24.3194 
G01 X-37.3010 Y24.1762 
G01 X-37.1884 Y24.0077 
G01 X-37.1108 Y23.8205 
G01 X-37.0713 Y23.6217 
G01 X-37.0713 Y22.0983 
G01 X-37.1108 Y21.8995 
G01 X-37.1884 Y21.7123 
G01 X-37.3010 Y21.5438 
G01 X-37.4442 Y21.4006 
G01 X-37.6127 Y21.2880 
G01 X-37.7999 Y21.2104 
G01 X-37.9987 Y21.1709 
G01 X-38.2013 Y21.1709 
G01 X-38.4001 Y21.2104 
G01 X-38.5873 Y21.2880 
G01 X-38.7558 Y21.4006 
G01 X-38.8990 Y21.5438 
G01 X-39.0116 Y21.7123 
G01 X-39.0892 Y21.8995 
G01 X-39.1287 Y22.0983 
G01 X-39.1287 Y23.6217 
G01 X-39.0892 Y23.8205 
G01 X-39.0116 Y24.0077 
G01 X-38.8990 Y24.1762 
G01 X-38.7558 Y24.3194 
G01 X-38.5873 Y24.4320 
G01 X-38.5572 Y24.4445 
G01 X-38.5572 Y28.8955 
G01 X-38.5873 Y28.9080 
G01 X-38.7558 Y29.0206 
G01 X-38.8990 Y29.1638 
G01 X-39.0116 Y29.3323 
G01 X-39.0892 Y29.5195 
G01 X-39.1287 Y29.7183 
G01 X-39.1287 Y31.2417 
G01 X-39.0892 Y31.4405 
G01 X-39.0116 Y31.6277 
G01 X-38.8990 Y31.7962 
G01 X-38.7558 Y31.9394 
G01 X-38.5873 Y32.0520 
G01 X-38.4001 Y32.1296 
G01 X-38.2013 Y32.1691 
G01 X-37.9987 Y32.1691 
G01 X-37.7999 Y32.1296 
G01 X-37.6127 Y32.0520 
G01 X-37.4442 Y31.9394 
G01 X-37.3010 Y31.7962 
G01 X-37.1884 Y31.6277 
G01 X-37.1108 Y31.4405 
G01 X-37.0713 Y31.2417 
G00 Z2.5400 
G00 X-26.9113 Y31.2417 
G01 Z0.0000 F254.00 
G01 X-26.9113 Y29.7183 F508.00 
G01 X-26.9508 Y29.5195 
G01 X-27.0284 Y29.3323 
G01 X-27.1410 Y29.1638 
G01 X-27.2842 Y29.0206 
G01 X-27.4527 Y28.9080 
G01 X-27.4828 Y28.8955 
G01 X-27.4828 Y24.4445 
G01 X-27.4527 Y24.4320 
G01 X-27.2842 Y24.3194 
G01 X-27.1410 Y24.1762 
G01 X-27.0284 Y24.0077 
G01 X-26.9508 Y23.8205 
G01 X-26.9113 Y23.6217 
G01 X-26.9113 Y22.0983 
G01 X-26.9508 Y21.8995 
G01 X-27.0284 Y21.7123 
G01 X-27.1410 Y21.5438 
G01 X-27.2842 Y21.4006 
G01 X-27.4527 Y21.2880 
G01 X-27.6399 Y21.2104 
G01 X-27.8387 Y21.1709 
G01 X-28.0413 Y21.1709 
G01 X-28.2401 Y21.2104 
G01 X-28.4273 Y21.2880 
G01 X-28.5958 Y21.4006 
G01 X-28.7390 Y21.5438 
G01 X-28.8516 Y21.7123 
G01 X-28.9292 Y21.8995 
G01 X-28.9687 Y22.0983 
G01 X-28.9687 Y23.6217 
G01 X-28.9292 Y23.8205 
G01 X-28.8516 Y24.0077 
G01 X-28.7390 Y24.1762 
G01 X-28.5958 Y24.3194 
G01 X-28.4273 Y24.4320 
G01 X-28.3972 Y24.4445 
G01 X-28.3972 Y28.8955 
G01 X-28.4273 Y28.9080 
G01 X-28.5958 Y29.0206 
G01 X-28.7390 Y29.1638 
G01 X-28.8516 Y29.3323 
G01 X-28.9292 Y29.5195 
G01 X-28.9687 Y29.7183 
G01 X-28.9687 Y31.2417 
G01 X-28.9292 Y31.4405 
G01 X-28.8516 Y31.6277 
G01 X-28.7390 Y31.7962 
G01 X-28.5958 Y31.9394 
G01 X-28.4273 Y32.0520 
G01 X-28.2401 Y32.1296 
G01 X-28.0413 Y32.1691 
G01 X-27.8387 Y32.1691 
G01 X-27.6399 Y32.1296 
G01 X-27.4527 Y32.0520 
G01 X-27.2842 Y31.9394 
G01 X-27.1410 Y31.7962 
G01 X-27.0284 Y31.6277 
G01 X-26.9508 Y31.4405 
G01 X-26.9113 Y31.2417 
G00 Z2.5400 
G00 X-21.8313 Y31.2417 
G01 Z0.0000 F254.00 
G01 X-21.8313 Y29.7183 F508.00 
G01 X-21.8708 Y29.5195 
G01 X-21.9484 Y29.3323 
G01 X-22.0610 Y29.1638 
G01 X-22.2042 Y29.0206 
G01 X-22.3727 Y28.9080 
G01 X-22.4028 Y28.8955 
G01 X-22.4028 Y24.4445 
G01 X-22.3727 Y24.4320 
G01 X-22.2042 Y24.3194 
G01 X-22.0610 Y24.1762 
G01 X-21.9484 Y24.0077 
G01 X-21.8708 Y23.8205 
G01 X-21.8313 Y23.6217 
G01 X-21.8313 Y22.0983 
G01 X-21.8708 Y21.8995 
G01 X-21.9484 Y21.7123 
G01 X-22.0610 Y21.5438 
G01 X-22.2042 Y21.4006 
G01 X-22.3727 Y21.2880 
G01 X-22.5599 Y21.2104 
G01 X-22.7587 Y21.1709 
G01 X-22.9613 Y21.1709 
G01 X-23.1601 Y21.2104 
G01 X-23.3473 Y21.2880 
G01 X-23.5158 Y21.4006 
G01 X-23.6590 Y21.5438 
G01 X-23.7716 Y21.7123 
G01 X-23.8492 Y21.8995 
G01 X-23.8887 Y22.0983 
G01 X-23.8887 Y23.6217 
G01 X-23.8492 Y23.8205 
G01 X-23.7716 Y24.0077 
G01 X-23.6590 Y24.1762 
G01 X-23.5158 Y24.3194 
G01 X-23.3473 Y24.4320 
G01 X-23.3172 Y24.4445 
G01 X-23.3172 Y28.8955 
G01 X-23.3473 Y28.9080 
G01 X-23.5158 Y29.0206 
G01 X-23.6590 Y29.1638 
G01 X-23.7716 Y29.3323 
G01 X-23.8492 Y29.5195 
G01 X-23.8887 Y29.7183 
G01 X-23.8887 Y31.2417 
G01 X-23.8492 Y31.4405 
G01 X-23.7716 Y31.6277 
G01 X-23.6590 Y31.7962 
G01 X-23.5158 Y31.9394 
G01 X-23.3473 Y32.0520 
G01 X-23.1601 Y32.1296 
G01 X-22.9613 Y32.1691 
G01 X-22.7587 Y32.1691 
G01 X-22.5599 Y32.1296 
G01 X-22.3727 Y32.0520 
G01 X-22.2042 Y31.9394 
G01 X-22.0610 Y31.7962 
G01 X-21.9484 Y31.6277 
G01 X-21.8708 Y31.4405 
G01 X-21.8313 Y31.2417 
(Between Passes)
(Bottom between passes)
G00 Z2.5400 
G00 X-54.0258 Y25.5379 
G01 Z0.0000 F254.00 
G01 X-53.5829 Y24.6520 F508.00 
G01 X-53.4310 Y24.6761 
G01 X-53.2490 Y24.6761 
G01 X-53.0694 Y24.6476 
G01 X-52.8964 Y24.5914 
G01 X-52.7343 Y24.5088 
G01 X-52.5871 Y24.4019 
G01 X-52.4585 Y24.2733 
G01 X-52.3516 Y24.1261 
G01 X-52.2690 Y23.9640 
G01 X-52.2128 Y23.7910 
G01 X-52.1843 Y23.6114 
G01 X-52.1843 Y23.4442 
G01 X-51.9557 Y23.4442 
G01 X-51.9557 Y23.6114 
G01 X-51.9272 Y23.7910 
G01 X-51.8710 Y23.9640 
G01 X-51.7884 Y24.1261 
G01 X-51.6815 Y24.2733 
G01 X-51.5529 Y24.4019 
G01 X-51.4057 Y24.5088 
G01 X-51.2436 Y24.5914 
G01 X-51.0706 Y24.6476 
G01 X-50.9007 Y24.6745 
G01 X-52.5238 Y26.2976 
G01 X-52.5877 Y26.3933 
G01 X-52.6317 Y26.4996 
G01 X-52.6542 Y26.6125 
G01 X-52.6542 Y26.7275 
G01 X-52.6317 Y26.8404 
G01 X-52.5877 Y26.9467 
G01 X-52.5238 Y27.0424 
G01 X-52.4424 Y27.1238 
G01 X-50.9007 Y28.6654 
G01 X-51.0706 Y28.6924 
G01 X-51.2436 Y28.7486 
G01 X-51.4057 Y28.8312 
G01 X-51.5509 Y28.9366 
G01 X-51.5523 Y28.9333 
G01 X-51.6162 Y28.8376 
G01 X-51.6976 Y28.7562 
G01 X-54.0258 Y26.4280 
G01 X-54.0258 Y25.5379 
G00 Z2.5400 
G00 X-48.8657 Y24.5088 
G01 Z0.0000 F254.00 
G01 X-48.7036 Y24.5914 F508.00 
G01 X-48.5306 Y24.6476 
G01 X-48.3510 Y24.6761 
G01 X-48.1690 Y24.6761 
G01 X-47.9894 Y24.6476 
G01 X-47.8164 Y24.5914 
G01 X-47.6543 Y24.5088 
G01 X-47.5286 Y24.4175 
G01 X-45.9112 Y26.0350 
G01 X-47.3884 Y27.5122 
G01 X-47.4162 Y27.5364 
G01 X-47.4290 Y27.5529 
G01 X-47.4438 Y27.5676 
G01 X-47.4642 Y27.5982 
G01 X-47.4868 Y27.6273 
G01 X-47.4961 Y27.6459 
G01 X-47.5077 Y27.6633 
G01 X-47.5218 Y27.6973 
G01 X-48.0171 Y28.6880 
G01 X-48.1690 Y28.6639 
G01 X-48.3510 Y28.6639 
G01 X-48.5306 Y28.6924 
G01 X-48.7036 Y28.7486 
G01 X-48.8657 Y28.8312 
G01 X-49.0109 Y28.9366 
G01 X-49.0123 Y28.9333 
G01 X-49.0762 Y28.8376 
G01 X-51.2438 Y26.6700 
G01 X-49.1576 Y24.5838 
G01 X-49.0762 Y24.5024 
G01 X-49.0123 Y24.4067 
G01 X-49.0109 Y24.4034 
G01 X-48.8657 Y24.5088 
G00 Z2.5400 
G00 X-45.6193 Y24.6745 
G01 Z0.0000 F254.00 
G01 X-45.4771 Y24.6520 F508.00 
G01 X-45.3125 Y24.9813 
G01 X-45.6193 Y24.6745 
G00 Z2.5400 
G00 X-24.2443 Y23.6114 
G01 Z0.0000 F254.00 
G01 X-24.2443 Y22.1086 F508.00 
G01 X-24.2728 Y21.9290 
G01 X-24.3290 Y21.7560 
G01 X-24.4116 Y21.5939 
G01 X-24.5185 Y21.4467 
G01 X-24.6471 Y21.3181 
G01 X-24.7943 Y21.2112 
G01 X-24.9564 Y21.1286 
G01 X-25.1294 Y21.0724 
G01 X-25.3090 Y21.0439 
G01 X-25.4910 Y21.0439 
G01 X-25.6706 Y21.0724 
G01 X-25.8436 Y21.1286 
G01 X-26.0057 Y21.2112 
G01 X-26.1529 Y21.3181 
G01 X-26.2815 Y21.4467 
G01 X-26.3884 Y21.5939 
G01 X-26.4710 Y21.7560 
G01 X-26.5272 Y21.9290 
G01 X-26.5557 Y22.1086 
G01 X-26.5557 Y23.6114 
G01 X-26.5272 Y23.7910 
G01 X-26.4710 Y23.9640 
G01 X-26.3884 Y24.1261 
G01 X-26.2815 Y24.2733 
G01 X-26.1529 Y24.4019 
G01 X-26.0057 Y24.5088 
G01 X-25.9842 Y24.5198 
G01 X-25.9842 Y28.8202 
G01 X-26.0057 Y28.8312 
G01 X-26.1529 Y28.9381 
G01 X-26.2815 Y29.0667 
G01 X-26.3884 Y29.2139 
G01 X-26.4710 Y29.3760 
G01 X-26.5272 Y29.5490 
G01 X-26.5557 Y29.7286 
G01 X-26.5557 Y31.2314 
G01 X-26.5272 Y31.4110 
G01 X-26.4710 Y31.5840 
G01 X-26.3884 Y31.7461 
G01 X-26.2815 Y31.8933 
G01 X-26.1529 Y32.0219 
G01 X-26.0057 Y32.1288 
G01 X-25.8436 Y32.2114 
G01 X-25.6706 Y32.2676 
G01 X-25.4910 Y32.2961 
G01 X-25.3090 Y32.2961 
G01 X-25.1294 Y32.2676 
G01 X-24.9564 Y32.2114 
G01 X-24.7943 Y32.1288 
G01 X-24.6471 Y32.0219 
G01 X-24.5185 Y31.8933 
G01 X-24.4116 Y31.7461 
G01 X-24.3290 Y31.5840 
G01 X-24.2728 Y31.4110 
G01 X-24.2443 Y31.2314 
G01 X-24.2443 Y29.7286 
G01 X-24.2728 Y29.5490 
G01 X-24.3290 Y29.3760 
G01 X-24.4116 Y29.2139 
G01 X-24.5185 Y29.0667 
G01 X-24.6471 Y28.9381 
G01 X-24.7943 Y28.8312 
G01 X-24.8158 Y28.8202 
G01 X-24.8158 Y24.5198 
G01 X-24.7943 Y24.5088 
G01 X-24.6471 Y24.4019 
G01 X-24.5185 Y24.2733 
G01 X-24.4116 Y24.1261 
G01 X-24.3290 Y23.9640 
G01 X-24.2728 Y23.7910 
G01 X-24.2443 Y23.6114 
G00 Z2.5400 
G00 X-31.8643 Y23.6114 
G01 Z0.0000 F254.00 
G01 X-31.8643 Y22.1086 F508.00 
G01 X-31.8928 Y21.9290 
G01 X-31.9490 Y21.7560 
G01 X-32.0316 Y21.5939 
G01 X-32.1385 Y21.4467 
G01 X-32.2671 Y21.3181 
G01 X-32.4143 Y21.2112 
G01 X-32.5764 Y21.1286 
G01 X-32.7494 Y21.0724 
G01 X-32.9290 Y21.0439 
G01 X-33.1110 Y21.0439 
G01 X-33.2906 Y21.0724 
G01 X-33.4636 Y21.1286 
G01 X-33.6257 Y21.2112 
G01 X-33.7729 Y21.3181 
G01 X-33.9015 Y21.4467 
G01 X-34.0084 Y21.5939 
G01 X-34.0910 Y21.7560 
G01 X-34.1472 Y21.9290 
G01 X-34.1757 Y22.1086 
G01 X-34.1757 Y23.6114 
G01 X-34.1472 Y23.7910 
G01 X-34.0910 Y23.9640 
G01 X-34.0084 Y24.1261 
G01 X-33.9015 Y24.2733 
G01 X-33.7729 Y24.4019 
G01 X-33.6257 Y24.5088 
G01 X-33.4636 Y24.5914 
G01 X-33.2906 Y24.6476 
G01 X-33.1110 Y24.6761 
G01 X-32.9290 Y24.6761 
G01 X-32.7771 Y24.6520 
G01 X-32.2818 Y25.6427 
G01 X-32.2677 Y25.6767 
G01 X-32.2561 Y25.6941 
G01 X-32.2468 Y25.7127 
G01 X-32.2242 Y25.7418 
G01 X-32.2038 Y25.7724 
G01 X-32.1890 Y25.7872 
G01 X-32.1762 Y25.8036 
G01 X-32.1484 Y25.8278 
G01 X-31.3062 Y26.6700 
G01 X-32.1484 Y27.5122 
G01 X-32.1762 Y27.5364 
G01 X-32.1890 Y27.5528 
G01 X-32.2038 Y27.5676 
G01 X-32.2242 Y27.5982 
G01 X-32.2468 Y27.6273 
G01 X-32.2561 Y27.6459 
G01 X-32.2677 Y27.6633 
G01 X-32.2818 Y27.6973 
G01 X-32.7771 Y28.6880 
G01 X-32.9290 Y28.6639 
G01 X-33.1110 Y28.6639 
G01 X-33.2906 Y28.6924 
G01 X-33.4636 Y28.7486 
G01 X-33.6257 Y28.8312 
G01 X-33.7729 Y28.9381 
G01 X-33.9015 Y29.0667 
G01 X-34.0084 Y29.2139 
G01 X-34.0910 Y29.3760 
G01 X-34.1472 Y29.5490 
G01 X-34.1757 Y29.7286 
G01 X-34.1757 Y31.2314 
G01 X-34.1472 Y31.4110 
G01 X-34.0910 Y31.5840 
G01 X-34.0084 Y31.7461 
G01 X-33.9015 Y31.8933 
G01 X-33.7729 Y32.0219 
G01 X-33.6257 Y32.1288 
G01 X-33.4636 Y32.2114 
G01 X-33.2906 Y32.2676 
G01 X-33.1110 Y32.2961 
G01 X-32.9290 Y32.2961 
G01 X-32.7494 Y32.2676 
G01 X-32.5764 Y32.2114 
G01 X-32.4143 Y32.1288 
G01 X-32.2671 Y32.0219 
G01 X-32.1385 Y31.8933 
G01 X-32.0316 Y31.7461 
G01 X-31.9490 Y31.5840 
G01 X-31.8928 Y31.4110 
G01 X-31.8643 Y31.2314 
G01 X-31.8643 Y29.7286 
G01 X-31.8928 Y29.5490 
G01 X-31.8961 Y29.5386 
G01 X-31.2699 Y28.2861 
G01 X-30.4800 Y27.4962 
G01 X-29.9208 Y28.0554 
G01 X-30.2371 Y28.6880 
G01 X-30.3890 Y28.6639 
G01 X-30.5710 Y28.6639 
G01 X-30.7506 Y28.6924 
G01 X-30.9236 Y28.7486 
G01 X-31.0857 Y28.8312 
G01 X-31.2329 Y28.9381 
G01 X-31.3615 Y29.0667 
G01 X-31.4684 Y29.2139 
G01 X-31.5510 Y29.3760 
G01 X-31.6072 Y29.5490 
G01 X-31.6357 Y29.7286 
G01 X-31.6357 Y31.2314 
G01 X-31.6072 Y31.4110 
G01 X-31.5510 Y31.5840 
G01 X-31.4684 Y31.7461 
G01 X-31.3615 Y31.8933 
G01 X-31.2329 Y32.0219 
G01 X-31.0857 Y32.1288 
G01 X-30.9236 Y32.2114 
G01 X-30.7506 Y32.2676 
G01 X-30.5710 Y32.2961 
G01 X-30.3890 Y32.2961 
G01 X-30.2094 Y32.2676 
G01 X-30.0364 Y32.2114 
G01 X-29.8743 Y32.1288 
G01 X-29.7271 Y32.0219 
G01 X-29.5985 Y31.8933 
G01 X-29.4916 Y31.7461 
G01 X-29.4090 Y31.5840 
G01 X-29.3528 Y31.4110 
G01 X-29.3243 Y31.2314 
G01 X-29.3243 Y29.7286 
G01 X-29.3528 Y29.5490 
G01 X-29.3561 Y29.5386 
G01 X-28.7039 Y28.2341 
G01 X-28.6923 Y28.2167 
G01 X-28.6782 Y28.1827 
G01 X-28.6617 Y28.1498 
G01 X-28.6562 Y28.1297 
G01 X-28.6483 Y28.1104 
G01 X-28.6411 Y28.0743 
G01 X-28.6314 Y28.0388 
G01 X-28.6299 Y28.0180 
G01 X-28.6258 Y27.9975 
G01 X-28.6258 Y27.9607 
G01 X-28.6232 Y27.9240 
G01 X-28.6258 Y27.9033 
G01 X-28.6258 Y27.8825 
G01 X-28.6330 Y27.8464 
G01 X-28.6376 Y27.8098 
G01 X-28.6442 Y27.7901 
G01 X-28.6483 Y27.7696 
G01 X-28.6623 Y27.7356 
G01 X-28.6740 Y27.7007 
G01 X-28.6843 Y27.6826 
G01 X-28.6923 Y27.6633 
G01 X-28.7127 Y27.6327 
G01 X-28.7310 Y27.6007 
G01 X-28.7446 Y27.5849 
G01 X-28.7562 Y27.5676 
G01 X-28.7822 Y27.5416 
G01 X-28.8064 Y27.5138 
G01 X-28.8228 Y27.5010 
G01 X-29.6538 Y26.6700 
G01 X-28.8228 Y25.8390 
G01 X-28.8064 Y25.8262 
G01 X-28.7822 Y25.7984 
G01 X-28.7562 Y25.7724 
G01 X-28.7446 Y25.7551 
G01 X-28.7310 Y25.7393 
G01 X-28.7127 Y25.7073 
G01 X-28.6923 Y25.6767 
G01 X-28.6843 Y25.6574 
G01 X-28.6740 Y25.6393 
G01 X-28.6623 Y25.6044 
G01 X-28.6483 Y25.5704 
G01 X-28.6442 Y25.5499 
G01 X-28.6376 Y25.5302 
G01 X-28.6330 Y25.4936 
G01 X-28.6258 Y25.4575 
G01 X-28.6258 Y25.4367 
G01 X-28.6232 Y25.4160 
G01 X-28.6258 Y25.3793 
G01 X-28.6258 Y25.3425 
G01 X-28.6299 Y25.3220 
G01 X-28.6314 Y25.3012 
G01 X-28.6411 Y25.2657 
G01 X-28.6483 Y25.2296 
G01 X-28.6562 Y25.2103 
G01 X-28.6617 Y25.1902 
G01 X-28.6782 Y25.1573 
G01 X-28.6923 Y25.1233 
G01 X-28.7039 Y25.1059 
G01 X-29.3561 Y23.8014 
G01 X-29.3528 Y23.7910 
G01 X-29.3243 Y23.6114 
G01 X-29.3243 Y22.1086 
G01 X-29.3528 Y21.9290 
G01 X-29.4090 Y21.7560 
G01 X-29.4916 Y21.5939 
G01 X-29.5985 Y21.4467 
G01 X-29.7271 Y21.3181 
G01 X-29.8743 Y21.2112 
G01 X-30.0364 Y21.1286 
G01 X-30.2094 Y21.0724 
G01 X-30.3890 Y21.0439 
G01 X-30.5710 Y21.0439 
G01 X-30.7506 Y21.0724 
G01 X-30.9236 Y21.1286 
G01 X-31.0857 Y21.2112 
G01 X-31.2329 Y21.3181 
G01 X-31.3615 Y21.4467 
G01 X-31.4684 Y21.5939 
G01 X-31.5510 Y21.7560 
G01 X-31.6072 Y21.9290 
G01 X-31.6357 Y22.1086 
G01 X-31.6357 Y23.6114 
G01 X-31.6072 Y23.7910 
G01 X-31.5510 Y23.9640 
G01 X-31.4684 Y24.1261 
G01 X-31.3615 Y24.2733 
G01 X-31.2329 Y24.4019 
G01 X-31.0857 Y24.5088 
G01 X-30.9236 Y24.5914 
G01 X-30.7506 Y24.6476 
G01 X-30.5710 Y24.6761 
G01 X-30.3890 Y24.6761 
G01 X-30.2371 Y24.6520 
G01 X-29.9208 Y25.2846 
G01 X-30.4800 Y25.8438 
G01 X-31.2699 Y25.0539 
G01 X-31.8961 Y23.8014 
G01 X-31.8928 Y23.7910 
G01 X-31.8643 Y23.6114 
G00 Z2.5400 
G00 X-34.4043 Y23.6114 
G01 Z0.0000 F254.00 
G01 X-34.4043 Y22.1086 F508.00 
G01 X-34.4328 Y21.9290 
G01 X-34.4890 Y21.7560 
G01 X-34.5716 Y21.5939 
G01 X-34.6785 Y21.4467 
G01 X-34.8071 Y21.3181 
G01 X-34.9543 Y21.2112 
G01 X-35.1164 Y21.1286 
G01 X-35.2894 Y21.0724 
G01 X-35.4690 Y21.0439 
G01 X-35.6510 Y21.0439 
G01 X-35.8306 Y21.0724 
G01 X-36.0036 Y21.1286 
G01 X-36.1657 Y21.2112 
G01 X-36.3129 Y21.3181 
G01 X-36.4415 Y21.4467 
G01 X-36.5484 Y21.5939 
G01 X-36.6310 Y21.7560 
G01 X-36.6872 Y21.9290 
G01 X-36.7157 Y22.1086 
G01 X-36.7157 Y23.6114 
G01 X-36.6872 Y23.7910 
G01 X-36.6310 Y23.9640 
G01 X-36.5484 Y24.1261 
G01 X-36.4415 Y24.2733 
G01 X-36.3129 Y24.4019 
G01 X-36.1657 Y24.5088 
G01 X-36.1442 Y24.5198 
G01 X-36.1442 Y28.8202 
G01 X-36.1657 Y28.8312 
G01 X-36.3129 Y28.9381 
G01 X-36.4415 Y29.0667 
G01 X-36.5484 Y29.2139 
G01 X-36.6310 Y29.3760 
G01 X-36.6872 Y29.5490 
G01 X-36.7157 Y29.7286 
G01 X-36.7157 Y31.2314 
G01 X-36.6872 Y31.4110 
G01 X-36.6310 Y31.5840 
G01 X-36.5484 Y31.7461 
G01 X-36.4415 Y31.8933 
G01 X-36.3129 Y32.0219 
G01 X-36.1657 Y32.1288 
G01 X-36.0036 Y32.2114 
G01 X-35.8306 Y32.2676 
G01 X-35.6510 Y32.2961 
G01 X-35.4690 Y32.2961 
G01 X-35.2894 Y32.2676 
G01 X-35.1164 Y32.2114 
G01 X-34.9543 Y32.1288 
G01 X-34.8071 Y32.0219 
G01 X-34.6785 Y31.8933 
G01 X-34.5716 Y31.7461 
G01 X-34.4890 Y31.5840 
G01 X-34.4328 Y31.4110 
G01 X-34.4043 Y31.2314 
G01 X-34.4043 Y29.7286 
G01 X-34.4328 Y29.5490 
G01 X-34.4890 Y29.3760 
G01 X-34.5716 Y29.2139 
G01 X-34.6785 Y29.0667 
G01 X-34.8071 Y28.9381 
G01 X-34.9543 Y28.8312 
G01 X-34.9758 Y28.8202 
G01 X-34.9758 Y24.5198 
G01 X-34.9543 Y24.5088 
G01 X-34.8071 Y24.4019 
G01 X-34.6785 Y24.2733 
G01 X-34.5716 Y24.1261 
G01 X-34.4890 Y23.9640 
G01 X-34.4328 Y23.7910 
G01 X-34.4043 Y23.6114 
G00 Z2.5400 
G00 X-42.0243 Y23.6114 
G01 Z0.0000 F254.00 
G01 X-42.0243 Y23.4442 F508.00 
G01 X-41.7957 Y23.4442 
G01 X-41.7957 Y23.6114 
G01 X-41.7672 Y23.7910 
G01 X-41.7110 Y23.9640 
G01 X-41.6284 Y24.1261 
G01 X-41.5215 Y24.2733 
G01 X-41.3929 Y24.4019 
G01 X-41.2457 Y24.5088 
G01 X-41.2242 Y24.5198 
G01 X-41.2242 Y28.8202 
G01 X-41.2457 Y28.8312 
G01 X-41.3929 Y28.9381 
G01 X-41.5215 Y29.0667 
G01 X-41.6284 Y29.2139 
G01 X-41.7110 Y29.3760 
G01 X-41.7672 Y29.5490 
G01 X-41.7957 Y29.7286 
G01 X-41.7957 Y31.2314 
G01 X-41.7672 Y31.4110 
G01 X-41.7110 Y31.5840 
G01 X-41.6284 Y31.7461 
G01 X-41.5215 Y31.8933 
G01 X-41.3929 Y32.0219 
G01 X-41.2457 Y32.1288 
G01 X-41.0836 Y32.2114 
G01 X-40.9106 Y32.2676 
G01 X-40.7310 Y32.2961 
G01 X-40.5490 Y32.2961 
G01 X-40.3694 Y32.2676 
G01 X-40.1964 Y32.2114 
G01 X-40.0343 Y32.1288 
G01 X-39.8871 Y32.0219 
G01 X-39.7585 Y31.8933 
G01 X-39.6516 Y31.7461 
G01 X-39.5690 Y31.5840 
G01 X-39.5128 Y31.4110 
G01 X-39.4843 Y31.2314 
G01 X-39.4843 Y29.7286 
G01 X-39.5128 Y29.5490 
G01 X-39.5690 Y29.3760 
G01 X-39.6516 Y29.2139 
G01 X-39.7585 Y29.0667 
G01 X-39.8871 Y28.9381 
G01 X-40.0343 Y28.8312 
G01 X-40.0558 Y28.8202 
G01 X-40.0558 Y24.5198 
G01 X-40.0343 Y24.5088 
G01 X-39.8871 Y24.4019 
G01 X-39.7585 Y24.2733 
G01 X-39.6516 Y24.1261 
G01 X-39.5690 Y23.9640 
G01 X-39.5128 Y23.7910 
G01 X-39.4843 Y23.6114 
G01 X-39.4843 Y22.1086 
G01 X-39.5128 Y21.9290 
G01 X-39.5690 Y21.7560 
G01 X-39.6516 Y21.5939 
G01 X-39.7585 Y21.4467 
G01 X-39.8871 Y21.3181 
G01 X-40.0343 Y21.2112 
G01 X-40.1964 Y21.1286 
G01 X-40.3694 Y21.0724 
G01 X-40.5490 Y21.0439 
G01 X-40.7310 Y21.0439 
G01 X-40.9106 Y21.0724 
G01 X-41.0836 Y21.1286 
G01 X-41.2457 Y21.2112 
G01 X-41.3929 Y21.3181 
G01 X-41.5215 Y21.4467 
G01 X-41.6284 Y21.5939 
G01 X-41.7110 Y21.7560 
G01 X-41.7672 Y21.9290 
G01 X-41.7957 Y22.1086 
G01 X-41.7957 Y22.2758 
G01 X-42.0243 Y22.2758 
G01 X-42.0243 Y22.1086 
G01 X-42.0528 Y21.9290 
G01 X-42.1090 Y21.7560 
G01 X-42.1916 Y21.5939 
G01 X-42.2985 Y21.4467 
G01 X-42.4271 Y21.3181 
G01 X-42.5743 Y21.2112 
G01 X-42.7364 Y21.1286 
G01 X-42.9094 Y21.0724 
G01 X-43.0890 Y21.0439 
G01 X-43.2710 Y21.0439 
G01 X-43.4506 Y21.0724 
G01 X-43.6236 Y21.1286 
G01 X-43.7857 Y21.2112 
G01 X-43.9329 Y21.3181 
G01 X-44.0615 Y21.4467 
G01 X-44.1684 Y21.5939 
G01 X-44.2510 Y21.7560 
G01 X-44.3072 Y21.9290 
G01 X-44.3357 Y22.1086 
G01 X-44.3357 Y23.6114 
G01 X-44.3072 Y23.7910 
G01 X-44.2510 Y23.9640 
G01 X-44.1684 Y24.1261 
G01 X-44.0615 Y24.2733 
G01 X-43.9329 Y24.4019 
G01 X-43.7857 Y24.5088 
G01 X-43.7642 Y24.5198 
G01 X-43.7642 Y28.8202 
G01 X-43.7857 Y28.8312 
G01 X-43.9329 Y28.9381 
G01 X-44.0615 Y29.0667 
G01 X-44.1684 Y29.2139 
G01 X-44.2510 Y29.3760 
G01 X-44.3072 Y29.5490 
G01 X-44.3357 Y29.7286 
G01 X-44.3357 Y31.2314 
G01 X-44.3072 Y31.4110 
G01 X-44.2510 Y31.5840 
G01 X-44.1684 Y31.7461 
G01 X-44.0615 Y31.8933 
G01 X-43.9329 Y32.0219 
G01 X-43.7857 Y32.1288 
G01 X-43.6236 Y32.2114 
G01 X-43.4506 Y32.2676 
G01 X-43.2710 Y32.2961 
G01 X-43.0890 Y32.2961 
G01 X-42.9094 Y32.2676 
G01 X-42.7364 Y32.2114 
G01 X-42.5743 Y32.1288 
G01 X-42.4271 Y32.0219 
G01 X-42.2985 Y31.8933 
G01 X-42.1916 Y31.7461 
G01 X-42.1090 Y31.5840 
G01 X-42.0528 Y31.4110 
G01 X-42.0243 Y31.2314 
G01 X-42.0243 Y29.7286 
G01 X-42.0528 Y29.5490 
G01 X-42.1090 Y29.3760 
G01 X-42.1916 Y29.2139 
G01 X-42.2985 Y29.0667 
G01 X-42.4271 Y28.9381 
G01 X-42.5743 Y28.8312 
G01 X-42.5958 Y28.8202 
G01 X-42.5958 Y24.5198 
G01 X-42.5743 Y24.5088 
G01 X-42.4271 Y24.4019 
G01 X-42.2985 Y24.2733 
G01 X-42.1916 Y24.1261 
G01 X-42.1090 Y23.9640 
G01 X-42.0528 Y23.7910 
G01 X-42.0243 Y23.6114 
G00 Z2.5400 
G00 X-54.7243 Y23.6114 
G01 Z0.0000 F254.00 
G01 X-54.7243 Y22.1086 F508.00 
G01 X-54.7528 Y21.9290 
G01 X-54.8090 Y21.7560 
G01 X-54.8916 Y21.5939 
G01 X-54.9985 Y21.4467 
G01 X-55.1271 Y21.3181 
G01 X-55.2743 Y21.2112 
G01 X-55.4364 Y21.1286 
G01 X-55.6094 Y21.0724 
G01 X-55.7890 Y21.0439 
G01 X-55.9710 Y21.0439 
G01 X-56.1506 Y21.0724 
G01 X-56.3236 Y21.1286 
G01 X-56.4857 Y21.2112 
G01 X-56.6329 Y21.3181 
G01 X-56.7615 Y21.4467 
G01 X-56.8684 Y21.5939 
G01 X-56.9510 Y21.7560 
G01 X-57.0072 Y21.9290 
G01 X-57.0357 Y22.1086 
G01 X-57.0357 Y23.6114 
G01 X-57.0072 Y23.7910 
G01 X-56.9510 Y23.9640 
G01 X-56.8684 Y24.1261 
G01 X-56.7615 Y24.2733 
G01 X-56.6329 Y24.4019 
G01 X-56.4857 Y24.5088 
G01 X-56.4642 Y24.5198 
G01 X-56.4642 Y28.8202 
G01 X-56.4857 Y28.8312 
G01 X-56.6329 Y28.9381 
G01 X-56.7615 Y29.0667 
G01 X-56.8684 Y29.2139 
G01 X-56.9510 Y29.3760 
G01 X-57.0072 Y29.5490 
G01 X-57.0357 Y29.7286 
G01 X-57.0357 Y31.2314 
G01 X-57.0072 Y31.4110 
G01 X-56.9510 Y31.5840 
G01 X-56.8684 Y31.7461 
G01 X-56.7615 Y31.8933 
G01 X-56.6329 Y32.0219 
G01 X-56.4857 Y32.1288 
G01 X-56.3236 Y32.2114 
G01 X-56.1506 Y32.2676 
G01 X-55.9710 Y32.2961 
G01 X-55.7890 Y32.2961 
G01 X-55.6094 Y32.2676 
G01 X-55.4364 Y32.2114 
G01 X-55.2743 Y32.1288 
G01 X-55.1271 Y32.0219 
G01 X-54.9985 Y31.8933 
G01 X-54.8916 Y31.7461 
G01 X-54.8090 Y31.5840 
G01 X-54.7528 Y31.4110 
G01 X-54.7243 Y31.2314 
G01 X-54.7243 Y31.0642 
G01 X-54.4957 Y31.0642 
G01 X-54.4957 Y31.2314 
G01 X-54.4672 Y31.4110 
G01 X-54.4110 Y31.5840 
G01 X-54.3284 Y31.7461 
G01 X-54.2215 Y31.8933 
G01 X-54.0929 Y32.0219 
G01 X-53.9457 Y32.1288 
G01 X-53.7836 Y32.2114 
G01 X-53.6106 Y32.2676 
G01 X-53.4310 Y32.2961 
G01 X-53.2490 Y32.2961 
G01 X-53.0694 Y32.2676 
G01 X-52.8964 Y32.2114 
G01 X-52.7343 Y32.1288 
G01 X-52.5871 Y32.0219 
G01 X-52.4585 Y31.8933 
G01 X-52.3516 Y31.7461 
G01 X-52.2690 Y31.5840 
G01 X-52.2128 Y31.4110 
G01 X-52.1843 Y31.2314 
G01 X-52.1843 Y30.1505 
G01 X-51.9557 Y29.9219 
G01 X-51.9557 Y31.2314 
G01 X-51.9272 Y31.4110 
G01 X-51.8710 Y31.5840 
G01 X-51.7884 Y31.7461 
G01 X-51.6815 Y31.8933 
G01 X-51.5529 Y32.0219 
G01 X-51.4057 Y32.1288 
G01 X-51.2436 Y32.2114 
G01 X-51.0706 Y32.2676 
G01 X-50.8910 Y32.2961 
G01 X-50.7090 Y32.2961 
G01 X-50.5294 Y32.2676 
G01 X-50.3564 Y32.2114 
G01 X-50.1943 Y32.1288 
G01 X-50.0471 Y32.0219 
G01 X-49.9185 Y31.8933 
G01 X-49.8116 Y31.7461 
G01 X-49.7290 Y31.5840 
G01 X-49.6728 Y31.4110 
G01 X-49.6443 Y31.2314 
G01 X-49.6443 Y30.1505 
G01 X-49.4157 Y29.9219 
G01 X-49.4157 Y31.2314 
G01 X-49.3872 Y31.4110 
G01 X-49.3310 Y31.5840 
G01 X-49.2484 Y31.7461 
G01 X-49.1415 Y31.8933 
G01 X-49.0129 Y32.0219 
G01 X-48.8657 Y32.1288 
G01 X-48.7036 Y32.2114 
G01 X-48.5306 Y32.2676 
G01 X-48.3510 Y32.2961 
G01 X-48.1690 Y32.2961 
G01 X-47.9894 Y32.2676 
G01 X-47.8164 Y32.2114 
G01 X-47.6543 Y32.1288 
G01 X-47.5071 Y32.0219 
G01 X-47.3785 Y31.8933 
G01 X-47.2716 Y31.7461 
G01 X-47.1890 Y31.5840 
G01 X-47.1328 Y31.4110 
G01 X-47.1043 Y31.2314 
G01 X-47.1043 Y29.7286 
G01 X-47.1328 Y29.5490 
G01 X-47.1361 Y29.5386 
G01 X-46.5099 Y28.2861 
G01 X-45.1518 Y26.9280 
G01 X-45.7304 Y28.6639 
G01 X-45.8110 Y28.6639 
G01 X-45.9906 Y28.6924 
G01 X-46.1636 Y28.7486 
G01 X-46.3257 Y28.8312 
G01 X-46.4729 Y28.9381 
G01 X-46.6015 Y29.0667 
G01 X-46.7084 Y29.2139 
G01 X-46.7910 Y29.3760 
G01 X-46.8472 Y29.5490 
G01 X-46.8757 Y29.7286 
G01 X-46.8757 Y31.2314 
G01 X-46.8472 Y31.4110 
G01 X-46.7910 Y31.5840 
G01 X-46.7084 Y31.7461 
G01 X-46.6015 Y31.8933 
G01 X-46.4729 Y32.0219 
G01 X-46.3257 Y32.1288 
G01 X-46.1636 Y32.2114 
G01 X-45.9906 Y32.2676 
G01 X-45.8110 Y32.2961 
G01 X-45.6290 Y32.2961 
G01 X-45.4494 Y32.2676 
G01 X-45.2764 Y32.2114 
G01 X-45.1143 Y32.1288 
G01 X-44.9671 Y32.0219 
G01 X-44.8385 Y31.8933 
G01 X-44.7316 Y31.7461 
G01 X-44.6490 Y31.5840 
G01 X-44.5928 Y31.4110 
G01 X-44.5643 Y31.2314 
G01 X-44.5643 Y29.7286 
G01 X-44.5928 Y29.5490 
G01 X-44.6490 Y29.3760 
G01 X-44.7017 Y29.2725 
G01 X-43.9023 Y26.8744 
G01 X-43.8882 Y26.8404 
G01 X-43.8842 Y26.8199 
G01 X-43.8776 Y26.8002 
G01 X-43.8730 Y26.7636 
G01 X-43.8658 Y26.7275 
G01 X-43.8658 Y26.7067 
G01 X-43.8632 Y26.6860 
G01 X-43.8658 Y26.6493 
G01 X-43.8658 Y26.6125 
G01 X-43.8699 Y26.5920 
G01 X-43.8713 Y26.5712 
G01 X-43.8811 Y26.5357 
G01 X-43.8882 Y26.4996 
G01 X-43.8962 Y26.4803 
G01 X-43.9017 Y26.4602 
G01 X-43.9182 Y26.4273 
G01 X-43.9323 Y26.3933 
G01 X-43.9439 Y26.3759 
G01 X-43.9532 Y26.3573 
G01 X-43.9758 Y26.3282 
G01 X-43.9962 Y26.2976 
G01 X-44.0110 Y26.2828 
G01 X-44.0238 Y26.2664 
G01 X-44.0516 Y26.2422 
G01 X-44.2588 Y26.0350 
G01 X-44.0628 Y25.8390 
G01 X-44.0464 Y25.8262 
G01 X-44.0222 Y25.7984 
G01 X-43.9962 Y25.7724 
G01 X-43.9846 Y25.7551 
G01 X-43.9710 Y25.7393 
G01 X-43.9527 Y25.7073 
G01 X-43.9323 Y25.6767 
G01 X-43.9243 Y25.6574 
G01 X-43.9140 Y25.6393 
G01 X-43.9023 Y25.6044 
G01 X-43.8882 Y25.5704 
G01 X-43.8842 Y25.5499 
G01 X-43.8776 Y25.5302 
G01 X-43.8730 Y25.4936 
G01 X-43.8658 Y25.4575 
G01 X-43.8658 Y25.4367 
G01 X-43.8632 Y25.4160 
G01 X-43.8658 Y25.3793 
G01 X-43.8658 Y25.3425 
G01 X-43.8699 Y25.3220 
G01 X-43.8713 Y25.3012 
G01 X-43.8811 Y25.2657 
G01 X-43.8882 Y25.2296 
G01 X-43.8962 Y25.2103 
G01 X-43.9017 Y25.1902 
G01 X-43.9182 Y25.1573 
G01 X-43.9323 Y25.1233 
G01 X-43.9439 Y25.1059 
G01 X-44.5961 Y23.8014 
G01 X-44.5928 Y23.7910 
G01 X-44.5643 Y23.6114 
G01 X-44.5643 Y22.1086 
G01 X-44.5928 Y21.9290 
G01 X-44.6490 Y21.7560 
G01 X-44.7316 Y21.5939 
G01 X-44.8385 Y21.4467 
G01 X-44.9671 Y21.3181 
G01 X-45.1143 Y21.2112 
G01 X-45.2764 Y21.1286 
G01 X-45.4494 Y21.0724 
G01 X-45.6290 Y21.0439 
G01 X-45.8110 Y21.0439 
G01 X-45.9906 Y21.0724 
G01 X-46.1636 Y21.1286 
G01 X-46.3257 Y21.2112 
G01 X-46.4729 Y21.3181 
G01 X-46.6015 Y21.4467 
G01 X-46.7084 Y21.5939 
G01 X-46.7910 Y21.7560 
G01 X-46.8472 Y21.9290 
G01 X-46.8757 Y22.1086 
G01 X-46.8757 Y23.4181 
G01 X-47.1043 Y23.1895 
G01 X-47.1043 Y22.1086 
G01 X-47.1328 Y21.9290 
G01 X-47.1890 Y21.7560 
G01 X-47.2716 Y21.5939 
G01 X-47.3785 Y21.4467 
G01 X-47.5071 Y21.3181 
G01 X-47.6543 Y21.2112 
G01 X-47.8164 Y21.1286 
G01 X-47.9894 Y21.0724 
G01 X-48.1690 Y21.0439 
G01 X-48.3510 Y21.0439 
G01 X-48.5306 Y21.0724 
G01 X-48.7036 Y21.1286 
G01 X-48.8657 Y21.2112 
G01 X-49.0129 Y21.3181 
G01 X-49.1415 Y21.4467 
G01 X-49.2484 Y21.5939 
G01 X-49.3310 Y21.7560 
G01 X-49.3872 Y21.9290 
G01 X-49.4157 Y22.1086 
G01 X-49.4157 Y23.4181 
G01 X-49.6443 Y23.1895 
G01 X-49.6443 Y22.1086 
G01 X-49.6728 Y21.9290 
G01 X-49.7290 Y21.7560 
G01 X-49.8116 Y21.5939 
G01 X-49.9185 Y21.4467 
G01 X-50.0471 Y21.3181 
G01 X-50.1943 Y21.2112 
G01 X-50.3564 Y21.1286 
G01 X-50.5294 Y21.0724 
G01 X-50.7090 Y21.0439 
G01 X-50.8910 Y21.0439 
G01 X-51.0706 Y21.0724 
G01 X-51.2436 Y21.1286 
G01 X-51.4057 Y21.2112 
G01 X-51.5529 Y21.3181 
G01 X-51.6815 Y21.4467 
G01 X-51.7884 Y21.5939 
G01 X-51.8710 Y21.7560 
G01 X-51.9272 Y21.9290 
G01 X-51.9557 Y22.1086 
G01 X-51.9557 Y22.2758 
G01 X-52.1843 Y22.2758 
G01 X-52.1843 Y22.1086 
G01 X-52.2128 Y21.9290 
G01 X-52.2690 Y21.7560 
G01 X-52.3516 Y21.5939 
G01 X-52.4585 Y21.4467 
G01 X-52.5871 Y21.3181 
G01 X-52.7343 Y21.2112 
G01 X-52.8964 Y21.1286 
G01 X-53.0694 Y21.0724 
G01 X-53.2490 Y21.0439 
G01 X-53.4310 Y21.0439 
G01 X-53.6106 Y21.0724 
G01 X-53.7836 Y21.1286 
G01 X-53.9457 Y21.2112 
G01 X-54.0929 Y21.3181 
G01 X-54.2215 Y21.4467 
G01 X-54.3284 Y21.5939 
G01 X-54.4110 Y21.7560 
G01 X-54.4672 Y21.9290 
G01 X-54.4957 Y22.1086 
G01 X-54.4957 Y23.6114 
G01 X-54.4672 Y23.7910 
G01 X-54.4639 Y23.8014 
G01 X-55.1161 Y25.1059 
G01 X-55.1277 Y25.1233 
G01 X-55.1418 Y25.1573 
G01 X-55.1583 Y25.1902 
G01 X-55.1638 Y25.2103 
G01 X-55.1717 Y25.2296 
G01 X-55.1789 Y25.2657 
G01 X-55.1886 Y25.3012 
G01 X-55.1901 Y25.3220 
G01 X-55.1942 Y25.3425 
G01 X-55.1942 Y25.3793 
G01 X-55.1968 Y25.4160 
G01 X-55.1942 Y25.4367 
G01 X-55.1942 Y26.7275 
G01 X-55.1717 Y26.8404 
G01 X-55.1277 Y26.9467 
G01 X-55.0638 Y27.0424 
G01 X-53.4407 Y28.6654 
G01 X-53.6106 Y28.6924 
G01 X-53.7836 Y28.7486 
G01 X-53.9457 Y28.8312 
G01 X-54.0929 Y28.9381 
G01 X-54.2215 Y29.0667 
G01 X-54.3284 Y29.2139 
G01 X-54.4110 Y29.3760 
G01 X-54.4672 Y29.5490 
G01 X-54.4957 Y29.7286 
G01 X-54.4957 Y29.8958 
G01 X-54.7243 Y29.8958 
G01 X-54.7243 Y29.7286 
G01 X-54.7528 Y29.5490 
G01 X-54.8090 Y29.3760 
G01 X-54.8916 Y29.2139 
G01 X-54.9985 Y29.0667 
G01 X-55.1271 Y28.9381 
G01 X-55.2743 Y28.8312 
G01 X-55.2958 Y28.8202 
G01 X-55.2958 Y24.5198 
G01 X-55.2743 Y24.5088 
G01 X-55.1271 Y24.4019 
G01 X-54.9985 Y24.2733 
G01 X-54.8916 Y24.1261 
G01 X-54.8090 Y23.9640 
G01 X-54.7528 Y23.7910 
G01 X-54.7243 Y23.6114 
G00 Z2.5400 
G00 X-36.9443 Y31.2314 
G01 Z0.0000 F254.00 
G01 X-36.9443 Y29.7286 F508.00 
G01 X-36.9728 Y29.5490 
G01 X-37.0290 Y29.3760 
G01 X-37.1116 Y29.2139 
G01 X-37.2185 Y29.0667 
G01 X-37.3471 Y28.9381 
G01 X-37.4943 Y28.8312 
G01 X-37.5158 Y28.8202 
G01 X-37.5158 Y24.5198 
G01 X-37.4943 Y24.5088 
G01 X-37.3471 Y24.4019 
G01 X-37.2185 Y24.2733 
G01 X-37.1116 Y24.1261 
G01 X-37.0290 Y23.9640 
G01 X-36.9728 Y23.7910 
G01 X-36.9443 Y23.6114 
G01 X-36.9443 Y22.1086 
G01 X-36.9728 Y21.9290 
G01 X-37.0290 Y21.7560 
G01 X-37.1116 Y21.5939 
G01 X-37.2185 Y21.4467 
G01 X-37.3471 Y21.3181 
G01 X-37.4943 Y21.2112 
G01 X-37.6564 Y21.1286 
G01 X-37.8294 Y21.0724 
G01 X-38.0090 Y21.0439 
G01 X-38.1910 Y21.0439 
G01 X-38.3706 Y21.0724 
G01 X-38.5436 Y21.1286 
G01 X-38.7057 Y21.2112 
G01 X-38.8529 Y21.3181 
G01 X-38.9815 Y21.4467 
G01 X-39.0884 Y21.5939 
G01 X-39.1710 Y21.7560 
G01 X-39.2272 Y21.9290 
G01 X-39.2557 Y22.1086 
G01 X-39.2557 Y23.6114 
G01 X-39.2272 Y23.7910 
G01 X-39.1710 Y23.9640 
