(Projekt Zeichnung)
(Erstellt mit Estlcam Version 7 Build 7,623)
(Fraesrichtung: Gegenlauf)
(Nullpunkt: Auf Teileoberseite)
(Verwendete Werkzeuge:)
(Fraeser 3mm)

G00 Z5.0000

(Nr. 1 Kreistasche 4)
G00 X-14.0000 Y45.0000
G00 Z0.5000
G01 Z-1.0000 F300 S24000
G00 Z0.5000
G00 Z-0.5000
G01 Z-2.0000
G00 Z0.5000
G00 Z-1.5000
G01 Z-3.0000
G00 Z5.0000

(Nr. 2 Teil 1)
G00 X-0.8764 Y26.3087
G00 Z0.5000
G01 Z-1.0000
G03 X-1.0861 Y24.0568 I0.8764 J-1.2174 F600
G01 X8.2508 Y14.2551
G01 X5.8263 Y0.6328
G03 X8.0068 Y-0.9547 I1.4768 J-0.2628
G01 X19.7316 Y5.2743
G01 X31.2822 Y-1.3035
G03 X33.5148 Y0.1703 I0.7423 J1.3035
G01 X31.4567 Y13.9107
G01 X41.0561 Y23.4275
G03 X40.2477 Y25.9721 I-1.0561 J1.0652
G01 X27.2441 Y28.1488
G01 X21.5733 Y40.6209
G03 X18.8838 Y40.7050 I-1.3655 J-0.6209
G01 X12.8521 Y28.3639
G01 X-0.2033 Y26.5775
G03 X-0.8764 Y26.3087 I0.2033 J-1.4862
G01 Z-2.0000 F300
G03 X-1.0861 Y24.0568 I0.8764 J-1.2174 F600
G01 X8.2508 Y14.2551
G01 X5.8263 Y0.6328
G03 X8.0068 Y-0.9547 I1.4768 J-0.2628
G01 X19.7316 Y5.2743
G01 X31.2822 Y-1.3035
G03 X33.5148 Y0.1703 I0.7423 J1.3035
G01 X31.4567 Y13.9107
G01 X41.0561 Y23.4275
G03 X40.2477 Y25.9721 I-1.0561 J1.0652
G01 X27.2441 Y28.1488
G01 X21.5733 Y40.6209
G03 X18.8838 Y40.7050 I-1.3655 J-0.6209
G01 X12.8521 Y28.3639
G01 X-0.2033 Y26.5775
G03 X-0.8764 Y26.3087 I0.2033 J-1.4862
G01 Z-3.0000 F300
G03 X-1.0861 Y24.0568 I0.8764 J-1.2174 F600
G01 X8.2508 Y14.2551
G01 X5.8263 Y0.6328
G03 X8.0068 Y-0.9547 I1.4768 J-0.2628
G01 X19.7316 Y5.2743
G01 X31.2822 Y-1.3035
G03 X33.5148 Y0.1703 I0.7423 J1.3035
G01 X31.4567 Y13.9107
G01 X41.0561 Y23.4275
G03 X40.2477 Y25.9721 I-1.0561 J1.0652
G01 X27.2441 Y28.1488
G01 X21.5733 Y40.6209
G03 X18.8838 Y40.7050 I-1.3655 J-0.6209
G01 X12.8521 Y28.3639
G01 X-0.2033 Y26.5775
G03 X-0.8764 Y26.3087 I0.2033 J-1.4862
G00 Z5.0000
G00 X0.0000 Y0.0000
